P3
400 225
255
204 226 255
204 226 255
204 226 255
204 226 255
204 226 255
204 226 255
204 226 255
204 226 255
204 226 255
204 226 255
204 226 255
204 226 255
204 226 255
204 226 255
204 226 255
203 226 255
203 226 255
203 226 255
203 226 255
203 226 255
203 226 255
203 226 255
203 226 255
203 225 255
203 225 255
203 225 255
203 225 255
203 225 255
203 225 255
203 225 255
203 225 255
203 225 255
202 225 255
202 225 255
202 225 255
202 225 255
202 225 255
202 225 255
202 225 255
202 225 255
202 225 255
202 225 255
202 225 255
202 225 255
202 225 255
202 225 255
202 225 255
202 225 255
201 225 255
201 225 255
201 225 255
201 225 255
201 224 255
201 224 255
201 224 255
201 224 255
201 224 255
201 224 255
201 224 255
201 224 255
201 224 255
201 224 255
201 224 255
200 224 255
200 224 255
200 224 255
200 224 255
200 224 255
200 224 255
200 224 255
200 224 255
200 224 255
200 224 255
200 224 255
200 224 255
200 224 255
200 224 255
200 224 255
199 224 255
199 224 255
199 223 255
199 223 255
199 223 255
199 223 255
199 223 255
199 223 255
199 223 255
199 223 255
199 223 255
199 223 255
199 223 255
199 223 255
198 223 255
198 223 255
198 223 255
198 223 255
198 223 255
198 223 255
198 223 255
198 223 255
198 223 255
198 223 255
198 223 255
198 223 255
198 223 255
198 223 255
197 222 255
197 222 255
197 222 255
197 222 255
197 222 255
197 222 255
197 222 255
197 222 255
197 222 255
197 222 255
197 222 255
197 222 255
197 222 255
197 222 255
197 222 255
196 222 255
196 222 255
196 222 255
196 222 255
196 222 255
196 222 255
196 222 255
196 222 255
196 222 255
196 222 255
196 222 255
196 222 255
196 222 255
196 222 255
196 221 255
196 221 255
195 221 255
195 221 255
195 221 255
195 221 255
195 221 255
195 221 255
195 221 255
195 221 255
195 221 255
195 221 255
195 221 255
195 221 255
195 221 255
195 221 255
195 221 255
195 221 255
195 221 255
195 221 255
195 221 255
194 221 255
194 221 255
194 221 255
194 221 255
194 221 255
194 221 255
194 221 255
194 221 255
194 221 255
194 221 255
194 221 255
194 221 255
194 221 255
194 221 255
194 221 255
194 221 255
194 221 255
194 221 255
194 221 255
194 221 255
194 221 255
194 220 255
194 220 255
194 220 255
194 220 255
194 220 255
194 220 255
194 220 255
194 220 255
194 220 255
193 220 255
193 220 255
193 220 255
193 220 255
193 220 255
193 220 255
193 220 255
193 220 255
193 220 255
193 220 255
193 220 255
193 220 255
193 220 255
193 220 255
193 220 255
193 220 255
193 220 255
193 220 255
193 220 255
193 220 255
193 220 255
193 220 255
193 220 255
193 220 255
193 220 255
193 220 255
193 220 255
193 220 255
194 220 255
194 220 255
194 220 255
194 220 255
194 220 255
194 220 255
194 220 255
194 220 255
194 220 255
194 221 255
194 221 255
194 221 255
194 221 255
194 221 255
194 221 255
194 221 255
194 221 255
194 221 255
194 221 255
194 221 255
194 221 255
194 221 255
194 221 255
194 221 255
194 221 255
194 221 255
194 221 255
194 221 255
194 221 255
194 221 255
194 221 255
195 221 255
195 221 255
195 221 255
195 221 255
195 221 255
195 221 255
195 221 255
195 221 255
195 221 255
195 221 255
195 221 255
195 221 255
195 221 255
195 221 255
195 221 255
195 221 255
195 221 255
195 221 255
196 221 255
196 221 255
196 222 255
196 222 255
196 222 255
196 222 255
196 222 255
196 222 255
196 222 255
196 222 255
196 222 255
196 222 255
196 222 255
196 222 255
196 222 255
196 222 255
197 222 255
197 222 255
197 222 255
197 222 255
197 222 255
197 222 255
197 222 255
197 222 255
197 222 255
197 222 255
197 222 255
197 222 255
197 222 255
197 222 255
197 223 255
198 223 255
198 223 255
198 223 255
198 223 255
198 223 255
198 223 255
198 223 255
198 223 255
198 223 255
198 223 255
198 223 255
198 223 255
198 223 255
198 223 255
199 223 255
199 223 255
199 223 255
199 223 255
199 223 255
199 223 255
199 223 255
199 223 255
199 223 255
199 223 255
199 223 255
199 223 255
199 224 255
199 224 255
200 224 255
200 224 255
200 224 255
200 224 255
200 224 255
200 224 255
200 224 255
200 224 255
200 224 255
200 224 255
200 224 255
200 224 255
200 224 255
200 224 255
200 224 255
201 224 255
201 224 255
201 224 255
201 224 255
201 224 255
201 224 255
201 224 255
201 224 255
201 224 255
201 224 255
201 225 255
201 225 255
201 225 255
201 225 255
201 225 255
202 225 255
202 225 255
202 225 255
202 225 255
202 225 255
202 225 255
202 225 255
202 225 255
202 225 255
202 225 255
202 225 255
202 225 255
202 225 255
202 225 255
202 225 255
202 225 255
203 225 255
203 225 255
203 225 255
203 225 255
203 225 255
203 225 255
203 225 255
203 225 255
203 225 255
203 226 255
203 226 255
203 226 255
203 226 255
203 226 255
203 226 255
203 226 255
203 226 255
204 226 255
204 226 255
204 226 255
204 226 255
204 226 255
204 226 255
204 226 255
204 226 255
204 226 255
204 226 255
204 226 255
204 226 255
204 226 255
204 226 255
204 226 255
204 226 255
204 226 255
204 226 255
204 226 255
204 226 255
204 226 255
204 226 255
204 226 255
204 226 255
204 226 255
204 226 255
204 226 255
204 226 255
204 226 255
204 226 255
204 226 255
204 226 255
203 226 255
203 226 255
203 226 255
203 226 255
203 226 255
203 226 255
203 226 255
203 226 255
203 225 255
203 225 255
203 225 255
203 225 255
203 225 255
203 225 255
203 225 255
203 225 255
203 225 255
202 225 255
202 225 255
202 225 255
202 225 255
202 225 255
202 225 255
202 225 255
202 225 255
202 225 255
202 225 255
202 225 255
202 225 255
202 225 255
202 225 255
202 225 255
202 225 255
201 225 255
201 225 255
201 225 255
201 225 255
201 225 255
201 224 255
201 224 255
201 224 255
201 224 255
201 224 255
201 224 255
201 224 255
201 224 255
201 224 255
201 224 255
200 224 255
200 224 255
200 224 255
200 224 255
200 224 255
200 224 255
200 224 255
200 224 255
200 224 255
200 224 255
200 224 255
200 224 255
200 224 255
200 224 255
200 224 255
199 224 255
199 224 255
199 223 255
199 223 255
199 223 255
199 223 255
199 223 255
199 223 255
199 223 255
199 223 255
199 223 255
199 223 255
199 223 255
199 223 255
198 223 255
198 223 255
198 223 255
198 223 255
198 223 255
198 223 255
198 223 255
198 223 255
198 223 255
198 223 255
198 223 255
198 223 255
198 223 255
198 223 255
197 223 255
197 222 255
197 222 255
197 222 255
197 222 255
197 222 255
197 222 255
197 222 255
197 222 255
197 222 255
197 222 255
197 222 255
197 222 255
197 222 255
197 222 255
196 222 255
196 222 255
196 222 255
196 222 255
196 222 255
196 222 255
196 222 255
196 222 255
196 222 255
196 222 255
196 222 255
196 222 255
196 222 255
196 222 255
196 222 255
196 221 255
195 221 255
195 221 255
195 221 255
195 221 255
195 221 255
195 221 255
195 221 255
195 221 255
195 221 255
195 221 255
195 221 255
195 221 255
195 221 255
195 221 255
195 221 255
195 221 255
195 221 255
195 221 255
195 221 255
194 221 255
194 221 255
194 221 255
194 221 255
194 221 255
194 221 255
194 221 255
194 221 255
194 221 255
194 221 255
194 221 255
194 221 255
194 221 255
194 221 255
194 221 255
194 221 255
194 221 255
194 221 255
194 221 255
194 221 255
194 221 255
194 221 255
194 221 255
194 221 255
194 221 255
194 220 255
194 220 255
194 220 255
194 220 255
194 220 255
194 220 255
194 220 255
194 220 255
194 220 255
194 220 255
194 220 255
194 220 255
194 220 255
194 220 255
194 220 255
194 220 255
194 220 255
194 220 255
194 220 255
194 220 255
194 220 255
194 220 255
194 220 255
194 220 255
194 220 255
194 220 255
194 220 255
194 220 255
194 220 255
194 220 255
194 220 255
194 220 255
194 220 255
194 220 255
194 221 255
194 221 255
194 221 255
194 221 255
194 221 255
194 221 255
194 221 255
194 221 255
194 221 255
194 221 255
194 221 255
194 221 255
194 221 255
194 221 255
194 221 255
194 221 255
194 221 255
194 221 255
194 221 255
194 221 255
194 221 255
194 221 255
194 221 255
194 221 255
194 221 255
195 221 255
195 221 255
195 221 255
195 221 255
195 221 255
195 221 255
195 221 255
195 221 255
195 221 255
195 221 255
195 221 255
195 221 255
195 221 255
195 221 255
195 221 255
195 221 255
195 221 255
195 221 255
195 221 255
196 221 255
196 222 255
196 222 255
196 222 255
196 222 255
196 222 255
196 222 255
196 222 255
196 222 255
196 222 255
196 222 255
196 222 255
196 222 255
196 222 255
196 222 255
196 222 255
197 222 255
197 222 255
197 222 255
197 222 255
197 222 255
197 222 255
197 222 255
197 222 255
197 222 255
197 222 255
197 222 255
197 222 255
197 222 255
197 222 255
197 223 255
198 223 255
198 223 255
198 223 255
198 223 255
198 223 255
198 223 255
198 223 255
198 223 255
198 223 255
198 223 255
198 223 255
198 223 255
198 223 255
198 223 255
199 223 255
199 223 255
199 223 255
199 223 255
199 223 255
199 223 255
199 223 255
199 223 255
199 223 255
199 223 255
199 223 255
199 223 255
199 224 255
199 224 255
199 224 255
200 224 255
200 224 255
200 224 255
200 224 255
200 224 255
200 224 255
200 224 255
200 224 255
200 224 255
200 224 255
200 224 255
200 224 255
200 224 255
200 224 255
201 224 255
201 224 255
201 224 255
201 224 255
201 224 255
201 224 255
201 224 255
201 224 255
201 224 255
201 224 255
201 225 255
201 225 255
201 225 255
201 225 255
201 225 255
202 225 255
202 225 255
202 225 255
202 225 255
202 225 255
202 225 255
202 225 255
202 225 255
202 225 255
202 225 255
202 225 255
202 225 255
202 225 255
202 225 255
202 225 255
202 225 255
203 225 255
203 225 255
203 225 255
203 225 255
203 225 255
203 225 255
203 225 255
203 225 255
203 225 255
203 226 255
203 226 255
203 226 255
203 226 255
203 226 255
203 226 255
203 226 255
204 226 255
204 226 255
204 226 255
204 226 255
204 226 255
204 226 255
204 226 255
204 226 255
204 226 255
204 226 255
204 226 255
204 226 255
204 226 255
204 226 255
204 226 255
204 226 255
204 226 255
204 226 255
205 226 255
205 226 255
204 226 255
204 226 255
204 226 255
204 226 255
204 226 255
204 226 255
204 226 255
204 226 255
204 226 255
204 226 255
204 226 255
204 226 255
204 226 255
204 226 255
204 226 255
204 226 255
204 226 255
204 226 255
203 226 255
203 226 255
203 226 255
203 226 255
203 226 255
203 226 255
203 226 255
203 225 255
203 225 255
203 225 255
203 225 255
203 225 255
203 225 255
203 225 255
203 225 255
203 225 255
203 225 255
202 225 255
202 225 255
202 225 255
202 225 255
202 225 255
202 225 255
202 225 255
202 225 255
202 225 255
202 225 255
202 225 255
202 225 255
202 225 255
202 225 255
202 225 255
201 225 255
201 225 255
201 225 255
201 225 255
201 225 255
201 224 255
201 224 255
201 224 255
201 224 255
201 224 255
201 224 255
201 224 255
201 224 255
201 224 255
201 224 255
200 224 255
200 224 255
200 224 255
200 224 255
200 224 255
200 224 255
200 224 255
200 224 255
200 224 255
200 224 255
200 224 255
200 224 255
200 224 255
200 224 255
200 224 255
199 224 255
199 224 255
199 223 255
199 223 255
199 223 255
199 223 255
199 223 255
199 223 255
199 223 255
199 223 255
199 223 255
199 223 255
199 223 255
199 223 255
198 223 255
198 223 255
198 223 255
198 223 255
198 223 255
198 223 255
198 223 255
198 223 255
198 223 255
198 223 255
198 223 255
198 223 255
198 223 255
198 223 255
197 223 255
197 222 255
197 222 255
197 222 255
197 222 255
197 222 255
197 222 255
197 222 255
197 222 255
197 222 255
197 222 255
197 222 255
197 222 255
197 222 255
197 222 255
196 222 255
196 222 255
196 222 255
196 222 255
196 222 255
196 222 255
196 222 255
196 222 255
196 222 255
196 222 255
196 222 255
196 222 255
196 222 255
196 222 255
196 222 255
196 221 255
195 221 255
195 221 255
195 221 255
195 221 255
195 221 255
195 221 255
195 221 255
195 221 255
195 221 255
195 221 255
195 221 255
195 221 255
195 221 255
195 221 255
195 221 255
195 221 255
195 221 255
195 221 255
195 221 255
195 221 255
195 221 255
194 221 255
194 221 255
194 221 255
194 221 255
194 221 255
194 221 255
194 221 255
194 221 255
194 221 255
194 221 255
194 221 255
194 221 255
194 221 255
194 221 255
194 221 255
194 221 255
194 221 255
194 221 255
194 221 255
194 221 255
194 221 255
194 221 255
194 221 255
194 221 255
194 221 255
194 221 255
194 221 255
194 221 255
194 221 255
194 221 255
194 220 255
194 220 255
194 220 255
194 220 255
194 220 255
194 220 255
194 220 255
194 220 255
194 220 255
194 220 255
194 220 255
194 220 255
194 220 255
194 220 255
194 220 255
194 220 255
194 221 255
194 221 255
194 221 255
194 221 255
194 221 255
194 221 255
194 221 255
194 221 255
194 221 255
194 221 255
194 221 255
194 221 255
194 221 255
194 221 255
194 221 255
194 221 255
194 221 255
194 221 255
194 221 255
194 221 255
194 221 255
194 221 255
194 221 255
194 221 255
194 221 255
194 221 255
194 221 255
194 221 255
194 221 255
194 221 255
195 221 255
195 221 255
195 221 255
195 221 255
195 221 255
195 221 255
195 221 255
195 221 255
195 221 255
195 221 255
195 221 255
195 221 255
195 221 255
195 221 255
195 221 255
195 221 255
195 221 255
195 221 255
195 221 255
195 221 255
195 221 255
196 221 255
196 222 255
196 222 255
196 222 255
196 222 255
196 222 255
196 222 255
196 222 255
196 222 255
196 222 255
196 222 255
196 222 255
196 222 255
196 222 255
196 222 255
196 222 255
197 222 255
197 222 255
197 222 255
197 222 255
197 222 255
197 222 255
197 222 255
197 222 255
197 222 255
197 222 255
197 222 255
197 222 255
197 222 255
197 222 255
197 223 255
198 223 255
198 223 255
198 223 255
198 223 255
198 223 255
198 223 255
198 223 255
198 223 255
198 223 255
198 223 255
198 223 255
198 223 255
198 223 255
198 223 255
199 223 255
199 223 255
199 223 255
199 223 255
199 223 255
199 223 255
199 223 255
199 223 255
199 223 255
199 223 255
199 223 255
199 223 255
199 224 255
199 224 255
200 224 255
200 224 255
200 224 255
200 224 255
200 224 255
200 224 255
200 224 255
200 224 255
200 224 255
200 224 255
200 224 255
200 224 255
200 224 255
200 224 255
200 224 255
201 224 255
201 224 255
201 224 255
201 224 255
201 224 255
201 224 255
201 224 255
201 224 255
201 224 255
201 224 255
201 225 255
201 225 255
201 225 255
201 225 255
201 225 255
202 225 255
202 225 255
202 225 255
202 225 255
202 225 255
202 225 255
202 225 255
202 225 255
202 225 255
202 225 255
202 225 255
202 225 255
202 225 255
202 225 255
202 225 255
203 225 255
203 225 255
203 225 255
203 225 255
203 225 255
203 225 255
203 225 255
203 225 255
203 225 255
203 225 255
203 226 255
203 226 255
203 226 255
203 226 255
203 226 255
203 226 255
203 226 255
204 226 255
204 226 255
204 226 255
204 226 255
204 226 255
204 226 255
204 226 255
204 226 255
204 226 255
204 226 255
204 226 255
204 226 255
204 226 255
204 226 255
204 226 255
204 226 255
204 226 255
204 226 255
205 226 255
205 226 255
205 226 255
205 226 255
205 226 255
205 226 255
204 226 255
204 226 255
204 226 255
204 226 255
204 226 255
204 226 255
204 226 255
204 226 255
204 226 255
204 226 255
204 226 255
204 226 255
204 226 255
204 226 255
204 226 255
204 226 255
204 226 255
204 226 255
203 226 255
203 226 255
203 226 255
203 226 255
203 226 255
203 226 255
203 226 255
203 226 255
203 225 255
203 225 255
203 225 255
203 225 255
203 225 255
203 225 255
203 225 255
203 225 255
203 225 255
202 225 255
202 225 255
202 225 255
202 225 255
202 225 255
202 225 255
202 225 255
202 225 255
202 225 255
202 225 255
202 225 255
202 225 255
202 225 255
202 225 255
202 225 255
201 225 255
201 225 255
201 225 255
201 225 255
201 225 255
201 224 255
201 224 255
201 224 255
201 224 255
201 224 255
201 224 255
201 224 255
201 224 255
201 224 255
201 224 255
200 224 255
200 224 255
200 224 255
200 224 255
200 224 255
200 224 255
200 224 255
200 224 255
200 224 255
200 224 255
200 224 255
200 224 255
200 224 255
200 224 255
200 224 255
199 224 255
199 224 255
199 223 255
199 223 255
199 223 255
199 223 255
199 223 255
199 223 255
199 223 255
199 223 255
199 223 255
199 223 255
199 223 255
199 223 255
198 223 255
198 223 255
198 223 255
198 223 255
198 223 255
198 223 255
198 223 255
198 223 255
198 223 255
198 223 255
198 223 255
198 223 255
198 223 255
198 223 255
197 223 255
197 222 255
197 222 255
197 222 255
197 222 255
197 222 255
197 222 255
197 222 255
197 222 255
197 222 255
197 222 255
197 222 255
197 222 255
197 222 255
197 222 255
196 222 255
196 222 255
196 222 255
196 222 255
196 222 255
196 222 255
196 222 255
196 222 255
196 222 255
196 222 255
196 222 255
196 222 255
196 222 255
196 222 255
196 222 255
196 221 255
196 221 255
195 221 255
195 221 255
195 221 255
195 221 255
195 221 255
195 221 255
195 221 255
195 221 255
195 221 255
195 221 255
195 221 255
195 221 255
195 221 255
195 221 255
195 221 255
195 221 255
195 221 255
195 221 255
195 221 255
195 221 255
195 221 255
194 221 255
194 221 255
194 221 255
194 221 255
194 221 255
194 221 255
194 221 255
194 221 255
194 221 255
194 221 255
194 221 255
194 221 255
194 221 255
194 221 255
194 221 255
194 221 255
194 221 255
194 221 255
194 221 255
194 221 255
194 221 255
194 221 255
194 221 255
194 221 255
194 221 255
194 221 255
194 221 255
194 221 255
194 221 255
194 221 255
194 221 255
194 221 255
194 221 255
194 221 255
194 221 255
194 221 255
194 221 255
194 221 255
194 221 255
194 221 255
194 221 255
194 221 255
194 221 255
194 221 255
194 221 255
194 221 255
194 221 255
194 221 255
194 221 255
194 221 255
194 221 255
194 221 255
194 221 255
194 221 255
194 221 255
194 221 255
194 221 255
194 221 255
194 221 255
194 221 255
194 221 255
194 221 255
194 221 255
194 221 255
194 221 255
194 221 255
194 221 255
194 221 255
194 221 255
194 221 255
195 221 255
195 221 255
195 221 255
195 221 255
195 221 255
195 221 255
195 221 255
195 221 255
195 221 255
195 221 255
195 221 255
195 221 255
195 221 255
195 221 255
195 221 255
195 221 255
195 221 255
195 221 255
195 221 255
195 221 255
195 221 255
196 221 255
196 222 255
196 222 255
196 222 255
196 222 255
196 222 255
196 222 255
196 222 255
196 222 255
196 222 255
196 222 255
196 222 255
196 222 255
196 222 255
196 222 255
196 222 255
196 222 255
197 222 255
197 222 255
197 222 255
197 222 255
197 222 255
197 222 255
197 222 255
197 222 255
197 222 255
197 222 255
197 222 255
197 222 255
197 222 255
197 222 255
197 223 255
198 223 255
198 223 255
198 223 255
198 223 255
198 223 255
198 223 255
198 223 255
198 223 255
198 223 255
198 223 255
198 223 255
198 223 255
198 223 255
198 223 255
199 223 255
199 223 255
199 223 255
199 223 255
199 223 255
199 223 255
199 223 255
199 223 255
199 223 255
199 223 255
199 223 255
199 223 255
199 224 255
199 224 255
200 224 255
200 224 255
200 224 255
200 224 255
200 224 255
200 224 255
200 224 255
200 224 255
200 224 255
200 224 255
200 224 255
200 224 255
200 224 255
200 224 255
200 224 255
201 224 255
201 224 255
201 224 255
201 224 255
201 224 255
201 224 255
201 224 255
201 224 255
201 224 255
201 224 255
201 225 255
201 225 255
201 225 255
201 225 255
201 225 255
202 225 255
202 225 255
202 225 255
202 225 255
202 225 255
202 225 255
202 225 255
202 225 255
202 225 255
202 225 255
202 225 255
202 225 255
202 225 255
202 225 255
202 225 255
203 225 255
203 225 255
203 225 255
203 225 255
203 225 255
203 225 255
203 225 255
203 225 255
203 225 255
203 226 255
203 226 255
203 226 255
203 226 255
203 226 255
203 226 255
203 226 255
203 226 255
204 226 255
204 226 255
204 226 255
204 226 255
204 226 255
204 226 255
204 226 255
204 226 255
204 226 255
204 226 255
204 226 255
204 226 255
204 226 255
204 226 255
204 226 255
204 226 255
204 226 255
204 226 255
205 226 255
205 226 255
205 226 255
205 226 255
205 226 255
205 226 255
205 226 255
205 226 255
205 226 255
205 226 255
205 226 255
204 226 255
204 226 255
204 226 255
204 226 255
204 226 255
204 226 255
204 226 255
204 226 255
204 226 255
204 226 255
204 226 255
204 226 255
204 226 255
204 226 255
204 226 255
204 226 255
204 226 255
204 226 255
203 226 255
203 226 255
203 226 255
203 226 255
203 226 255
203 226 255
203 226 255
203 225 255
203 225 255
203 225 255
203 225 255
203 225 255
203 225 255
203 225 255
203 225 255
203 225 255
202 225 255
202 225 255
202 225 255
202 225 255
202 225 255
202 225 255
202 225 255
202 225 255
202 225 255
202 225 255
202 225 255
202 225 255
202 225 255
202 225 255
202 225 255
202 225 255
201 225 255
201 225 255
201 225 255
201 225 255
201 224 255
201 224 255
201 224 255
201 224 255
201 224 255
201 224 255
201 224 255
201 224 255
201 224 255
201 224 255
200 224 255
200 224 255
200 224 255
200 224 255
200 224 255
200 224 255
200 224 255
200 224 255
200 224 255
200 224 255
200 224 255
200 224 255
200 224 255
200 224 255
200 224 255
199 224 255
199 224 255
199 223 255
199 223 255
199 223 255
199 223 255
199 223 255
199 223 255
199 223 255
199 223 255
199 223 255
199 223 255
199 223 255
199 223 255
198 223 255
198 223 255
198 223 255
198 223 255
198 223 255
198 223 255
198 223 255
198 223 255
198 223 255
198 223 255
198 223 255
198 223 255
198 223 255
198 223 255
197 223 255
197 222 255
197 222 255
197 222 255
197 222 255
197 222 255
197 222 255
197 222 255
197 222 255
197 222 255
197 222 255
197 222 255
197 222 255
197 222 255
197 222 255
197 222 255
196 222 255
196 222 255
196 222 255
196 222 255
196 222 255
196 222 255
196 222 255
196 222 255
196 222 255
196 222 255
196 222 255
196 222 255
196 222 255
196 222 255
196 222 255
196 221 255
196 221 255
195 221 255
195 221 255
195 221 255
195 221 255
195 221 255
195 221 255
195 221 255
195 221 255
195 221 255
195 221 255
195 221 255
195 221 255
195 221 255
195 221 255
195 221 255
195 221 255
195 221 255
195 221 255
195 221 255
195 221 255
195 221 255
195 221 255
194 221 255
194 221 255
194 221 255
194 221 255
194 221 255
194 221 255
194 221 255
194 221 255
194 221 255
194 221 255
194 221 255
194 221 255
194 221 255
194 221 255
194 221 255
194 221 255
194 221 255
194 221 255
194 221 255
194 221 255
194 221 255
194 221 255
194 221 255
194 221 255
194 221 255
194 221 255
194 221 255
194 221 255
194 221 255
194 221 255
194 221 255
194 221 255
194 221 255
194 221 255
194 221 255
194 221 255
194 221 255
194 221 255
194 221 255
194 221 255
194 221 255
194 221 255
194 221 255
194 221 255
194 221 255
194 221 255
194 221 255
194 221 255
194 221 255
194 221 255
194 221 255
194 221 255
194 221 255
194 221 255
194 221 255
194 221 255
194 221 255
194 221 255
194 221 255
194 221 255
194 221 255
194 221 255
195 221 255
195 221 255
195 221 255
195 221 255
195 221 255
195 221 255
195 221 255
195 221 255
195 221 255
195 221 255
195 221 255
195 221 255
195 221 255
195 221 255
195 221 255
195 221 255
195 221 255
195 221 255
195 221 255
195 221 255
195 221 255
195 221 255
196 221 255
196 221 255
196 222 255
196 222 255
196 222 255
196 222 255
196 222 255
196 222 255
196 222 255
196 222 255
196 222 255
196 222 255
196 222 255
196 222 255
196 222 255
196 222 255
196 222 255
197 222 255
197 222 255
197 222 255
197 222 255
197 222 255
197 222 255
197 222 255
197 222 255
197 222 255
197 222 255
197 222 255
197 222 255
197 222 255
197 222 255
197 222 255
197 223 255
198 223 255
198 223 255
198 223 255
198 223 255
198 223 255
198 223 255
198 223 255
198 223 255
198 223 255
198 223 255
198 223 255
198 223 255
198 223 255
198 223 255
199 223 255
199 223 255
199 223 255
199 223 255
199 223 255
199 223 255
199 223 255
199 223 255
199 223 255
199 223 255
199 223 255
199 223 255
199 224 255
199 224 255
200 224 255
200 224 255
200 224 255
200 224 255
200 224 255
200 224 255
200 224 255
200 224 255
200 224 255
200 224 255
200 224 255
200 224 255
200 224 255
200 224 255
200 224 255
201 224 255
201 224 255
201 224 255
201 224 255
201 224 255
201 224 255
201 224 255
201 224 255
201 224 255
201 224 255
201 225 255
201 225 255
201 225 255
201 225 255
201 225 255
202 225 255
202 225 255
202 225 255
202 225 255
202 225 255
202 225 255
202 225 255
202 225 255
202 225 255
202 225 255
202 225 255
202 225 255
202 225 255
202 225 255
202 225 255
203 225 255
203 225 255
203 225 255
203 225 255
203 225 255
203 225 255
203 225 255
203 225 255
203 225 255
203 226 255
203 226 255
203 226 255
203 226 255
203 226 255
203 226 255
203 226 255
204 226 255
204 226 255
204 226 255
204 226 255
204 226 255
204 226 255
204 226 255
204 226 255
204 226 255
204 226 255
204 226 255
204 226 255
204 226 255
204 226 255
204 226 255
204 226 255
204 226 255
204 226 255
205 226 255
205 226 255
205 226 255
205 226 255
205 226 255
205 226 255
205 226 255
205 227 255
205 227 255
205 226 255
205 226 255
205 226 255
205 226 255
205 226 255
205 226 255
205 226 255
204 226 255
204 226 255
204 226 255
204 226 255
204 226 255
204 226 255
204 226 255
204 226 255
204 226 255
204 226 255
204 226 255
204 226 255
204 226 255
204 226 255
204 226 255
204 226 255
204 226 255
204 226 255
203 226 255
203 226 255
203 226 255
203 226 255
203 226 255
203 226 255
203 226 255
203 225 255
203 225 255
203 225 255
203 225 255
203 225 255
203 225 255
203 225 255
203 225 255
203 225 255
202 225 255
202 225 255
202 225 255
202 225 255
202 225 255
202 225 255
202 225 255
202 225 255
202 225 255
202 225 255
202 225 255
202 225 255
202 225 255
202 225 255
202 225 255
202 225 255
201 225 255
201 225 255
201 225 255
201 225 255
201 224 255
201 224 255
201 224 255
201 224 255
201 224 255
201 224 255
201 224 255
201 224 255
201 224 255
201 224 255
200 224 255
200 224 255
200 224 255
200 224 255
200 224 255
200 224 255
200 224 255
200 224 255
200 224 255
200 224 255
200 224 255
200 224 255
200 224 255
200 224 255
200 224 255
199 224 255
199 224 255
199 223 255
199 223 255
199 223 255
199 223 255
199 223 255
199 223 255
199 223 255
199 223 255
199 223 255
199 223 255
199 223 255
199 223 255
198 223 255
198 223 255
198 223 255
198 223 255
198 223 255
198 223 255
198 223 255
198 223 255
198 223 255
198 223 255
198 223 255
198 223 255
198 223 255
198 223 255
198 223 255
197 222 255
197 222 255
197 222 255
197 222 255
197 222 255
197 222 255
197 222 255
197 222 255
197 222 255
197 222 255
197 222 255
197 222 255
197 222 255
197 222 255
197 222 255
196 222 255
196 222 255
196 222 255
196 222 255
196 222 255
196 222 255
196 222 255
196 222 255
196 222 255
196 222 255
196 222 255
196 222 255
196 222 255
196 222 255
196 222 255
196 222 255
196 221 255
195 221 255
195 221 255
195 221 255
195 221 255
195 221 255
195 221 255
195 221 255
195 221 255
195 221 255
195 221 255
195 221 255
195 221 255
195 221 255
195 221 255
195 221 255
195 221 255
195 221 255
195 221 255
195 221 255
195 221 255
195 221 255
195 221 255
195 221 255
195 221 255
194 221 255
194 221 255
194 221 255
194 221 255
194 221 255
194 221 255
194 221 255
194 221 255
194 221 255
194 221 255
194 221 255
194 221 255
194 221 255
194 221 255
194 221 255
194 221 255
194 221 255
194 221 255
194 221 255
194 221 255
194 221 255
194 221 255
194 221 255
194 221 255
194 221 255
194 221 255
194 221 255
194 221 255
194 221 255
194 221 255
194 221 255
194 221 255
194 221 255
194 221 255
194 221 255
194 221 255
194 221 255
194 221 255
194 221 255
194 221 255
194 221 255
194 221 255
194 221 255
194 221 255
194 221 255
194 221 255
194 221 255
194 221 255
194 221 255
194 221 255
194 221 255
194 221 255
194 221 255
194 221 255
195 221 255
195 221 255
195 221 255
195 221 255
195 221 255
195 221 255
195 221 255
195 221 255
195 221 255
195 221 255
195 221 255
195 221 255
195 221 255
195 221 255
195 221 255
195 221 255
195 221 255
195 221 255
195 221 255
195 221 255
195 221 255
195 221 255
195 221 255
195 221 255
196 221 255
196 222 255
196 222 255
196 222 255
196 222 255
196 222 255
196 222 255
196 222 255
196 222 255
196 222 255
196 222 255
196 222 255
196 222 255
196 222 255
196 222 255
196 222 255
196 222 255
197 222 255
197 222 255
197 222 255
197 222 255
197 222 255
197 222 255
197 222 255
197 222 255
197 222 255
197 222 255
197 222 255
197 222 255
197 222 255
197 222 255
197 222 255
198 223 255
198 223 255
198 223 255
198 223 255
198 223 255
198 223 255
198 223 255
198 223 255
198 223 255
198 223 255
198 223 255
198 223 255
198 223 255
198 223 255
198 223 255
199 223 255
199 223 255
199 223 255
199 223 255
199 223 255
199 223 255
199 223 255
199 223 255
199 223 255
199 223 255
199 223 255
199 223 255
199 224 255
199 224 255
200 224 255
200 224 255
200 224 255
200 224 255
200 224 255
200 224 255
200 224 255
200 224 255
200 224 255
200 224 255
200 224 255
200 224 255
200 224 255
200 224 255
200 224 255
201 224 255
201 224 255
201 224 255
201 224 255
201 224 255
201 224 255
201 224 255
201 224 255
201 224 255
201 224 255
201 225 255
201 225 255
201 225 255
201 225 255
202 225 255
202 225 255
202 225 255
202 225 255
202 225 255
202 225 255
202 225 255
202 225 255
202 225 255
202 225 255
202 225 255
202 225 255
202 225 255
202 225 255
202 225 255
202 225 255
203 225 255
203 225 255
203 225 255
203 225 255
203 225 255
203 225 255
203 225 255
203 225 255
203 225 255
203 226 255
203 226 255
203 226 255
203 226 255
203 226 255
203 226 255
203 226 255
204 226 255
204 226 255
204 226 255
204 226 255
204 226 255
204 226 255
204 226 255
204 226 255
204 226 255
204 226 255
204 226 255
204 226 255
204 226 255
204 226 255
204 226 255
204 226 255
204 226 255
204 226 255
205 226 255
205 226 255
205 226 255
205 226 255
205 226 255
205 226 255
205 226 255
205 227 255
205 227 255
205 227 255
205 227 255
205 227 255
205 227 255
205 226 255
205 226 255
205 226 255
205 226 255
205 226 255
205 226 255
205 226 255
205 226 255
204 226 255
204 226 255
204 226 255
204 226 255
204 226 255
204 226 255
204 226 255
204 226 255
204 226 255
204 226 255
204 226 255
204 226 255
204 226 255
204 226 255
204 226 255
204 226 255
204 226 255
203 226 255
203 226 255
203 226 255
203 226 255
203 226 255
203 226 255
203 226 255
203 225 255
203 225 255
203 225 255
203 225 255
203 225 255
203 225 255
203 225 255
203 225 255
203 225 255
202 225 255
202 225 255
202 225 255
202 225 255
202 225 255
202 225 255
202 225 255
202 225 255
202 225 255
202 225 255
202 225 255
202 225 255
202 225 255
202 225 255
202 225 255
202 225 255
201 225 255
201 225 255
201 225 255
201 225 255
201 224 255
201 224 255
201 224 255
201 224 255
201 224 255
201 224 255
201 224 255
201 224 255
201 224 255
201 224 255
201 224 255
200 224 255
200 224 255
200 224 255
200 224 255
200 224 255
200 224 255
200 224 255
200 224 255
200 224 255
200 224 255
200 224 255
200 224 255
200 224 255
200 224 255
199 224 255
199 224 255
199 223 255
199 223 255
199 223 255
199 223 255
199 223 255
199 223 255
199 223 255
199 223 255
199 223 255
199 223 255
199 223 255
199 223 255
198 223 255
198 223 255
198 223 255
198 223 255
198 223 255
198 223 255
198 223 255
198 223 255
198 223 255
198 223 255
198 223 255
198 223 255
198 223 255
198 223 255
198 223 255
197 222 255
197 222 255
197 222 255
197 222 255
197 222 255
197 222 255
197 222 255
197 222 255
197 222 255
197 222 255
197 222 255
197 222 255
197 222 255
197 222 255
197 222 255
197 222 255
196 222 255
196 222 255
196 222 255
196 222 255
196 222 255
196 222 255
196 222 255
196 222 255
196 222 255
196 222 255
196 222 255
196 222 255
196 222 255
196 222 255
196 222 255
196 222 255
196 221 255
195 221 255
195 221 255
195 221 255
195 221 255
195 221 255
195 221 255
195 221 255
195 221 255
195 221 255
195 221 255
195 221 255
195 221 255
195 221 255
195 221 255
195 221 255
195 221 255
195 221 255
195 221 255
195 221 255
195 221 255
195 221 255
195 221 255
195 221 255
195 221 255
195 221 255
195 221 255
194 221 255
194 221 255
194 221 255
194 221 255
194 221 255
194 221 255
194 221 255
194 221 255
194 221 255
194 221 255
194 221 255
194 221 255
194 221 255
194 221 255
194 221 255
194 221 255
194 221 255
194 221 255
194 221 255
194 221 255
194 221 255
194 221 255
194 221 255
194 221 255
194 221 255
194 221 255
194 221 255
194 221 255
194 221 255
194 221 255
194 221 255
194 221 255
194 221 255
194 221 255
194 221 255
194 221 255
194 221 255
194 221 255
194 221 255
194 221 255
194 221 255
194 221 255
194 221 255
194 221 255
195 221 255
195 221 255
195 221 255
195 221 255
195 221 255
195 221 255
195 221 255
195 221 255
195 221 255
195 221 255
195 221 255
195 221 255
195 221 255
195 221 255
195 221 255
195 221 255
195 221 255
195 221 255
195 221 255
195 221 255
195 221 255
195 221 255
195 221 255
195 221 255
195 221 255
195 221 255
196 221 255
196 222 255
196 222 255
196 222 255
196 222 255
196 222 255
196 222 255
196 222 255
196 222 255
196 222 255
196 222 255
196 222 255
196 222 255
196 222 255
196 222 255
196 222 255
196 222 255
196 222 255
197 222 255
197 222 255
197 222 255
197 222 255
197 222 255
197 222 255
197 222 255
197 222 255
197 222 255
197 222 255
197 222 255
197 222 255
197 222 255
197 222 255
197 222 255
198 223 255
198 223 255
198 223 255
198 223 255
198 223 255
198 223 255
198 223 255
198 223 255
198 223 255
198 223 255
198 223 255
198 223 255
198 223 255
198 223 255
198 223 255
199 223 255
199 223 255
199 223 255
199 223 255
199 223 255
199 223 255
199 223 255
199 223 255
199 223 255
199 223 255
199 223 255
199 223 255
199 224 255
199 224 255
200 224 255
200 224 255
200 224 255
200 224 255
200 224 255
200 224 255
200 224 255
200 224 255
200 224 255
200 224 255
200 224 255
200 224 255
200 224 255
200 224 255
201 224 255
201 224 255
201 224 255
201 224 255
201 224 255
201 224 255
201 224 255
201 224 255
201 224 255
201 224 255
201 224 255
201 225 255
201 225 255
201 225 255
201 225 255
202 225 255
202 225 255
202 225 255
202 225 255
202 225 255
202 225 255
202 225 255
202 225 255
202 225 255
202 225 255
202 225 255
202 225 255
202 225 255
202 225 255
202 225 255
202 225 255
203 225 255
203 225 255
203 225 255
203 225 255
203 225 255
203 225 255
203 225 255
203 225 255
203 225 255
203 226 255
203 226 255
203 226 255
203 226 255
203 226 255
203 226 255
203 226 255
204 226 255
204 226 255
204 226 255
204 226 255
204 226 255
204 226 255
204 226 255
204 226 255
204 226 255
204 226 255
204 226 255
204 226 255
204 226 255
204 226 255
204 226 255
204 226 255
204 226 255
205 226 255
205 226 255
205 226 255
205 226 255
205 226 255
205 226 255
205 226 255
205 226 255
205 227 255
205 227 255
205 227 255
205 227 255
205 227 255
205 227 255
205 227 255
205 227 255
205 227 255
205 227 255
205 227 255
205 226 255
205 226 255
205 226 255
205 226 255
205 226 255
205 226 255
205 226 255
204 226 255
204 226 255
204 226 255
204 226 255
204 226 255
204 226 255
204 226 255
204 226 255
204 226 255
204 226 255
204 226 255
204 226 255
204 226 255
204 226 255
204 226 255
204 226 255
204 226 255
203 226 255
203 226 255
203 226 255
203 226 255
203 226 255
203 226 255
203 226 255
203 226 255
203 225 255
203 225 255
203 225 255
203 225 255
203 225 255
203 225 255
203 225 255
203 225 255
203 225 255
202 225 255
202 225 255
202 225 255
202 225 255
202 225 255
202 225 255
202 225 255
202 225 255
202 225 255
202 225 255
202 225 255
202 225 255
202 225 255
202 225 255
202 225 255
201 225 255
201 225 255
201 225 255
201 225 255
201 224 255
201 224 255
201 224 255
201 224 255
201 224 255
201 224 255
201 224 255
201 224 255
201 224 255
201 224 255
201 224 255
200 224 255
200 224 255
200 224 255
200 224 255
200 224 255
200 224 255
200 224 255
200 224 255
200 224 255
200 224 255
200 224 255
200 224 255
200 224 255
200 224 255
199 224 255
199 224 255
199 223 255
199 223 255
199 223 255
199 223 255
199 223 255
199 223 255
199 223 255
199 223 255
199 223 255
199 223 255
199 223 255
199 223 255
198 223 255
198 223 255
198 223 255
198 223 255
198 223 255
198 223 255
198 223 255
198 223 255
198 223 255
198 223 255
198 223 255
198 223 255
198 223 255
198 223 255
198 223 255
197 223 255
197 222 255
197 222 255
197 222 255
197 222 255
197 222 255
197 222 255
197 222 255
197 222 255
197 222 255
197 222 255
197 222 255
197 222 255
197 222 255
197 222 255
197 222 255
196 222 255
196 222 255
196 222 255
196 222 255
196 222 255
196 222 255
196 222 255
196 222 255
196 222 255
196 222 255
196 222 255
196 222 255
196 222 255
196 222 255
196 222 255
196 222 255
196 221 255
196 221 255
195 221 255
195 221 255
195 221 255
195 221 255
195 221 255
195 221 255
195 221 255
195 221 255
195 221 255
195 221 255
195 221 255
195 221 255
195 221 255
195 221 255
195 221 255
195 221 255
195 221 255
195 221 255
195 221 255
195 221 255
195 221 255
195 221 255
195 221 255
195 221 255
195 221 255
195 221 255
195 221 255
195 221 255
195 221 255
195 221 255
194 221 255
194 221 255
194 221 255
194 221 255
194 221 255
194 221 255
194 221 255
194 221 255
194 221 255
194 221 255
194 221 255
194 221 255
194 221 255
194 221 255
194 221 255
194 221 255
194 221 255
194 221 255
194 221 255
194 221 255
194 221 255
194 221 255
194 221 255
194 221 255
194 221 255
194 221 255
194 221 255
194 221 255
194 221 255
194 221 255
195 221 255
195 221 255
195 221 255
195 221 255
195 221 255
195 221 255
195 221 255
195 221 255
195 221 255
195 221 255
195 221 255
195 221 255
195 221 255
195 221 255
195 221 255
195 221 255
195 221 255
195 221 255
195 221 255
195 221 255
195 221 255
195 221 255
195 221 255
195 221 255
195 221 255
195 221 255
195 221 255
195 221 255
195 221 255
196 221 255
196 221 255
196 222 255
196 222 255
196 222 255
196 222 255
196 222 255
196 222 255
196 222 255
196 222 255
196 222 255
196 222 255
196 222 255
196 222 255
196 222 255
196 222 255
196 222 255
196 222 255
196 222 255
197 222 255
197 222 255
197 222 255
197 222 255
197 222 255
197 222 255
197 222 255
197 222 255
197 222 255
197 222 255
197 222 255
197 222 255
197 222 255
197 222 255
197 222 255
197 223 255
198 223 255
198 223 255
198 223 255
198 223 255
198 223 255
198 223 255
198 223 255
198 223 255
198 223 255
198 223 255
198 223 255
198 223 255
198 223 255
198 223 255
198 223 255
199 223 255
199 223 255
199 223 255
199 223 255
199 223 255
199 223 255
199 223 255
199 223 255
199 223 255
199 223 255
199 223 255
199 223 255
199 224 255
199 224 255
200 224 255
200 224 255
200 224 255
200 224 255
200 224 255
200 224 255
200 224 255
200 224 255
200 224 255
200 224 255
200 224 255
200 224 255
200 224 255
200 224 255
201 224 255
201 224 255
201 224 255
201 224 255
201 224 255
201 224 255
201 224 255
201 224 255
201 224 255
201 224 255
201 224 255
201 225 255
201 225 255
201 225 255
201 225 255
202 225 255
202 225 255
202 225 255
202 225 255
202 225 255
202 225 255
202 225 255
202 225 255
202 225 255
202 225 255
202 225 255
202 225 255
202 225 255
202 225 255
202 225 255
203 225 255
203 225 255
203 225 255
203 225 255
203 225 255
203 225 255
203 225 255
203 225 255
203 225 255
203 226 255
203 226 255
203 226 255
203 226 255
203 226 255
203 226 255
203 226 255
203 226 255
204 226 255
204 226 255
204 226 255
204 226 255
204 226 255
204 226 255
204 226 255
204 226 255
204 226 255
204 226 255
204 226 255
204 226 255
204 226 255
204 226 255
204 226 255
204 226 255
204 226 255
205 226 255
205 226 255
205 226 255
205 226 255
205 226 255
205 226 255
205 226 255
205 227 255
205 227 255
205 227 255
205 227 255
205 227 255
205 227 255
205 227 255
205 227 255
205 227 255
205 227 255
205 227 255
205 227 255
205 227 255
205 227 255
205 227 255
205 227 255
205 226 255
205 226 255
205 226 255
205 226 255
205 226 255
205 226 255
205 226 255
205 226 255
204 226 255
204 226 255
204 226 255
204 226 255
204 226 255
204 226 255
204 226 255
204 226 255
204 226 255
204 226 255
204 226 255
204 226 255
204 226 255
204 226 255
204 226 255
204 226 255
204 226 255
203 226 255
203 226 255
203 226 255
203 226 255
203 226 255
203 226 255
203 226 255
203 225 255
203 225 255
203 225 255
203 225 255
203 225 255
203 225 255
203 225 255
203 225 255
203 225 255
202 225 255
202 225 255
202 225 255
202 225 255
202 225 255
202 225 255
202 225 255
202 225 255
202 225 255
202 225 255
202 225 255
202 225 255
202 225 255
202 225 255
202 225 255
201 225 255
201 225 255
201 225 255
201 225 255
201 225 255
201 224 255
201 224 255
201 224 255
201 224 255
201 224 255
201 224 255
201 224 255
201 224 255
201 224 255
201 224 255
200 224 255
200 224 255
200 224 255
200 224 255
200 224 255
200 224 255
200 224 255
200 224 255
200 224 255
200 224 255
200 224 255
200 224 255
200 224 255
200 224 255
199 224 255
199 224 255
199 224 255
199 223 255
199 223 255
199 223 255
199 223 255
199 223 255
199 223 255
199 223 255
199 223 255
199 223 255
199 223 255
199 223 255
198 223 255
198 223 255
198 223 255
198 223 255
198 223 255
198 223 255
198 223 255
198 223 255
198 223 255
198 223 255
198 223 255
198 223 255
198 223 255
198 223 255
198 223 255
197 223 255
197 222 255
197 222 255
197 222 255
197 222 255
197 222 255
197 222 255
197 222 255
197 222 255
197 222 255
197 222 255
197 222 255
197 222 255
197 222 255
197 222 255
197 222 255
196 222 255
196 222 255
196 222 255
196 222 255
196 222 255
196 222 255
196 222 255
196 222 255
196 222 255
196 222 255
196 222 255
196 222 255
196 222 255
196 222 255
196 222 255
196 222 255
196 222 255
196 222 255
196 221 255
196 221 255
195 221 255
195 221 255
195 221 255
195 221 255
195 221 255
195 221 255
195 221 255
195 221 255
195 221 255
195 221 255
195 221 255
195 221 255
195 221 255
195 221 255
195 221 255
195 221 255
195 221 255
195 221 255
195 221 255
195 221 255
195 221 255
195 221 255
195 221 255
195 221 255
195 221 255
195 221 255
195 221 255
195 221 255
195 221 255
195 221 255
195 221 255
195 221 255
195 221 255
195 221 255
195 221 255
195 221 255
195 221 255
195 221 255
195 221 255
195 221 255
195 221 255
195 221 255
195 221 255
195 221 255
195 221 255
195 221 255
195 221 255
195 221 255
195 221 255
195 221 255
195 221 255
195 221 255
195 221 255
195 221 255
195 221 255
195 221 255
195 221 255
195 221 255
195 221 255
195 221 255
195 221 255
195 221 255
195 221 255
195 221 255
195 221 255
195 221 255
195 221 255
195 221 255
195 221 255
195 221 255
195 221 255
195 221 255
195 221 255
195 221 255
195 221 255
195 221 255
195 221 255
195 221 255
195 221 255
195 221 255
195 221 255
195 221 255
196 221 255
196 221 255
196 222 255
196 222 255
196 222 255
196 222 255
196 222 255
196 222 255
196 222 255
196 222 255
196 222 255
196 222 255
196 222 255
196 222 255
196 222 255
196 222 255
196 222 255
196 222 255
196 222 255
196 222 255
197 222 255
197 222 255
197 222 255
197 222 255
197 222 255
197 222 255
197 222 255
197 222 255
197 222 255
197 222 255
197 222 255
197 222 255
197 222 255
197 222 255
197 222 255
197 223 255
198 223 255
198 223 255
198 223 255
198 223 255
198 223 255
198 223 255
198 223 255
198 223 255
198 223 255
198 223 255
198 223 255
198 223 255
198 223 255
198 223 255
199 223 255
199 223 255
199 223 255
199 223 255
199 223 255
199 223 255
199 223 255
199 223 255
199 223 255
199 223 255
199 223 255
199 223 255
199 224 255
199 224 255
199 224 255
200 224 255
200 224 255
200 224 255
200 224 255
200 224 255
200 224 255
200 224 255
200 224 255
200 224 255
200 224 255
200 224 255
200 224 255
200 224 255
200 224 255
201 224 255
201 224 255
201 224 255
201 224 255
201 224 255
201 224 255
201 224 255
201 224 255
201 224 255
201 224 255
201 224 255
201 225 255
201 225 255
201 225 255
201 225 255
202 225 255
202 225 255
202 225 255
202 225 255
202 225 255
202 225 255
202 225 255
202 225 255
202 225 255
202 225 255
202 225 255
202 225 255
202 225 255
202 225 255
202 225 255
203 225 255
203 225 255
203 225 255
203 225 255
203 225 255
203 225 255
203 225 255
203 225 255
203 225 255
203 226 255
203 226 255
203 226 255
203 226 255
203 226 255
203 226 255
203 226 255
204 226 255
204 226 255
204 226 255
204 226 255
204 226 255
204 226 255
204 226 255
204 226 255
204 226 255
204 226 255
204 226 255
204 226 255
204 226 255
204 226 255
204 226 255
204 226 255
204 226 255
204 226 255
205 226 255
205 226 255
205 226 255
205 226 255
205 226 255
205 226 255
205 226 255
205 227 255
205 227 255
205 227 255
205 227 255
205 227 255
205 227 255
205 227 255
205 227 255
205 227 255
205 227 255
205 227 255
205 227 255
205 227 255
205 227 255
205 227 255
205 227 255
205 227 255
205 227 255
205 227 255
205 227 255
205 226 255
205 226 255
205 226 255
205 226 255
205 226 255
205 226 255
205 226 255
205 226 255
204 226 255
204 226 255
204 226 255
204 226 255
204 226 255
204 226 255
204 226 255
204 226 255
204 226 255
204 226 255
204 226 255
204 226 255
204 226 255
204 226 255
204 226 255
204 226 255
204 226 255
203 226 255
203 226 255
203 226 255
203 226 255
203 226 255
203 226 255
203 226 255
203 225 255
203 225 255
203 225 255
203 225 255
203 225 255
203 225 255
203 225 255
203 225 255
203 225 255
202 225 255
202 225 255
202 225 255
202 225 255
202 225 255
202 225 255
202 225 255
202 225 255
202 225 255
202 225 255
202 225 255
202 225 255
202 225 255
202 225 255
202 225 255
201 225 255
201 225 255
201 225 255
201 225 255
201 225 255
201 224 255
201 224 255
201 224 255
201 224 255
201 224 255
201 224 255
201 224 255
201 224 255
201 224 255
201 224 255
200 224 255
200 224 255
200 224 255
200 224 255
200 224 255
200 224 255
200 224 255
200 224 255
200 224 255
200 224 255
200 224 255
200 224 255
200 224 255
200 224 255
199 224 255
199 224 255
199 224 255
199 223 255
199 223 255
199 223 255
199 223 255
199 223 255
199 223 255
199 223 255
199 223 255
199 223 255
199 223 255
199 223 255
199 223 255
198 223 255
198 223 255
198 223 255
198 223 255
198 223 255
198 223 255
198 223 255
198 223 255
198 223 255
198 223 255
198 223 255
198 223 255
198 223 255
198 223 255
198 223 255
197 222 255
197 222 255
197 222 255
197 222 255
197 222 255
197 222 255
197 222 255
197 222 255
197 222 255
197 222 255
197 222 255
197 222 255
197 222 255
197 222 255
197 222 255
197 222 255
196 222 255
196 222 255
196 222 255
196 222 255
196 222 255
196 222 255
196 222 255
196 222 255
196 222 255
196 222 255
196 222 255
196 222 255
196 222 255
196 222 255
196 222 255
196 222 255
196 222 255
196 222 255
196 221 255
196 221 255
195 221 255
195 221 255
195 221 255
195 221 255
195 221 255
195 221 255
195 221 255
195 221 255
195 221 255
195 221 255
195 221 255
195 221 255
195 221 255
195 221 255
195 221 255
195 221 255
195 221 255
195 221 255
195 221 255
195 221 255
195 221 255
195 221 255
195 221 255
195 221 255
195 221 255
195 221 255
195 221 255
195 221 255
195 221 255
195 221 255
195 221 255
195 221 255
195 221 255
195 221 255
195 221 255
195 221 255
195 221 255
195 221 255
195 221 255
195 221 255
195 221 255
195 221 255
195 221 255
195 221 255
195 221 255
195 221 255
195 221 255
195 221 255
195 221 255
195 221 255
195 221 255
195 221 255
195 221 255
195 221 255
195 221 255
195 221 255
195 221 255
195 221 255
195 221 255
195 221 255
195 221 255
195 221 255
195 221 255
195 221 255
195 221 255
195 221 255
195 221 255
195 221 255
195 221 255
195 221 255
195 221 255
195 221 255
195 221 255
195 221 255
195 221 255
195 221 255
196 221 255
196 221 255
196 222 255
196 222 255
196 222 255
196 222 255
196 222 255
196 222 255
196 222 255
196 222 255
196 222 255
196 222 255
196 222 255
196 222 255
196 222 255
196 222 255
196 222 255
196 222 255
196 222 255
196 222 255
197 222 255
197 222 255
197 222 255
197 222 255
197 222 255
197 222 255
197 222 255
197 222 255
197 222 255
197 222 255
197 222 255
197 222 255
197 222 255
197 222 255
197 222 255
197 222 255
198 223 255
198 223 255
198 223 255
198 223 255
198 223 255
198 223 255
198 223 255
198 223 255
198 223 255
198 223 255
198 223 255
198 223 255
198 223 255
198 223 255
198 223 255
199 223 255
199 223 255
199 223 255
199 223 255
199 223 255
199 223 255
199 223 255
199 223 255
199 223 255
199 223 255
199 223 255
199 223 255
199 224 255
199 224 255
199 224 255
200 224 255
200 224 255
200 224 255
200 224 255
200 224 255
200 224 255
200 224 255
200 224 255
200 224 255
200 224 255
200 224 255
200 224 255
200 224 255
200 224 255
201 224 255
201 224 255
201 224 255
201 224 255
201 224 255
201 224 255
201 224 255
201 224 255
201 224 255
201 224 255
201 225 255
201 225 255
201 225 255
201 225 255
201 225 255
202 225 255
202 225 255
202 225 255
202 225 255
202 225 255
202 225 255
202 225 255
202 225 255
202 225 255
202 225 255
202 225 255
202 225 255
202 225 255
202 225 255
202 225 255
203 225 255
203 225 255
203 225 255
203 225 255
203 225 255
203 225 255
203 225 255
203 225 255
203 225 255
203 226 255
203 226 255
203 226 255
203 226 255
203 226 255
203 226 255
203 226 255
204 226 255
204 226 255
204 226 255
204 226 255
204 226 255
204 226 255
204 226 255
204 226 255
204 226 255
204 226 255
204 226 255
204 226 255
204 226 255
204 226 255
204 226 255
204 226 255
204 226 255
205 226 255
205 226 255
205 226 255
205 226 255
205 226 255
205 226 255
205 226 255
205 227 255
205 227 255
205 227 255
205 227 255
205 227 255
205 227 255
205 227 255
205 227 255
205 227 255
205 227 255
205 227 255
205 227 255
206 227 255
206 227 255
206 227 255
205 227 255
205 227 255
205 227 255
205 227 255
205 227 255
205 227 255
205 227 255
205 227 255
205 227 255
205 227 255
205 227 255
205 226 255
205 226 255
205 226 255
205 226 255
205 226 255
205 226 255
205 226 255
204 226 255
204 226 255
204 226 255
204 226 255
204 226 255
204 226 255
204 226 255
204 226 255
204 226 255
204 226 255
204 226 255
204 226 255
204 226 255
204 226 255
204 226 255
204 226 255
204 226 255
203 226 255
203 226 255
203 226 255
203 226 255
203 226 255
203 226 255
203 226 255
203 226 255
203 225 255
203 225 255
203 225 255
203 225 255
203 225 255
203 225 255
203 225 255
203 225 255
202 225 255
202 225 255
202 225 255
202 225 255
202 225 255
202 225 255
202 225 255
202 225 255
202 225 255
202 225 255
202 225 255
202 225 255
202 225 255
202 225 255
202 225 255
202 225 255
201 225 255
201 225 255
201 225 255
201 225 255
201 224 255
201 224 255
201 224 255
201 224 255
201 224 255
201 224 255
201 224 255
201 224 255
201 224 255
201 224 255
200 224 255
200 224 255
200 224 255
200 224 255
200 224 255
200 224 255
200 224 255
200 224 255
200 224 255
200 224 255
200 224 255
200 224 255
200 224 255
200 224 255
200 224 255
199 224 255
199 224 255
199 223 255
199 223 255
199 223 255
199 223 255
199 223 255
199 223 255
199 223 255
199 223 255
199 223 255
199 223 255
199 223 255
199 223 255
198 223 255
198 223 255
198 223 255
198 223 255
198 223 255
198 223 255
198 223 255
198 223 255
198 223 255
198 223 255
198 223 255
198 223 255
198 223 255
198 223 255
198 223 255
197 223 255
197 222 255
197 222 255
197 222 255
197 222 255
197 222 255
197 222 255
197 222 255
197 222 255
197 222 255
197 222 255
197 222 255
197 222 255
197 222 255
197 222 255
197 222 255
197 222 255
196 222 255
196 222 255
196 222 255
196 222 255
196 222 255
196 222 255
196 222 255
196 222 255
196 222 255
196 222 255
196 222 255
196 222 255
196 222 255
196 222 255
196 222 255
196 222 255
196 222 255
196 222 255
196 222 255
196 221 255
196 221 255
195 221 255
195 221 255
195 221 255
195 221 255
195 221 255
195 221 255
195 221 255
195 221 255
195 221 255
195 221 255
195 221 255
195 221 255
195 221 255
195 221 255
195 221 255
195 221 255
195 221 255
195 221 255
195 221 255
195 221 255
195 221 255
195 221 255
195 221 255
195 221 255
195 221 255
195 221 255
195 221 255
195 221 255
195 221 255
195 221 255
195 221 255
195 221 255
195 221 255
195 221 255
195 221 255
195 221 255
195 221 255
195 221 255
195 221 255
195 221 255
195 221 255
195 221 255
195 221 255
195 221 255
195 221 255
195 221 255
195 221 255
195 221 255
195 221 255
195 221 255
195 221 255
195 221 255
195 221 255
195 221 255
195 221 255
195 221 255
195 221 255
195 221 255
195 221 255
195 221 255
195 221 255
195 221 255
195 221 255
195 221 255
195 221 255
195 221 255
195 221 255
195 221 255
196 221 255
196 221 255
196 222 255
196 222 255
196 222 255
196 222 255
196 222 255
196 222 255
196 222 255
196 222 255
196 222 255
196 222 255
196 222 255
196 222 255
196 222 255
196 222 255
196 222 255
196 222 255
196 222 255
196 222 255
196 222 255
197 222 255
197 222 255
197 222 255
197 222 255
197 222 255
197 222 255
197 222 255
197 222 255
197 222 255
197 222 255
197 222 255
197 222 255
197 222 255
197 222 255
197 222 255
197 222 255
197 223 255
198 223 255
198 223 255
198 223 255
198 223 255
198 223 255
198 223 255
198 223 255
198 223 255
198 223 255
198 223 255
198 223 255
198 223 255
198 223 255
198 223 255
198 223 255
199 223 255
199 223 255
199 223 255
199 223 255
199 223 255
199 223 255
199 223 255
199 223 255
199 223 255
199 223 255
199 223 255
199 223 255
199 224 255
199 224 255
200 224 255
200 224 255
200 224 255
200 224 255
200 224 255
200 224 255
200 224 255
200 224 255
200 224 255
200 224 255
200 224 255
200 224 255
200 224 255
200 224 255
200 224 255
201 224 255
201 224 255
201 224 255
201 224 255
201 224 255
201 224 255
201 224 255
201 224 255
201 224 255
201 224 255
201 225 255
201 225 255
201 225 255
201 225 255
202 225 255
202 225 255
202 225 255
202 225 255
202 225 255
202 225 255
202 225 255
202 225 255
202 225 255
202 225 255
202 225 255
202 225 255
202 225 255
202 225 255
202 225 255
202 225 255
203 225 255
203 225 255
203 225 255
203 225 255
203 225 255
203 225 255
203 225 255
203 225 255
203 226 255
203 226 255
203 226 255
203 226 255
203 226 255
203 226 255
203 226 255
203 226 255
204 226 255
204 226 255
204 226 255
204 226 255
204 226 255
204 226 255
204 226 255
204 226 255
204 226 255
204 226 255
204 226 255
204 226 255
204 226 255
204 226 255
204 226 255
204 226 255
204 226 255
205 226 255
205 226 255
205 226 255
205 226 255
205 226 255
205 226 255
205 226 255
205 227 255
205 227 255
205 227 255
205 227 255
205 227 255
205 227 255
205 227 255
205 227 255
205 227 255
205 227 255
205 227 255
206 227 255
206 227 255
206 227 255
206 227 255
206 227 255
206 227 255
206 227 255
206 227 255
205 227 255
205 227 255
205 227 255
205 227 255
205 227 255
205 227 255
205 227 255
205 227 255
205 227 255
205 227 255
205 227 255
205 227 255
205 226 255
205 226 255
205 226 255
205 226 255
205 226 255
205 226 255
205 226 255
204 226 255
204 226 255
204 226 255
204 226 255
204 226 255
204 226 255
204 226 255
204 226 255
204 226 255
204 226 255
204 226 255
204 226 255
204 226 255
204 226 255
204 226 255
204 226 255
204 226 255
203 226 255
203 226 255
203 226 255
203 226 255
203 226 255
203 226 255
203 226 255
203 225 255
203 225 255
203 225 255
203 225 255
203 225 255
203 225 255
203 225 255
203 225 255
203 225 255
202 225 255
202 225 255
202 225 255
202 225 255
202 225 255
202 225 255
202 225 255
202 225 255
202 225 255
202 225 255
202 225 255
202 225 255
202 225 255
202 225 255
202 225 255
201 225 255
201 225 255
201 225 255
201 225 255
201 224 255
201 224 255
201 224 255
201 224 255
201 224 255
201 224 255
201 224 255
201 224 255
201 224 255
201 224 255
200 224 255
200 224 255
200 224 255
200 224 255
200 224 255
200 224 255
200 224 255
200 224 255
200 224 255
200 224 255
200 224 255
200 224 255
200 224 255
200 224 255
200 224 255
199 224 255
199 224 255
199 223 255
199 223 255
199 223 255
199 223 255
199 223 255
199 223 255
199 223 255
199 223 255
199 223 255
199 223 255
199 223 255
199 223 255
198 223 255
198 223 255
198 223 255
198 223 255
198 223 255
198 223 255
198 223 255
198 223 255
198 223 255
198 223 255
198 223 255
198 223 255
198 223 255
198 223 255
198 223 255
198 223 255
197 222 255
197 222 255
197 222 255
197 222 255
197 222 255
197 222 255
197 222 255
197 222 255
197 222 255
197 222 255
197 222 255
197 222 255
197 222 255
197 222 255
197 222 255
197 222 255
197 222 255
196 222 255
196 222 255
196 222 255
196 222 255
196 222 255
196 222 255
196 222 255
196 222 255
196 222 255
196 222 255
196 222 255
196 222 255
196 222 255
196 222 255
196 222 255
196 222 255
196 222 255
196 222 255
196 222 255
196 221 255
196 221 255
196 221 255
195 221 255
195 221 255
195 221 255
195 221 255
195 221 255
195 221 255
195 221 255
195 221 255
195 221 255
195 221 255
195 221 255
195 221 255
195 221 255
195 221 255
195 221 255
195 221 255
195 221 255
195 221 255
195 221 255
195 221 255
195 221 255
195 221 255
195 221 255
195 221 255
195 221 255
195 221 255
195 221 255
195 221 255
195 221 255
195 221 255
195 221 255
195 221 255
195 221 255
195 221 255
195 221 255
195 221 255
195 221 255
195 221 255
195 221 255
195 221 255
195 221 255
195 221 255
195 221 255
195 221 255
195 221 255
195 221 255
195 221 255
195 221 255
195 221 255
195 221 255
195 221 255
195 221 255
195 221 255
195 221 255
195 221 255
195 221 255
195 221 255
195 221 255
195 221 255
195 221 255
196 221 255
196 221 255
196 222 255
196 222 255
196 222 255
196 222 255
196 222 255
196 222 255
196 222 255
196 222 255
196 222 255
196 222 255
196 222 255
196 222 255
196 222 255
196 222 255
196 222 255
196 222 255
196 222 255
196 222 255
196 222 255
196 222 255
197 222 255
197 222 255
197 222 255
197 222 255
197 222 255
197 222 255
197 222 255
197 222 255
197 222 255
197 222 255
197 222 255
197 222 255
197 222 255
197 222 255
197 222 255
197 222 255
197 222 255
198 223 255
198 223 255
198 223 255
198 223 255
198 223 255
198 223 255
198 223 255
198 223 255
198 223 255
198 223 255
198 223 255
198 223 255
198 223 255
198 223 255
198 223 255
198 223 255
199 223 255
199 223 255
199 223 255
199 223 255
199 223 255
199 223 255
199 223 255
199 223 255
199 223 255
199 223 255
199 223 255
199 223 255
199 224 255
199 224 255
200 224 255
200 224 255
200 224 255
200 224 255
200 224 255
200 224 255
200 224 255
200 224 255
200 224 255
200 224 255
200 224 255
200 224 255
200 224 255
200 224 255
200 224 255
201 224 255
201 224 255
201 224 255
201 224 255
201 224 255
201 224 255
201 224 255
201 224 255
201 224 255
201 224 255
201 225 255
201 225 255
201 225 255
201 225 255
202 225 255
202 225 255
202 225 255
202 225 255
202 225 255
202 225 255
202 225 255
202 225 255
202 225 255
202 225 255
202 225 255
202 225 255
202 225 255
202 225 255
202 225 255
203 225 255
203 225 255
203 225 255
203 225 255
203 225 255
203 225 255
203 225 255
203 225 255
203 225 255
203 226 255
203 226 255
203 226 255
203 226 255
203 226 255
203 226 255
203 226 255
204 226 255
204 226 255
204 226 255
204 226 255
204 226 255
204 226 255
204 226 255
204 226 255
204 226 255
204 226 255
204 226 255
204 226 255
204 226 255
204 226 255
204 226 255
204 226 255
204 226 255
205 226 255
205 226 255
205 226 255
205 226 255
205 226 255
205 226 255
205 226 255
205 227 255
205 227 255
205 227 255
205 227 255
205 227 255
205 227 255
205 227 255
205 227 255
205 227 255
205 227 255
205 227 255
205 227 255
206 227 255
206 227 255
206 227 255
206 227 255
206 227 255
206 227 255
206 227 255
206 227 255
206 227 255
206 227 255
206 227 255
206 227 255
206 227 255
205 227 255
205 227 255
205 227 255
205 227 255
205 227 255
205 227 255
205 227 255
205 227 255
205 227 255
205 227 255
205 227 255
205 226 255
205 226 255
205 226 255
205 226 255
205 226 255
205 226 255
205 226 255
204 226 255
204 226 255
204 226 255
204 226 255
204 226 255
204 226 255
204 226 255
204 226 255
204 226 255
204 226 255
204 226 255
204 226 255
204 226 255
204 226 255
204 226 255
204 226 255
204 226 255
203 226 255
203 226 255
203 226 255
203 226 255
203 226 255
203 226 255
203 226 255
203 225 255
203 225 255
203 225 255
203 225 255
203 225 255
203 225 255
203 225 255
203 225 255
203 225 255
202 225 255
202 225 255
202 225 255
202 225 255
202 225 255
202 225 255
202 225 255
202 225 255
202 225 255
202 225 255
202 225 255
202 225 255
202 225 255
202 225 255
202 225 255
201 225 255
201 225 255
201 225 255
201 225 255
201 225 255
201 224 255
201 224 255
201 224 255
201 224 255
201 224 255
201 224 255
201 224 255
201 224 255
201 224 255
201 224 255
200 224 255
200 224 255
200 224 255
200 224 255
200 224 255
200 224 255
200 224 255
200 224 255
200 224 255
200 224 255
200 224 255
200 224 255
200 224 255
200 224 255
199 224 255
199 224 255
199 223 255
199 223 255
199 223 255
199 223 255
199 223 255
199 223 255
199 223 255
199 223 255
199 223 255
199 223 255
199 223 255
199 223 255
199 223 255
198 223 255
198 223 255
198 223 255
198 223 255
198 223 255
198 223 255
198 223 255
198 223 255
198 223 255
198 223 255
198 223 255
198 223 255
198 223 255
198 223 255
198 223 255
197 223 255
197 222 255
197 222 255
197 222 255
197 222 255
197 222 255
197 222 255
197 222 255
197 222 255
197 222 255
197 222 255
197 222 255
197 222 255
197 222 255
197 222 255
197 222 255
197 222 255
197 222 255
196 222 255
196 222 255
196 222 255
196 222 255
196 222 255
196 222 255
196 222 255
196 222 255
196 222 255
196 222 255
196 222 255
196 222 255
196 222 255
196 222 255
196 222 255
196 222 255
196 222 255
196 222 255
196 222 255
196 222 255
196 222 255
196 221 255
196 221 255
196 221 255
195 221 255
195 221 255
195 221 255
195 221 255
195 221 255
195 221 255
195 221 255
195 221 255
195 221 255
195 221 255
195 221 255
195 221 255
195 221 255
195 221 255
195 221 255
195 221 255
195 221 255
195 221 255
195 221 255
195 221 255
195 221 255
195 221 255
195 221 255
195 221 255
195 221 255
195 221 255
195 221 255
195 221 255
195 221 255
195 221 255
195 221 255
195 221 255
195 221 255
195 221 255
195 221 255
195 221 255
195 221 255
195 221 255
195 221 255
195 221 255
195 221 255
195 221 255
195 221 255
195 221 255
195 221 255
195 221 255
195 221 255
195 221 255
195 221 255
195 221 255
196 221 255
196 221 255
196 221 255
196 222 255
196 222 255
196 222 255
196 222 255
196 222 255
196 222 255
196 222 255
196 222 255
196 222 255
196 222 255
196 222 255
196 222 255
196 222 255
196 222 255
196 222 255
196 222 255
196 222 255
196 222 255
196 222 255
196 222 255
196 222 255
197 222 255
197 222 255
197 222 255
197 222 255
197 222 255
197 222 255
197 222 255
197 222 255
197 222 255
197 222 255
197 222 255
197 222 255
197 222 255
197 222 255
197 222 255
197 222 255
197 222 255
197 223 255
198 223 255
198 223 255
198 223 255
198 223 255
198 223 255
198 223 255
198 223 255
198 223 255
198 223 255
198 223 255
198 223 255
198 223 255
198 223 255
198 223 255
198 223 255
199 223 255
199 223 255
199 223 255
199 223 255
199 223 255
199 223 255
199 223 255
199 223 255
199 223 255
199 223 255
199 223 255
199 223 255
199 223 255
199 224 255
199 224 255
200 224 255
200 224 255
200 224 255
200 224 255
200 224 255
200 224 255
200 224 255
200 224 255
200 224 255
200 224 255
200 224 255
200 224 255
200 224 255
200 224 255
201 224 255
201 224 255
201 224 255
201 224 255
201 224 255
201 224 255
201 224 255
201 224 255
201 224 255
201 224 255
201 224 255
201 225 255
201 225 255
201 225 255
201 225 255
202 225 255
202 225 255
202 225 255
202 225 255
202 225 255
202 225 255
202 225 255
202 225 255
202 225 255
202 225 255
202 225 255
202 225 255
202 225 255
202 225 255
202 225 255
203 225 255
203 225 255
203 225 255
203 225 255
203 225 255
203 225 255
203 225 255
203 225 255
203 225 255
203 226 255
203 226 255
203 226 255
203 226 255
203 226 255
203 226 255
203 226 255
204 226 255
204 226 255
204 226 255
204 226 255
204 226 255
204 226 255
204 226 255
204 226 255
204 226 255
204 226 255
204 226 255
204 226 255
204 226 255
204 226 255
204 226 255
204 226 255
204 226 255
205 226 255
205 226 255
205 226 255
205 226 255
205 226 255
205 226 255
205 226 255
205 227 255
205 227 255
205 227 255
205 227 255
205 227 255
205 227 255
205 227 255
205 227 255
205 227 255
205 227 255
205 227 255
206 227 255
206 227 255
206 227 255
206 227 255
206 227 255
206 227 255
206 227 255
206 227 255
206 227 255
206 227 255
206 227 255
206 227 255
206 227 255
206 227 255
206 227 255
206 227 255
206 227 255
206 227 255
206 227 255
205 227 255
205 227 255
205 227 255
205 227 255
205 227 255
205 227 255
205 227 255
205 227 255
205 227 255
205 227 255
205 226 255
205 226 255
205 226 255
205 226 255
205 226 255
205 226 255
205 226 255
205 226 255
204 226 255
204 226 255
204 226 255
204 226 255
204 226 255
204 226 255
204 226 255
204 226 255
204 226 255
204 226 255
204 226 255
204 226 255
204 226 255
204 226 255
204 226 255
204 226 255
204 226 255
203 226 255
203 226 255
203 226 255
203 226 255
203 226 255
203 226 255
203 226 255
203 225 255
203 225 255
203 225 255
203 225 255
203 225 255
203 225 255
203 225 255
203 225 255
202 225 255
202 225 255
202 225 255
202 225 255
202 225 255
202 225 255
202 225 255
202 225 255
202 225 255
202 225 255
202 225 255
202 225 255
202 225 255
202 225 255
202 225 255
201 225 255
201 225 255
201 225 255
201 225 255
201 225 255
201 224 255
201 224 255
201 224 255
201 224 255
201 224 255
201 224 255
201 224 255
201 224 255
201 224 255
201 224 255
200 224 255
200 224 255
200 224 255
200 224 255
200 224 255
200 224 255
200 224 255
200 224 255
200 224 255
200 224 255
200 224 255
200 224 255
200 224 255
200 224 255
199 224 255
199 224 255
199 224 255
199 223 255
199 223 255
199 223 255
199 223 255
199 223 255
199 223 255
199 223 255
199 223 255
199 223 255
199 223 255
199 223 255
199 223 255
198 223 255
198 223 255
198 223 255
198 223 255
198 223 255
198 223 255
198 223 255
198 223 255
198 223 255
198 223 255
198 223 255
198 223 255
198 223 255
198 223 255
198 223 255
198 223 255
197 222 255
197 222 255
197 222 255
197 222 255
197 222 255
197 222 255
197 222 255
197 222 255
197 222 255
197 222 255
197 222 255
197 222 255
197 222 255
197 222 255
197 222 255
197 222 255
197 222 255
197 222 255
196 222 255
196 222 255
196 222 255
196 222 255
196 222 255
196 222 255
196 222 255
196 222 255
196 222 255
196 222 255
196 222 255
196 222 255
196 222 255
196 222 255
196 222 255
196 222 255
196 222 255
196 222 255
196 222 255
196 222 255
196 222 255
196 222 255
196 222 255
196 221 255
196 221 255
196 221 255
196 221 255
195 221 255
195 221 255
195 221 255
195 221 255
195 221 255
195 221 255
195 221 255
195 221 255
195 221 255
195 221 255
195 221 255
195 221 255
195 221 255
195 221 255
195 221 255
195 221 255
195 221 255
195 221 255
195 221 255
195 221 255
195 221 255
195 221 255
195 221 255
195 221 255
195 221 255
195 221 255
195 221 255
195 221 255
195 221 255
195 221 255
195 221 255
195 221 255
195 221 255
195 221 255
195 221 255
195 221 255
195 221 255
195 221 255
196 221 255
196 221 255
196 221 255
196 221 255
196 222 255
196 222 255
196 222 255
196 222 255
196 222 255
196 222 255
196 222 255
196 222 255
196 222 255
196 222 255
196 222 255
196 222 255
196 222 255
196 222 255
196 222 255
196 222 255
196 222 255
196 222 255
196 222 255
196 222 255
196 222 255
196 222 255
196 222 255
197 222 255
197 222 255
197 222 255
197 222 255
197 222 255
197 222 255
197 222 255
197 222 255
197 222 255
197 222 255
197 222 255
197 222 255
197 222 255
197 222 255
197 222 255
197 222 255
197 222 255
197 222 255
198 223 255
198 223 255
198 223 255
198 223 255
198 223 255
198 223 255
198 223 255
198 223 255
198 223 255
198 223 255
198 223 255
198 223 255
198 223 255
198 223 255
198 223 255
198 223 255
199 223 255
199 223 255
199 223 255
199 223 255
199 223 255
199 223 255
199 223 255
199 223 255
199 223 255
199 223 255
199 223 255
199 223 255
199 224 255
199 224 255
199 224 255
200 224 255
200 224 255
200 224 255
200 224 255
200 224 255
200 224 255
200 224 255
200 224 255
200 224 255
200 224 255
200 224 255
200 224 255
200 224 255
200 224 255
201 224 255
201 224 255
201 224 255
201 224 255
201 224 255
201 224 255
201 224 255
201 224 255
201 224 255
201 224 255
201 225 255
201 225 255
201 225 255
201 225 255
201 225 255
202 225 255
202 225 255
202 225 255
202 225 255
202 225 255
202 225 255
202 225 255
202 225 255
202 225 255
202 225 255
202 225 255
202 225 255
202 225 255
202 225 255
202 225 255
203 225 255
203 225 255
203 225 255
203 225 255
203 225 255
203 225 255
203 225 255
203 225 255
203 226 255
203 226 255
203 226 255
203 226 255
203 226 255
203 226 255
203 226 255
203 226 255
204 226 255
204 226 255
204 226 255
204 226 255
204 226 255
204 226 255
204 226 255
204 226 255
204 226 255
204 226 255
204 226 255
204 226 255
204 226 255
204 226 255
204 226 255
204 226 255
205 226 255
205 226 255
205 226 255
205 226 255
205 226 255
205 226 255
205 226 255
205 227 255
205 227 255
205 227 255
205 227 255
205 227 255
205 227 255
205 227 255
205 227 255
205 227 255
205 227 255
205 227 255
206 227 255
206 227 255
206 227 255
206 227 255
206 227 255
206 227 255
206 227 255
206 227 255
206 227 255
206 227 255
206 227 255
206 227 255
206 227 255
206 227 255
206 227 255
206 227 255
206 227 255
206 227 255
206 227 255
206 227 255
206 227 255
206 227 255
206 227 255
206 227 255
205 227 255
205 227 255
205 227 255
205 227 255
205 227 255
205 227 255
205 227 255
205 227 255
205 227 255
205 227 255
205 227 255
205 226 255
205 226 255
205 226 255
205 226 255
205 226 255
205 226 255
205 226 255
204 226 255
204 226 255
204 226 255
204 226 255
204 226 255
204 226 255
204 226 255
204 226 255
204 226 255
204 226 255
204 226 255
204 226 255
204 226 255
204 226 255
204 226 255
204 226 255
204 226 255
203 226 255
203 226 255
203 226 255
203 226 255
203 226 255
203 226 255
203 226 255
203 225 255
203 225 255
203 225 255
203 225 255
203 225 255
203 225 255
203 225 255
203 225 255
203 225 255
202 225 255
202 225 255
202 225 255
202 225 255
202 225 255
202 225 255
202 225 255
202 225 255
202 225 255
202 225 255
202 225 255
202 225 255
202 225 255
202 225 255
202 225 255
201 225 255
201 225 255
201 225 255
201 225 255
201 224 255
201 224 255
201 224 255
201 224 255
201 224 255
201 224 255
201 224 255
201 224 255
201 224 255
201 224 255
200 224 255
200 224 255
200 224 255
200 224 255
200 224 255
200 224 255
200 224 255
200 224 255
200 224 255
200 224 255
200 224 255
200 224 255
200 224 255
200 224 255
200 224 255
199 224 255
199 224 255
199 223 255
199 223 255
199 223 255
199 223 255
199 223 255
199 223 255
199 223 255
199 223 255
199 223 255
199 223 255
199 223 255
199 223 255
199 223 255
198 223 255
198 223 255
198 223 255
198 223 255
198 223 255
198 223 255
198 223 255
198 223 255
198 223 255
198 223 255
198 223 255
198 223 255
198 223 255
198 223 255
198 223 255
198 223 255
197 222 255
197 222 255
197 222 255
197 222 255
197 222 255
197 222 255
197 222 255
197 222 255
197 222 255
197 222 255
197 222 255
197 222 255
197 222 255
197 222 255
197 222 255
197 222 255
197 222 255
197 222 255
196 222 255
196 222 255
196 222 255
196 222 255
196 222 255
196 222 255
196 222 255
196 222 255
196 222 255
196 222 255
196 222 255
196 222 255
196 222 255
196 222 255
196 222 255
196 222 255
196 222 255
196 222 255
196 222 255
196 222 255
196 222 255
196 222 255
196 222 255
196 222 255
196 222 255
196 222 255
196 222 255
196 221 255
196 221 255
196 221 255
196 221 255
196 221 255
195 221 255
195 221 255
195 221 255
195 221 255
195 221 255
195 221 255
195 221 255
195 221 255
195 221 255
195 221 255
195 221 255
195 221 255
195 221 255
195 221 255
195 221 255
195 221 255
195 221 255
195 221 255
195 221 255
195 221 255
195 221 255
196 221 255
196 221 255
196 221 255
196 221 255
196 221 255
196 222 255
196 222 255
196 222 255
196 222 255
196 222 255
196 222 255
196 222 255
196 222 255
196 222 255
196 222 255
196 222 255
196 222 255
196 222 255
196 222 255
196 222 255
196 222 255
196 222 255
196 222 255
196 222 255
196 222 255
196 222 255
196 222 255
196 222 255
196 222 255
196 222 255
196 222 255
196 222 255
196 222 255
197 222 255
197 222 255
197 222 255
197 222 255
197 222 255
197 222 255
197 222 255
197 222 255
197 222 255
197 222 255
197 222 255
197 222 255
197 222 255
197 222 255
197 222 255
197 222 255
197 222 255
197 222 255
197 223 255
198 223 255
198 223 255
198 223 255
198 223 255
198 223 255
198 223 255
198 223 255
198 223 255
198 223 255
198 223 255
198 223 255
198 223 255
198 223 255
198 223 255
198 223 255
198 223 255
199 223 255
199 223 255
199 223 255
199 223 255
199 223 255
199 223 255
199 223 255
199 223 255
199 223 255
199 223 255
199 223 255
199 223 255
199 224 255
199 224 255
200 224 255
200 224 255
200 224 255
200 224 255
200 224 255
200 224 255
200 224 255
200 224 255
200 224 255
200 224 255
200 224 255
200 224 255
200 224 255
200 224 255
200 224 255
201 224 255
201 224 255
201 224 255
201 224 255
201 224 255
201 224 255
201 224 255
201 224 255
201 224 255
201 224 255
201 225 255
201 225 255
201 225 255
201 225 255
202 225 255
202 225 255
202 225 255
202 225 255
202 225 255
202 225 255
202 225 255
202 225 255
202 225 255
202 225 255
202 225 255
202 225 255
202 225 255
202 225 255
202 225 255
203 225 255
203 225 255
203 225 255
203 225 255
203 225 255
203 225 255
203 225 255
203 225 255
203 225 255
203 226 255
203 226 255
203 226 255
203 226 255
203 226 255
203 226 255
203 226 255
204 226 255
204 226 255
204 226 255
204 226 255
204 226 255
204 226 255
204 226 255
204 226 255
204 226 255
204 226 255
204 226 255
204 226 255
204 226 255
204 226 255
204 226 255
204 226 255
204 226 255
205 226 255
205 226 255
205 226 255
205 226 255
205 226 255
205 226 255
205 226 255
205 227 255
205 227 255
205 227 255
205 227 255
205 227 255
205 227 255
205 227 255
205 227 255
205 227 255
205 227 255
205 227 255
206 227 255
206 227 255
206 227 255
206 227 255
206 227 255
206 227 255
206 227 255
206 227 255
206 227 255
206 227 255
206 227 255
206 227 255
206 227 255
206 227 255
206 227 255
206 227 255
206 227 255
206 227 255
206 227 255
206 227 255
206 227 255
206 227 255
206 227 255
206 227 255
206 227 255
206 227 255
206 227 255
206 227 255
206 227 255
205 227 255
205 227 255
205 227 255
205 227 255
205 227 255
205 227 255
205 227 255
205 227 255
205 227 255
205 227 255
205 227 255
205 226 255
205 226 255
205 226 255
205 226 255
205 226 255
205 226 255
205 226 255
204 226 255
204 226 255
204 226 255
204 226 255
204 226 255
204 226 255
204 226 255
204 226 255
204 226 255
204 226 255
204 226 255
204 226 255
204 226 255
204 226 255
204 226 255
204 226 255
203 226 255
203 226 255
203 226 255
203 226 255
203 226 255
203 226 255
203 226 255
203 225 255
203 225 255
203 225 255
203 225 255
203 225 255
203 225 255
203 225 255
203 225 255
203 225 255
202 225 255
202 225 255
202 225 255
202 225 255
202 225 255
202 225 255
202 225 255
202 225 255
202 225 255
202 225 255
202 225 255
202 225 255
202 225 255
202 225 255
202 225 255
201 225 255
201 225 255
201 225 255
201 225 255
201 224 255
201 224 255
201 224 255
201 224 255
201 224 255
201 224 255
201 224 255
201 224 255
201 224 255
201 224 255
201 224 255
200 224 255
200 224 255
200 224 255
200 224 255
200 224 255
200 224 255
200 224 255
200 224 255
200 224 255
200 224 255
200 224 255
200 224 255
200 224 255
200 224 255
199 224 255
199 224 255
199 224 255
199 223 255
199 223 255
199 223 255
199 223 255
199 223 255
199 223 255
199 223 255
199 223 255
199 223 255
199 223 255
199 223 255
199 223 255
198 223 255
198 223 255
198 223 255
198 223 255
198 223 255
198 223 255
198 223 255
198 223 255
198 223 255
198 223 255
198 223 255
198 223 255
198 223 255
198 223 255
198 223 255
198 223 255
197 223 255
197 222 255
197 222 255
197 222 255
197 222 255
197 222 255
197 222 255
197 222 255
197 222 255
197 222 255
197 222 255
197 222 255
197 222 255
197 222 255
197 222 255
197 222 255
197 222 255
197 222 255
197 222 255
197 222 255
196 222 255
196 222 255
196 222 255
196 222 255
196 222 255
196 222 255
196 222 255
196 222 255
196 222 255
196 222 255
196 222 255
196 222 255
196 222 255
196 222 255
196 222 255
196 222 255
196 222 255
196 222 255
196 222 255
196 222 255
196 222 255
196 222 255
196 222 255
196 222 255
196 222 255
196 222 255
196 222 255
196 222 255
196 222 255
196 222 255
196 222 255
196 222 255
196 222 255
196 222 255
196 222 255
196 222 255
196 222 255
196 222 255
196 222 255
196 222 255
196 222 255
196 222 255
196 222 255
196 222 255
196 222 255
196 222 255
196 222 255
196 222 255
196 222 255
196 222 255
196 222 255
196 222 255
196 222 255
196 222 255
196 222 255
196 222 255
196 222 255
196 222 255
196 222 255
196 222 255
196 222 255
196 222 255
196 222 255
196 222 255
196 222 255
196 222 255
196 222 255
196 222 255
196 222 255
196 222 255
196 222 255
196 222 255
196 222 255
196 222 255
196 222 255
196 222 255
196 222 255
196 222 255
197 222 255
197 222 255
197 222 255
197 222 255
197 222 255
197 222 255
197 222 255
197 222 255
197 222 255
197 222 255
197 222 255
197 222 255
197 222 255
197 222 255
197 222 255
197 222 255
197 222 255
197 222 255
197 222 255
197 223 255
198 223 255
198 223 255
198 223 255
198 223 255
198 223 255
198 223 255
198 223 255
198 223 255
198 223 255
198 223 255
198 223 255
198 223 255
198 223 255
198 223 255
198 223 255
198 223 255
199 223 255
199 223 255
199 223 255
199 223 255
199 223 255
199 223 255
199 223 255
199 223 255
199 223 255
199 223 255
199 223 255
199 223 255
199 224 255
199 224 255
199 224 255
200 224 255
200 224 255
200 224 255
200 224 255
200 224 255
200 224 255
200 224 255
200 224 255
200 224 255
200 224 255
200 224 255
200 224 255
200 224 255
200 224 255
201 224 255
201 224 255
201 224 255
201 224 255
201 224 255
201 224 255
201 224 255
201 224 255
201 224 255
201 224 255
201 224 255
201 225 255
201 225 255
201 225 255
201 225 255
202 225 255
202 225 255
202 225 255
202 225 255
202 225 255
202 225 255
202 225 255
202 225 255
202 225 255
202 225 255
202 225 255
202 225 255
202 225 255
202 225 255
202 225 255
203 225 255
203 225 255
203 225 255
203 225 255
203 225 255
203 225 255
203 225 255
203 225 255
203 225 255
203 226 255
203 226 255
203 226 255
203 226 255
203 226 255
203 226 255
203 226 255
204 226 255
204 226 255
204 226 255
204 226 255
204 226 255
204 226 255
204 226 255
204 226 255
204 226 255
204 226 255
204 226 255
204 226 255
204 226 255
204 226 255
204 226 255
204 226 255
205 226 255
205 226 255
205 226 255
205 226 255
205 226 255
205 226 255
205 226 255
205 227 255
205 227 255
205 227 255
205 227 255
205 227 255
205 227 255
205 227 255
205 227 255
205 227 255
205 227 255
205 227 255
206 227 255
206 227 255
206 227 255
206 227 255
206 227 255
206 227 255
206 227 255
206 227 255
206 227 255
206 227 255
206 227 255
206 227 255
206 227 255
206 227 255
206 227 255
206 227 255
206 227 255
206 227 255
206 227 255
206 227 255
206 227 255
206 227 255
206 227 255
206 227 255
206 227 255
206 227 255
206 227 255
206 227 255
206 227 255
206 227 255
206 227 255
206 227 255
206 227 255
206 227 255
205 227 255
205 227 255
205 227 255
205 227 255
205 227 255
205 227 255
205 227 255
205 227 255
205 227 255
205 227 255
205 227 255
205 226 255
205 226 255
205 226 255
205 226 255
205 226 255
205 226 255
205 226 255
204 226 255
204 226 255
204 226 255
204 226 255
204 226 255
204 226 255
204 226 255
204 226 255
204 226 255
204 226 255
204 226 255
204 226 255
204 226 255
204 226 255
204 226 255
204 226 255
204 226 255
203 226 255
203 226 255
203 226 255
203 226 255
203 226 255
203 226 255
203 226 255
203 225 255
203 225 255
203 225 255
203 225 255
203 225 255
203 225 255
203 225 255
203 225 255
202 225 255
202 225 255
202 225 255
202 225 255
202 225 255
202 225 255
202 225 255
202 225 255
202 225 255
202 225 255
202 225 255
202 225 255
202 225 255
202 225 255
202 225 255
201 225 255
201 225 255
201 225 255
201 225 255
201 225 255
201 224 255
201 224 255
201 224 255
201 224 255
201 224 255
201 224 255
201 224 255
201 224 255
201 224 255
201 224 255
200 224 255
200 224 255
200 224 255
200 224 255
200 224 255
200 224 255
200 224 255
200 224 255
200 224 255
200 224 255
200 224 255
200 224 255
200 224 255
200 224 255
200 224 255
199 224 255
199 224 255
199 223 255
199 223 255
199 223 255
199 223 255
199 223 255
199 223 255
199 223 255
199 223 255
199 223 255
199 223 255
199 223 255
199 223 255
199 223 255
198 223 255
198 223 255
198 223 255
198 223 255
198 223 255
198 223 255
198 223 255
198 223 255
198 223 255
198 223 255
198 223 255
198 223 255
198 223 255
198 223 255
198 223 255
198 223 255
197 223 255
197 222 255
197 222 255
197 222 255
197 222 255
197 222 255
197 222 255
197 222 255
197 222 255
197 222 255
197 222 255
197 222 255
197 222 255
197 222 255
197 222 255
197 222 255
197 222 255
197 222 255
197 222 255
197 222 255
196 222 255
196 222 255
196 222 255
196 222 255
196 222 255
196 222 255
196 222 255
196 222 255
196 222 255
196 222 255
196 222 255
196 222 255
196 222 255
196 222 255
196 222 255
196 222 255
196 222 255
196 222 255
196 222 255
196 222 255
196 222 255
196 222 255
196 222 255
196 222 255
196 222 255
196 222 255
196 222 255
196 222 255
196 222 255
196 222 255
196 222 255
196 222 255
196 222 255
196 222 255
196 222 255
196 222 255
196 222 255
196 222 255
196 222 255
196 222 255
196 222 255
196 222 255
196 222 255
196 222 255
196 222 255
196 222 255
196 222 255
196 222 255
196 222 255
196 222 255
196 222 255
196 222 255
196 222 255
196 222 255
196 222 255
196 222 255
196 222 255
196 222 255
196 222 255
196 222 255
196 222 255
196 222 255
196 222 255
196 222 255
196 222 255
196 222 255
196 222 255
196 222 255
196 222 255
196 222 255
196 222 255
197 222 255
197 222 255
197 222 255
197 222 255
197 222 255
197 222 255
197 222 255
197 222 255
197 222 255
197 222 255
197 222 255
197 222 255
197 222 255
197 222 255
197 222 255
197 222 255
197 222 255
197 222 255
197 222 255
197 222 255
197 223 255
198 223 255
198 223 255
198 223 255
198 223 255
198 223 255
198 223 255
198 223 255
198 223 255
198 223 255
198 223 255
198 223 255
198 223 255
198 223 255
198 223 255
198 223 255
198 223 255
199 223 255
199 223 255
199 223 255
199 223 255
199 223 255
199 223 255
199 223 255
199 223 255
199 223 255
199 223 255
199 223 255
199 223 255
199 223 255
199 224 255
199 224 255
199 224 255
200 224 255
200 224 255
200 224 255
200 224 255
200 224 255
200 224 255
200 224 255
200 224 255
200 224 255
200 224 255
200 224 255
200 224 255
200 224 255
200 224 255
201 224 255
201 224 255
201 224 255
201 224 255
201 224 255
201 224 255
201 224 255
201 224 255
201 224 255
201 224 255
201 225 255
201 225 255
201 225 255
201 225 255
201 225 255
202 225 255
202 225 255
202 225 255
202 225 255
202 225 255
202 225 255
202 225 255
202 225 255
202 225 255
202 225 255
202 225 255
202 225 255
202 225 255
202 225 255
202 225 255
203 225 255
203 225 255
203 225 255
203 225 255
203 225 255
203 225 255
203 225 255
203 225 255
203 226 255
203 226 255
203 226 255
203 226 255
203 226 255
203 226 255
203 226 255
204 226 255
204 226 255
204 226 255
204 226 255
204 226 255
204 226 255
204 226 255
204 226 255
204 226 255
204 226 255
204 226 255
204 226 255
204 226 255
204 226 255
204 226 255
204 226 255
204 226 255
205 226 255
205 226 255
205 226 255
205 226 255
205 226 255
205 226 255
205 226 255
205 227 255
205 227 255
205 227 255
205 227 255
205 227 255
205 227 255
205 227 255
205 227 255
205 227 255
205 227 255
206 227 255
206 227 255
206 227 255
206 227 255
206 227 255
206 227 255
206 227 255
206 227 255
206 227 255
206 227 255
206 227 255
206 227 255
206 227 255
206 227 255
206 227 255
206 227 255
206 227 255
206 227 255
206 227 255
207 227 255
207 227 255
206 227 255
206 227 255
206 227 255
206 227 255
206 227 255
206 227 255
206 227 255
206 227 255
206 227 255
206 227 255
206 227 255
206 227 255
206 227 255
206 227 255
206 227 255
206 227 255
206 227 255
206 227 255
206 227 255
205 227 255
205 227 255
205 227 255
205 227 255
205 227 255
205 227 255
205 227 255
205 227 255
205 227 255
205 227 255
205 227 255
205 226 255
205 226 255
205 226 255
205 226 255
205 226 255
205 226 255
205 226 255
204 226 255
204 226 255
204 226 255
204 226 255
204 226 255
204 226 255
204 226 255
204 226 255
204 226 255
204 226 255
204 226 255
204 226 255
204 226 255
204 226 255
204 226 255
204 226 255
203 226 255
203 226 255
203 226 255
203 226 255
203 226 255
203 226 255
203 226 255
203 225 255
203 225 255
203 225 255
203 225 255
203 225 255
203 225 255
203 225 255
203 225 255
203 225 255
202 225 255
202 225 255
202 225 255
202 225 255
202 225 255
202 225 255
202 225 255
202 225 255
202 225 255
202 225 255
202 225 255
202 225 255
202 225 255
202 225 255
202 225 255
201 225 255
201 225 255
201 225 255
201 225 255
201 224 255
201 224 255
201 224 255
201 224 255
201 224 255
201 224 255
201 224 255
201 224 255
201 224 255
201 224 255
200 224 255
200 224 255
200 224 255
200 224 255
200 224 255
200 224 255
200 224 255
200 224 255
200 224 255
200 224 255
200 224 255
200 224 255
200 224 255
200 224 255
200 224 255
199 224 255
199 224 255
199 223 255
199 223 255
199 223 255
199 223 255
199 223 255
199 223 255
199 223 255
199 223 255
199 223 255
199 223 255
199 223 255
199 223 255
199 223 255
198 223 255
198 223 255
198 223 255
198 223 255
198 223 255
198 223 255
198 223 255
198 223 255
198 223 255
198 223 255
198 223 255
198 223 255
198 223 255
198 223 255
198 223 255
198 223 255
198 223 255
197 223 255
197 222 255
197 222 255
197 222 255
197 222 255
197 222 255
197 222 255
197 222 255
197 222 255
197 222 255
197 222 255
197 222 255
197 222 255
197 222 255
197 222 255
197 222 255
197 222 255
197 222 255
197 222 255
197 222 255
197 222 255
197 222 255
196 222 255
196 222 255
196 222 255
196 222 255
196 222 255
196 222 255
196 222 255
196 222 255
196 222 255
196 222 255
196 222 255
196 222 255
196 222 255
196 222 255
196 222 255
196 222 255
196 222 255
196 222 255
196 222 255
196 222 255
196 222 255
196 222 255
196 222 255
196 222 255
196 222 255
196 222 255
196 222 255
196 222 255
196 222 255
196 222 255
196 222 255
196 222 255
196 222 255
196 222 255
196 222 255
196 222 255
196 222 255
196 222 255
196 222 255
196 222 255
196 222 255
196 222 255
196 222 255
196 222 255
196 222 255
196 222 255
196 222 255
196 222 255
196 222 255
196 222 255
196 222 255
196 222 255
196 222 255
196 222 255
196 222 255
196 222 255
196 222 255
196 222 255
196 222 255
196 222 255
196 222 255
196 222 255
197 222 255
197 222 255
197 222 255
197 222 255
197 222 255
197 222 255
197 222 255
197 222 255
197 222 255
197 222 255
197 222 255
197 222 255
197 222 255
197 222 255
197 222 255
197 222 255
197 222 255
197 222 255
197 222 255
197 222 255
197 222 255
197 223 255
198 223 255
198 223 255
198 223 255
198 223 255
198 223 255
198 223 255
198 223 255
198 223 255
198 223 255
198 223 255
198 223 255
198 223 255
198 223 255
198 223 255
198 223 255
198 223 255
198 223 255
199 223 255
199 223 255
199 223 255
199 223 255
199 223 255
199 223 255
199 223 255
199 223 255
199 223 255
199 223 255
199 223 255
199 223 255
199 223 255
199 224 255
199 224 255
200 224 255
200 224 255
200 224 255
200 224 255
200 224 255
200 224 255
200 224 255
200 224 255
200 224 255
200 224 255
200 224 255
200 224 255
200 224 255
200 224 255
200 224 255
201 224 255
201 224 255
201 224 255
201 224 255
201 224 255
201 224 255
201 224 255
201 224 255
201 224 255
201 224 255
201 225 255
201 225 255
201 225 255
201 225 255
202 225 255
202 225 255
202 225 255
202 225 255
202 225 255
202 225 255
202 225 255
202 225 255
202 225 255
202 225 255
202 225 255
202 225 255
202 225 255
202 225 255
202 225 255
203 225 255
203 225 255
203 225 255
203 225 255
203 225 255
203 225 255
203 225 255
203 225 255
203 225 255
203 226 255
203 226 255
203 226 255
203 226 255
203 226 255
203 226 255
203 226 255
204 226 255
204 226 255
204 226 255
204 226 255
204 226 255
204 226 255
204 226 255
204 226 255
204 226 255
204 226 255
204 226 255
204 226 255
204 226 255
204 226 255
204 226 255
204 226 255
205 226 255
205 226 255
205 226 255
205 226 255
205 226 255
205 226 255
205 226 255
205 227 255
205 227 255
205 227 255
205 227 255
205 227 255
205 227 255
205 227 255
205 227 255
205 227 255
205 227 255
205 227 255
206 227 255
206 227 255
206 227 255
206 227 255
206 227 255
206 227 255
206 227 255
206 227 255
206 227 255
206 227 255
206 227 255
206 227 255
206 227 255
206 227 255
206 227 255
206 227 255
206 227 255
206 227 255
206 227 255
207 227 255
207 227 255
207 227 255
207 227 255
207 227 255
207 227 255
207 227 255
206 227 255
206 227 255
206 227 255
206 227 255
206 227 255
206 227 255
206 227 255
206 227 255
206 227 255
206 227 255
206 227 255
206 227 255
206 227 255
206 227 255
206 227 255
206 227 255
206 227 255
206 227 255
206 227 255
205 227 255
205 227 255
205 227 255
205 227 255
205 227 255
205 227 255
205 227 255
205 227 255
205 227 255
205 227 255
205 226 255
205 226 255
205 226 255
205 226 255
205 226 255
205 226 255
205 226 255
204 226 255
204 226 255
204 226 255
204 226 255
204 226 255
204 226 255
204 226 255
204 226 255
204 226 255
204 226 255
204 226 255
204 226 255
204 226 255
204 226 255
204 226 255
204 226 255
204 226 255
203 226 255
203 226 255
203 226 255
203 226 255
203 226 255
203 226 255
203 225 255
203 225 255
203 225 255
203 225 255
203 225 255
203 225 255
203 225 255
203 225 255
203 225 255
202 225 255
202 225 255
202 225 255
202 225 255
202 225 255
202 225 255
202 225 255
202 225 255
202 225 255
202 225 255
202 225 255
202 225 255
202 225 255
202 225 255
202 225 255
201 225 255
201 225 255
201 225 255
201 225 255
201 224 255
201 224 255
201 224 255
201 224 255
201 224 255
201 224 255
201 224 255
201 224 255
201 224 255
201 224 255
201 224 255
200 224 255
200 224 255
200 224 255
200 224 255
200 224 255
200 224 255
200 224 255
200 224 255
200 224 255
200 224 255
200 224 255
200 224 255
200 224 255
200 224 255
199 224 255
199 224 255
199 224 255
199 223 255
199 223 255
199 223 255
199 223 255
199 223 255
199 223 255
199 223 255
199 223 255
199 223 255
199 223 255
199 223 255
199 223 255
199 223 255
198 223 255
198 223 255
198 223 255
198 223 255
198 223 255
198 223 255
198 223 255
198 223 255
198 223 255
198 223 255
198 223 255
198 223 255
198 223 255
198 223 255
198 223 255
198 223 255
198 223 255
197 223 255
197 222 255
197 222 255
197 222 255
197 222 255
197 222 255
197 222 255
197 222 255
197 222 255
197 222 255
197 222 255
197 222 255
197 222 255
197 222 255
197 222 255
197 222 255
197 222 255
197 222 255
197 222 255
197 222 255
197 222 255
197 222 255
197 222 255
197 222 255
196 222 255
196 222 255
196 222 255
196 222 255
196 222 255
196 222 255
196 222 255
196 222 255
196 222 255
196 222 255
196 222 255
196 222 255
196 222 255
196 222 255
196 222 255
196 222 255
196 222 255
196 222 255
196 222 255
196 222 255
196 222 255
196 222 255
196 222 255
196 222 255
196 222 255
196 222 255
196 222 255
196 222 255
196 222 255
196 222 255
196 222 255
196 222 255
196 222 255
196 222 255
196 222 255
196 222 255
196 222 255
196 222 255
196 222 255
196 222 255
196 222 255
196 222 255
196 222 255
196 222 255
196 222 255
196 222 255
196 222 255
196 222 255
196 222 255
196 222 255
196 222 255
196 222 255
197 222 255
197 222 255
197 222 255
197 222 255
197 222 255
197 222 255
197 222 255
197 222 255
197 222 255
197 222 255
197 222 255
197 222 255
197 222 255
197 222 255
197 222 255
197 222 255
197 222 255
197 222 255
197 222 255
197 222 255
197 222 255
197 222 255
197 222 255
197 223 255
198 223 255
198 223 255
198 223 255
198 223 255
198 223 255
198 223 255
198 223 255
198 223 255
198 223 255
198 223 255
198 223 255
198 223 255
198 223 255
198 223 255
198 223 255
198 223 255
198 223 255
199 223 255
199 223 255
199 223 255
199 223 255
199 223 255
199 223 255
199 223 255
199 223 255
199 223 255
199 223 255
199 223 255
199 223 255
199 223 255
199 224 255
199 224 255
199 224 255
200 224 255
200 224 255
200 224 255
200 224 255
200 224 255
200 224 255
200 224 255
200 224 255
200 224 255
200 224 255
200 224 255
200 224 255
200 224 255
200 224 255
201 224 255
201 224 255
201 224 255
201 224 255
201 224 255
201 224 255
201 224 255
201 224 255
201 224 255
201 224 255
201 224 255
201 225 255
201 225 255
201 225 255
201 225 255
202 225 255
202 225 255
202 225 255
202 225 255
202 225 255
202 225 255
202 225 255
202 225 255
202 225 255
202 225 255
202 225 255
202 225 255
202 225 255
202 225 255
202 225 255
203 225 255
203 225 255
203 225 255
203 225 255
203 225 255
203 225 255
203 225 255
203 225 255
203 226 255
203 226 255
203 226 255
203 226 255
203 226 255
203 226 255
203 226 255
204 226 255
204 226 255
204 226 255
204 226 255
204 226 255
204 226 255
204 226 255
204 226 255
204 226 255
204 226 255
204 226 255
204 226 255
204 226 255
204 226 255
204 226 255
204 226 255
204 226 255
205 226 255
205 226 255
205 226 255
205 226 255
205 226 255
205 226 255
205 226 255
205 227 255
205 227 255
205 227 255
205 227 255
205 227 255
205 227 255
205 227 255
205 227 255
205 227 255
205 227 255
206 227 255
206 227 255
206 227 255
206 227 255
206 227 255
206 227 255
206 227 255
206 227 255
206 227 255
206 227 255
206 227 255
206 227 255
206 227 255
206 227 255
206 227 255
206 227 255
206 227 255
206 227 255
206 227 255
207 227 255
207 227 255
207 227 255
207 227 255
207 227 255
207 228 255
207 228 255
207 227 255
207 227 255
207 227 255
207 227 255
207 227 255
206 227 255
206 227 255
206 227 255
206 227 255
206 227 255
206 227 255
206 227 255
206 227 255
206 227 255
206 227 255
206 227 255
206 227 255
206 227 255
206 227 255
206 227 255
206 227 255
206 227 255
206 227 255
206 227 255
205 227 255
205 227 255
205 227 255
205 227 255
205 227 255
205 227 255
205 227 255
205 227 255
205 227 255
205 227 255
205 227 255
205 226 255
205 226 255
205 226 255
205 226 255
205 226 255
205 226 255
205 226 255
204 226 255
204 226 255
204 226 255
204 226 255
204 226 255
204 226 255
204 226 255
204 226 255
204 226 255
204 226 255
204 226 255
204 226 255
204 226 255
204 226 255
204 226 255
204 226 255
203 226 255
203 226 255
203 226 255
203 226 255
203 226 255
203 226 255
203 226 255
203 225 255
203 225 255
203 225 255
203 225 255
203 225 255
203 225 255
203 225 255
203 225 255
202 225 255
202 225 255
202 225 255
202 225 255
202 225 255
202 225 255
202 225 255
202 225 255
202 225 255
202 225 255
202 225 255
202 225 255
202 225 255
202 225 255
202 225 255
201 225 255
201 225 255
201 225 255
201 225 255
201 225 255
201 224 255
201 224 255
201 224 255
201 224 255
201 224 255
201 224 255
201 224 255
201 224 255
201 224 255
201 224 255
200 224 255
200 224 255
200 224 255
200 224 255
200 224 255
200 224 255
200 224 255
200 224 255
200 224 255
200 224 255
200 224 255
200 224 255
200 224 255
200 224 255
200 224 255
199 224 255
199 224 255
199 223 255
199 223 255
199 223 255
199 223 255
199 223 255
199 223 255
199 223 255
199 223 255
199 223 255
199 223 255
199 223 255
199 223 255
199 223 255
198 223 255
198 223 255
198 223 255
198 223 255
198 223 255
198 223 255
198 223 255
198 223 255
198 223 255
198 223 255
198 223 255
198 223 255
198 223 255
198 223 255
198 223 255
198 223 255
198 223 255
198 223 255
198 223 255
197 222 255
197 222 255
197 222 255
197 222 255
197 222 255
197 222 255
197 222 255
197 222 255
197 222 255
197 222 255
197 222 255
197 222 255
197 222 255
197 222 255
197 222 255
197 222 255
197 222 255
197 222 255
197 222 255
197 222 255
197 222 255
197 222 255
197 222 255
197 222 255
197 222 255
197 222 255
196 222 255
196 222 255
196 222 255
196 222 255
196 222 255
196 222 255
196 222 255
196 222 255
196 222 255
196 222 255
196 222 255
196 222 255
196 222 255
196 222 255
196 222 255
196 222 255
196 222 255
196 222 255
196 222 255
196 222 255
196 222 255
196 222 255
196 222 255
196 222 255
196 222 255
196 222 255
196 222 255
196 222 255
196 222 255
196 222 255
196 222 255
196 222 255
196 222 255
196 222 255
196 222 255
196 222 255
196 222 255
196 222 255
196 222 255
196 222 255
197 222 255
197 222 255
197 222 255
197 222 255
197 222 255
197 222 255
197 222 255
197 222 255
197 222 255
197 222 255
197 222 255
197 222 255
197 222 255
197 222 255
197 222 255
197 222 255
197 222 255
197 222 255
197 222 255
197 222 255
197 222 255
197 222 255
197 222 255
197 222 255
197 222 255
197 222 255
198 223 255
198 223 255
198 223 255
198 223 255
198 223 255
198 223 255
198 223 255
198 223 255
198 223 255
198 223 255
198 223 255
198 223 255
198 223 255
198 223 255
198 223 255
198 223 255
198 223 255
198 223 255
199 223 255
199 223 255
199 223 255
199 223 255
199 223 255
199 223 255
199 223 255
199 223 255
199 223 255
199 223 255
199 223 255
199 223 255
199 223 255
199 223 255
199 224 255
199 224 255
200 224 255
200 224 255
200 224 255
200 224 255
200 224 255
200 224 255
200 224 255
200 224 255
200 224 255
200 224 255
200 224 255
200 224 255
200 224 255
200 224 255
200 224 255
201 224 255
201 224 255
201 224 255
201 224 255
201 224 255
201 224 255
201 224 255
201 224 255
201 224 255
201 224 255
201 225 255
201 225 255
201 225 255
201 225 255
202 225 255
202 225 255
202 225 255
202 225 255
202 225 255
202 225 255
202 225 255
202 225 255
202 225 255
202 225 255
202 225 255
202 225 255
202 225 255
202 225 255
202 225 255
203 225 255
203 225 255
203 225 255
203 225 255
203 225 255
203 225 255
203 225 255
203 225 255
203 225 255
203 226 255
203 226 255
203 226 255
203 226 255
203 226 255
203 226 255
203 226 255
204 226 255
204 226 255
204 226 255
204 226 255
204 226 255
204 226 255
204 226 255
204 226 255
204 226 255
204 226 255
204 226 255
204 226 255
204 226 255
204 226 255
204 226 255
204 226 255
205 226 255
205 226 255
205 226 255
205 226 255
205 226 255
205 226 255
205 226 255
205 227 255
205 227 255
205 227 255
205 227 255
205 227 255
205 227 255
205 227 255
205 227 255
205 227 255
205 227 255
205 227 255
206 227 255
206 227 255
206 227 255
206 227 255
206 227 255
206 227 255
206 227 255
206 227 255
206 227 255
206 227 255
206 227 255
206 227 255
206 227 255
206 227 255
206 227 255
206 227 255
206 227 255
206 227 255
206 227 255
207 227 255
207 227 255
207 227 255
207 227 255
207 227 255
207 228 255
207 228 255
207 228 255
207 228 255
207 228 255
207 228 255
207 228 255
207 227 255
207 227 255
207 227 255
207 227 255
207 227 255
206 227 255
206 227 255
206 227 255
206 227 255
206 227 255
206 227 255
206 227 255
206 227 255
206 227 255
206 227 255
206 227 255
206 227 255
206 227 255
206 227 255
206 227 255
206 227 255
206 227 255
206 227 255
206 227 255
205 227 255
205 227 255
205 227 255
205 227 255
205 227 255
205 227 255
205 227 255
205 227 255
205 227 255
205 227 255
205 226 255
205 226 255
205 226 255
205 226 255
205 226 255
205 226 255
205 226 255
204 226 255
204 226 255
204 226 255
204 226 255
204 226 255
204 226 255
204 226 255
204 226 255
204 226 255
204 226 255
204 226 255
204 226 255
204 226 255
204 226 255
204 226 255
204 226 255
204 226 255
203 226 255
203 226 255
203 226 255
203 226 255
203 226 255
203 226 255
203 225 255
203 225 255
203 225 255
203 225 255
203 225 255
203 225 255
203 225 255
203 225 255
203 225 255
202 225 255
202 225 255
202 225 255
202 225 255
202 225 255
202 225 255
202 225 255
202 225 255
202 225 255
202 225 255
202 225 255
202 225 255
202 225 255
202 225 255
202 225 255
201 225 255
201 225 255
201 225 255
201 225 255
201 224 255
201 224 255
201 224 255
201 224 255
201 224 255
201 224 255
201 224 255
201 224 255
201 224 255
201 224 255
200 224 255
200 224 255
200 224 255
200 224 255
200 224 255
200 224 255
200 224 255
200 224 255
200 224 255
200 224 255
200 224 255
200 224 255
200 224 255
200 224 255
200 224 255
199 224 255
199 224 255
199 224 255
199 223 255
199 223 255
199 223 255
199 223 255
199 223 255
199 223 255
199 223 255
199 223 255
199 223 255
199 223 255
199 223 255
199 223 255
199 223 255
198 223 255
198 223 255
198 223 255
198 223 255
198 223 255
198 223 255
198 223 255
198 223 255
198 223 255
198 223 255
198 223 255
198 223 255
198 223 255
198 223 255
198 223 255
198 223 255
198 223 255
198 223 255
198 223 255
197 223 255
197 222 255
197 222 255
197 222 255
197 222 255
197 222 255
197 222 255
197 222 255
197 222 255
197 222 255
197 222 255
197 222 255
197 222 255
197 222 255
197 222 255
197 222 255
197 222 255
197 222 255
197 222 255
197 222 255
197 222 255
197 222 255
197 222 255
197 222 255
197 222 255
197 222 255
197 222 255
197 222 255
197 222 255
197 222 255
197 222 255
197 222 255
197 222 255
196 222 255
196 222 255
196 222 255
196 222 255
196 222 255
196 222 255
196 222 255
196 222 255
196 222 255
196 222 255
196 222 255
196 222 255
196 222 255
196 222 255
196 222 255
196 222 255
196 222 255
196 222 255
196 222 255
196 222 255
196 222 255
197 222 255
197 222 255
197 222 255
197 222 255
197 222 255
197 222 255
197 222 255
197 222 255
197 222 255
197 222 255
197 222 255
197 222 255
197 222 255
197 222 255
197 222 255
197 222 255
197 222 255
197 222 255
197 222 255
197 222 255
197 222 255
197 222 255
197 222 255
197 222 255
197 222 255
197 222 255
197 222 255
197 222 255
197 222 255
197 222 255
197 222 255
197 223 255
198 223 255
198 223 255
198 223 255
198 223 255
198 223 255
198 223 255
198 223 255
198 223 255
198 223 255
198 223 255
198 223 255
198 223 255
198 223 255
198 223 255
198 223 255
198 223 255
198 223 255
198 223 255
198 223 255
199 223 255
199 223 255
199 223 255
199 223 255
199 223 255
199 223 255
199 223 255
199 223 255
199 223 255
199 223 255
199 223 255
199 223 255
199 223 255
199 224 255
199 224 255
199 224 255
200 224 255
200 224 255
200 224 255
200 224 255
200 224 255
200 224 255
200 224 255
200 224 255
200 224 255
200 224 255
200 224 255
200 224 255
200 224 255
200 224 255
200 224 255
201 224 255
201 224 255
201 224 255
201 224 255
201 224 255
201 224 255
201 224 255
201 224 255
201 224 255
201 224 255
201 225 255
201 225 255
201 225 255
201 225 255
202 225 255
202 225 255
202 225 255
202 225 255
202 225 255
202 225 255
202 225 255
202 225 255
202 225 255
202 225 255
202 225 255
202 225 255
202 225 255
202 225 255
202 225 255
203 225 255
203 225 255
203 225 255
203 225 255
203 225 255
203 225 255
203 225 255
203 225 255
203 225 255
203 226 255
203 226 255
203 226 255
203 226 255
203 226 255
203 226 255
204 226 255
204 226 255
204 226 255
204 226 255
204 226 255
204 226 255
204 226 255
204 226 255
204 226 255
204 226 255
204 226 255
204 226 255
204 226 255
204 226 255
204 226 255
204 226 255
204 226 255
205 226 255
205 226 255
205 226 255
205 226 255
205 226 255
205 226 255
205 227 255
205 227 255
205 227 255
205 227 255
205 227 255
205 227 255
205 227 255
205 227 255
205 227 255
205 227 255
205 227 255
206 227 255
206 227 255
206 227 255
206 227 255
206 227 255
206 227 255
206 227 255
206 227 255
206 227 255
206 227 255
206 227 255
206 227 255
206 227 255
206 227 255
206 227 255
206 227 255
206 227 255
206 227 255
206 227 255
207 227 255
207 227 255
207 227 255
207 227 255
207 227 255
207 228 255
207 228 255
207 228 255
207 228 255
207 228 255
207 228 255
207 228 255
207 228 255
207 228 255
207 228 255
207 228 255
207 228 255
207 228 255
207 227 255
207 227 255
207 227 255
207 227 255
207 227 255
206 227 255
206 227 255
206 227 255
206 227 255
206 227 255
206 227 255
206 227 255
206 227 255
206 227 255
206 227 255
206 227 255
206 227 255
206 227 255
206 227 255
206 227 255
206 227 255
206 227 255
206 227 255
206 227 255
205 227 255
205 227 255
205 227 255
205 227 255
205 227 255
205 227 255
205 227 255
205 227 255
205 227 255
205 227 255
205 226 255
205 226 255
205 226 255
205 226 255
205 226 255
205 226 255
205 226 255
204 226 255
204 226 255
204 226 255
204 226 255
204 226 255
204 226 255
204 226 255
204 226 255
204 226 255
204 226 255
204 226 255
204 226 255
204 226 255
204 226 255
204 226 255
204 226 255
203 226 255
203 226 255
203 226 255
203 226 255
203 226 255
203 226 255
203 226 255
203 225 255
203 225 255
203 225 255
203 225 255
203 225 255
203 225 255
203 225 255
203 225 255
203 225 255
202 225 255
202 225 255
202 225 255
202 225 255
202 225 255
202 225 255
202 225 255
202 225 255
202 225 255
202 225 255
202 225 255
202 225 255
202 225 255
202 225 255
201 225 255
201 225 255
201 225 255
201 225 255
201 225 255
201 224 255
201 224 255
201 224 255
201 224 255
201 224 255
201 224 255
201 224 255
201 224 255
201 224 255
201 224 255
200 224 255
200 224 255
200 224 255
200 224 255
200 224 255
200 224 255
200 224 255
200 224 255
200 224 255
200 224 255
200 224 255
200 224 255
200 224 255
200 224 255
200 224 255
199 224 255
199 224 255
199 224 255
199 223 255
199 223 255
199 223 255
199 223 255
199 223 255
199 223 255
199 223 255
199 223 255
199 223 255
199 223 255
199 223 255
199 223 255
199 223 255
198 223 255
198 223 255
198 223 255
198 223 255
198 223 255
198 223 255
198 223 255
198 223 255
198 223 255
198 223 255
198 223 255
198 223 255
198 223 255
198 223 255
198 223 255
198 223 255
198 223 255
198 223 255
198 223 255
198 223 255
197 223 255
197 222 255
197 222 255
197 222 255
197 222 255
197 222 255
197 222 255
197 222 255
197 222 255
197 222 255
197 222 255
197 222 255
197 222 255
197 222 255
197 222 255
197 222 255
197 222 255
197 222 255
197 222 255
197 222 255
197 222 255
197 222 255
197 222 255
197 222 255
197 222 255
197 222 255
197 222 255
197 222 255
197 222 255
197 222 255
197 222 255
197 222 255
197 222 255
197 222 255
197 222 255
197 222 255
197 222 255
197 222 255
197 222 255
197 222 255
197 222 255
197 222 255
197 222 255
197 222 255
197 222 255
197 222 255
197 222 255
197 222 255
197 222 255
197 222 255
197 222 255
197 222 255
197 222 255
197 222 255
197 222 255
197 222 255
197 222 255
197 222 255
197 222 255
197 222 255
197 222 255
197 222 255
197 222 255
197 222 255
197 222 255
197 222 255
197 222 255
197 222 255
197 222 255
197 222 255
197 222 255
197 222 255
197 222 255
197 222 255
197 222 255
197 222 255
197 222 255
197 223 255
198 223 255
198 223 255
198 223 255
198 223 255
198 223 255
198 223 255
198 223 255
198 223 255
198 223 255
198 223 255
198 223 255
198 223 255
198 223 255
198 223 255
198 223 255
198 223 255
198 223 255
198 223 255
198 223 255
198 223 255
199 223 255
199 223 255
199 223 255
199 223 255
199 223 255
199 223 255
199 223 255
199 223 255
199 223 255
199 223 255
199 223 255
199 223 255
199 223 255
199 224 255
199 224 255
199 224 255
200 224 255
200 224 255
200 224 255
200 224 255
200 224 255
200 224 255
200 224 255
200 224 255
200 224 255
200 224 255
200 224 255
200 224 255
200 224 255
200 224 255
200 224 255
201 224 255
201 224 255
201 224 255
201 224 255
201 224 255
201 224 255
201 224 255
201 224 255
201 224 255
201 224 255
201 225 255
201 225 255
201 225 255
201 225 255
201 225 255
202 225 255
202 225 255
202 225 255
202 225 255
202 225 255
202 225 255
202 225 255
202 225 255
202 225 255
202 225 255
202 225 255
202 225 255
202 225 255
202 225 255
202 225 255
203 225 255
203 225 255
203 225 255
203 225 255
203 225 255
203 225 255
203 225 255
203 225 255
203 226 255
203 226 255
203 226 255
203 226 255
203 226 255
203 226 255
203 226 255
204 226 255
204 226 255
204 226 255
204 226 255
204 226 255
204 226 255
204 226 255
204 226 255
204 226 255
204 226 255
204 226 255
204 226 255
204 226 255
204 226 255
204 226 255
204 226 255
205 226 255
205 226 255
205 226 255
205 226 255
205 226 255
205 226 255
205 226 255
205 227 255
205 227 255
205 227 255
205 227 255
205 227 255
205 227 255
205 227 255
205 227 255
205 227 255
205 227 255
206 227 255
206 227 255
206 227 255
206 227 255
206 227 255
206 227 255
206 227 255
206 227 255
206 227 255
206 227 255
206 227 255
206 227 255
206 227 255
206 227 255
206 227 255
206 227 255
206 227 255
206 227 255
206 227 255
207 227 255
207 227 255
207 227 255
207 227 255
207 227 255
207 228 255
207 228 255
207 228 255
207 228 255
207 228 255
207 228 255
207 228 255
207 228 255
207 228 255
207 228 255
207 228 255
207 228 255
207 228 255
207 228 255
207 228 255
207 228 255
207 228 255
207 228 255
207 228 255
207 227 255
207 227 255
207 227 255
207 227 255
207 227 255
206 227 255
206 227 255
206 227 255
206 227 255
206 227 255
206 227 255
206 227 255
206 227 255
206 227 255
206 227 255
206 227 255
206 227 255
206 227 255
206 227 255
206 227 255
206 227 255
206 227 255
206 227 255
205 227 255
205 227 255
205 227 255
205 227 255
205 227 255
205 227 255
205 227 255
205 227 255
205 227 255
205 227 255
205 227 255
205 226 255
205 226 255
205 226 255
205 226 255
205 226 255
205 226 255
204 226 255
204 226 255
204 226 255
204 226 255
204 226 255
204 226 255
204 226 255
204 226 255
204 226 255
204 226 255
204 226 255
204 226 255
204 226 255
204 226 255
204 226 255
204 226 255
204 226 255
203 226 255
203 226 255
203 226 255
203 226 255
203 226 255
203 226 255
203 225 255
203 225 255
203 225 255
203 225 255
203 225 255
203 225 255
203 225 255
203 225 255
203 225 255
202 225 255
202 225 255
202 225 255
202 225 255
202 225 255
202 225 255
202 225 255
202 225 255
202 225 255
202 225 255
202 225 255
202 225 255
202 225 255
202 225 255
202 225 255
201 225 255
201 225 255
201 225 255
201 225 255
201 224 255
201 224 255
201 224 255
201 224 255
201 224 255
201 224 255
201 224 255
201 224 255
201 224 255
201 224 255
201 224 255
200 224 255
200 224 255
200 224 255
200 224 255
200 224 255
200 224 255
200 224 255
200 224 255
200 224 255
200 224 255
200 224 255
200 224 255
200 224 255
200 224 255
200 224 255
199 224 255
199 224 255
199 223 255
199 223 255
199 223 255
199 223 255
199 223 255
199 223 255
199 223 255
199 223 255
199 223 255
199 223 255
199 223 255
199 223 255
199 223 255
199 223 255
199 223 255
198 223 255
198 223 255
198 223 255
198 223 255
198 223 255
198 223 255
198 223 255
198 223 255
198 223 255
198 223 255
198 223 255
198 223 255
198 223 255
198 223 255
198 223 255
198 223 255
198 223 255
198 223 255
198 223 255
198 223 255
197 223 255
197 222 255
197 222 255
197 222 255
197 222 255
197 222 255
197 222 255
197 222 255
197 222 255
197 222 255
197 222 255
197 222 255
197 222 255
197 222 255
197 222 255
197 222 255
197 222 255
197 222 255
197 222 255
197 222 255
197 222 255
197 222 255
197 222 255
197 222 255
197 222 255
197 222 255
197 222 255
197 222 255
197 222 255
197 222 255
197 222 255
197 222 255
197 222 255
197 222 255
197 222 255
197 222 255
197 222 255
197 222 255
197 222 255
197 222 255
197 222 255
197 222 255
197 222 255
197 222 255
197 222 255
197 222 255
197 222 255
197 222 255
197 222 255
197 222 255
197 222 255
197 222 255
197 222 255
197 222 255
197 222 255
197 222 255
197 222 255
197 222 255
197 222 255
197 222 255
197 222 255
197 222 255
197 222 255
197 222 255
197 222 255
197 222 255
197 222 255
197 222 255
197 222 255
197 223 255
198 223 255
198 223 255
198 223 255
198 223 255
198 223 255
198 223 255
198 223 255
198 223 255
198 223 255
198 223 255
198 223 255
198 223 255
198 223 255
198 223 255
198 223 255
198 223 255
198 223 255
198 223 255
198 223 255
198 223 255
198 223 255
199 223 255
199 223 255
199 223 255
199 223 255
199 223 255
199 223 255
199 223 255
199 223 255
199 223 255
199 223 255
199 223 255
199 223 255
199 223 255
199 223 255
199 224 255
199 224 255
200 224 255
200 224 255
200 224 255
200 224 255
200 224 255
200 224 255
200 224 255
200 224 255
200 224 255
200 224 255
200 224 255
200 224 255
200 224 255
200 224 255
200 224 255
201 224 255
201 224 255
201 224 255
201 224 255
201 224 255
201 224 255
201 224 255
201 224 255
201 224 255
201 224 255
201 224 255
201 225 255
201 225 255
201 225 255
201 225 255
202 225 255
202 225 255
202 225 255
202 225 255
202 225 255
202 225 255
202 225 255
202 225 255
202 225 255
202 225 255
202 225 255
202 225 255
202 225 255
202 225 255
202 225 255
203 225 255
203 225 255
203 225 255
203 225 255
203 225 255
203 225 255
203 225 255
203 225 255
203 225 255
203 226 255
203 226 255
203 226 255
203 226 255
203 226 255
203 226 255
204 226 255
204 226 255
204 226 255
204 226 255
204 226 255
204 226 255
204 226 255
204 226 255
204 226 255
204 226 255
204 226 255
204 226 255
204 226 255
204 226 255
204 226 255
204 226 255
204 226 255
205 226 255
205 226 255
205 226 255
205 226 255
205 226 255
205 226 255
205 227 255
205 227 255
205 227 255
205 227 255
205 227 255
205 227 255
205 227 255
205 227 255
205 227 255
205 227 255
205 227 255
206 227 255
206 227 255
206 227 255
206 227 255
206 227 255
206 227 255
206 227 255
206 227 255
206 227 255
206 227 255
206 227 255
206 227 255
206 227 255
206 227 255
206 227 255
206 227 255
206 227 255
206 227 255
207 227 255
207 227 255
207 227 255
207 227 255
207 227 255
207 228 255
207 228 255
207 228 255
207 228 255
207 228 255
207 228 255
207 228 255
207 228 255
207 228 255
207 228 255
207 228 255
207 228 255
207 228 255
207 228 255
207 228 255
207 228 255
207 228 255
207 228 255
207 228 255
207 228 255
207 228 255
207 228 255
207 228 255
207 228 255
207 228 255
207 227 255
207 227 255
207 227 255
207 227 255
207 227 255
206 227 255
206 227 255
206 227 255
206 227 255
206 227 255
206 227 255
206 227 255
206 227 255
206 227 255
206 227 255
206 227 255
206 227 255
206 227 255
206 227 255
206 227 255
206 227 255
206 227 255
206 227 255
205 227 255
205 227 255
205 227 255
205 227 255
205 227 255
205 227 255
205 227 255
205 227 255
205 227 255
205 227 255
205 226 255
205 226 255
205 226 255
205 226 255
205 226 255
205 226 255
205 226 255
204 226 255
204 226 255
204 226 255
204 226 255
204 226 255
204 226 255
204 226 255
204 226 255
204 226 255
204 226 255
204 226 255
204 226 255
204 226 255
204 226 255
204 226 255
204 226 255
203 226 255
203 226 255
203 226 255
203 226 255
203 226 255
203 226 255
203 226 255
203 225 255
203 225 255
203 225 255
203 225 255
203 225 255
203 225 255
203 225 255
203 225 255
202 225 255
202 225 255
202 225 255
202 225 255
202 225 255
202 225 255
202 225 255
202 225 255
202 225 255
202 225 255
202 225 255
202 225 255
202 225 255
202 225 255
202 225 255
201 225 255
201 225 255
201 225 255
201 225 255
201 225 255
201 224 255
201 224 255
201 224 255
201 224 255
201 224 255
201 224 255
201 224 255
201 224 255
201 224 255
201 224 255
200 224 255
200 224 255
200 224 255
200 224 255
200 224 255
200 224 255
200 224 255
200 224 255
200 224 255
200 224 255
200 224 255
200 224 255
200 224 255
200 224 255
200 224 255
200 224 255
199 224 255
199 224 255
199 223 255
199 223 255
199 223 255
199 223 255
199 223 255
199 223 255
199 223 255
199 223 255
199 223 255
199 223 255
199 223 255
199 223 255
199 223 255
199 223 255
198 223 255
198 223 255
198 223 255
198 223 255
198 223 255
198 223 255
198 223 255
198 223 255
198 223 255
198 223 255
198 223 255
198 223 255
198 223 255
198 223 255
198 223 255
198 223 255
198 223 255
198 223 255
198 223 255
198 223 255
198 223 255
198 223 255
198 223 255
197 223 255
197 222 255
197 222 255
197 222 255
197 222 255
197 222 255
197 222 255
197 222 255
197 222 255
197 222 255
197 222 255
197 222 255
197 222 255
197 222 255
197 222 255
197 222 255
197 222 255
197 222 255
197 222 255
197 222 255
197 222 255
197 222 255
197 222 255
197 222 255
197 222 255
197 222 255
197 222 255
197 222 255
197 222 255
197 222 255
197 222 255
197 222 255
197 222 255
197 222 255
197 222 255
197 222 255
197 222 255
197 222 255
197 222 255
197 222 255
197 222 255
197 222 255
197 222 255
197 222 255
197 222 255
197 222 255
197 222 255
197 222 255
197 222 255
197 222 255
197 222 255
197 222 255
197 222 255
197 222 255
197 222 255
197 222 255
197 222 255
197 222 255
197 222 255
197 223 255
198 223 255
198 223 255
198 223 255
198 223 255
198 223 255
198 223 255
198 223 255
198 223 255
198 223 255
198 223 255
198 223 255
198 223 255
198 223 255
198 223 255
198 223 255
198 223 255
198 223 255
198 223 255
198 223 255
198 223 255
198 223 255
198 223 255
199 223 255
199 223 255
199 223 255
199 223 255
199 223 255
199 223 255
199 223 255
199 223 255
199 223 255
199 223 255
199 223 255
199 223 255
199 223 255
199 223 255
199 223 255
199 224 255
199 224 255
200 224 255
200 224 255
200 224 255
200 224 255
200 224 255
200 224 255
200 224 255
200 224 255
200 224 255
200 224 255
200 224 255
200 224 255
200 224 255
200 224 255
200 224 255
200 224 255
201 224 255
201 224 255
201 224 255
201 224 255
201 224 255
201 224 255
201 224 255
201 224 255
201 224 255
201 224 255
201 225 255
201 225 255
201 225 255
201 225 255
201 225 255
202 225 255
202 225 255
202 225 255
202 225 255
202 225 255
202 225 255
202 225 255
202 225 255
202 225 255
202 225 255
202 225 255
202 225 255
202 225 255
202 225 255
202 225 255
203 225 255
203 225 255
203 225 255
203 225 255
203 225 255
203 225 255
203 225 255
203 225 255
203 226 255
203 226 255
203 226 255
203 226 255
203 226 255
203 226 255
203 226 255
204 226 255
204 226 255
204 226 255
204 226 255
204 226 255
204 226 255
204 226 255
204 226 255
204 226 255
204 226 255
204 226 255
204 226 255
204 226 255
204 226 255
204 226 255
204 226 255
205 226 255
205 226 255
205 226 255
205 226 255
205 226 255
205 226 255
205 226 255
205 227 255
205 227 255
205 227 255
205 227 255
205 227 255
205 227 255
205 227 255
205 227 255
205 227 255
205 227 255
206 227 255
206 227 255
206 227 255
206 227 255
206 227 255
206 227 255
206 227 255
206 227 255
206 227 255
206 227 255
206 227 255
206 227 255
206 227 255
206 227 255
206 227 255
206 227 255
206 227 255
206 227 255
206 227 255
207 227 255
207 227 255
207 227 255
207 227 255
207 228 255
207 228 255
207 228 255
207 228 255
207 228 255
207 228 255
207 228 255
207 228 255
207 228 255
207 228 255
207 228 255
207 228 255
207 228 255
207 228 255
208 228 255
207 228 255
207 228 255
207 228 255
207 228 255
207 228 255
207 228 255
207 228 255
207 228 255
207 228 255
207 228 255
207 228 255
207 228 255
207 228 255
207 228 255
207 228 255
207 228 255
207 227 255
207 227 255
207 227 255
207 227 255
206 227 255
206 227 255
206 227 255
206 227 255
206 227 255
206 227 255
206 227 255
206 227 255
206 227 255
206 227 255
206 227 255
206 227 255
206 227 255
206 227 255
206 227 255
206 227 255
206 227 255
206 227 255
206 227 255
205 227 255
205 227 255
205 227 255
205 227 255
205 227 255
205 227 255
205 227 255
205 227 255
205 227 255
205 227 255
205 226 255
205 226 255
205 226 255
205 226 255
205 226 255
205 226 255
205 226 255
204 226 255
204 226 255
204 226 255
204 226 255
204 226 255
204 226 255
204 226 255
204 226 255
204 226 255
204 226 255
204 226 255
204 226 255
204 226 255
204 226 255
204 226 255
204 226 255
203 226 255
203 226 255
203 226 255
203 226 255
203 226 255
203 226 255
203 226 255
203 225 255
203 225 255
203 225 255
203 225 255
203 225 255
203 225 255
203 225 255
203 225 255
202 225 255
202 225 255
202 225 255
202 225 255
202 225 255
202 225 255
202 225 255
202 225 255
202 225 255
202 225 255
202 225 255
202 225 255
202 225 255
202 225 255
202 225 255
201 225 255
201 225 255
201 225 255
201 225 255
201 224 255
201 224 255
201 224 255
201 224 255
201 224 255
201 224 255
201 224 255
201 224 255
201 224 255
201 224 255
201 224 255
200 224 255
200 224 255
200 224 255
200 224 255
200 224 255
200 224 255
200 224 255
200 224 255
200 224 255
200 224 255
200 224 255
200 224 255
200 224 255
200 224 255
200 224 255
200 224 255
199 224 255
199 224 255
199 223 255
199 223 255
199 223 255
199 223 255
199 223 255
199 223 255
199 223 255
199 223 255
199 223 255
199 223 255
199 223 255
199 223 255
199 223 255
199 223 255
199 223 255
198 223 255
198 223 255
198 223 255
198 223 255
198 223 255
198 223 255
198 223 255
198 223 255
198 223 255
198 223 255
198 223 255
198 223 255
198 223 255
198 223 255
198 223 255
198 223 255
198 223 255
198 223 255
198 223 255
198 223 255
198 223 255
198 223 255
198 223 255
198 223 255
197 223 255
197 223 255
197 222 255
197 222 255
197 222 255
197 222 255
197 222 255
197 222 255
197 222 255
197 222 255
197 222 255
197 222 255
197 222 255
197 222 255
197 222 255
197 222 255
197 222 255
197 222 255
197 222 255
197 222 255
197 222 255
197 222 255
197 222 255
197 222 255
197 222 255
197 222 255
197 222 255
197 222 255
197 222 255
197 222 255
197 222 255
197 222 255
197 222 255
197 222 255
197 222 255
197 222 255
197 222 255
197 222 255
197 222 255
197 222 255
197 222 255
197 222 255
197 222 255
197 222 255
197 222 255
197 222 255
197 222 255
197 222 255
197 223 255
197 223 255
198 223 255
198 223 255
198 223 255
198 223 255
198 223 255
198 223 255
198 223 255
198 223 255
198 223 255
198 223 255
198 223 255
198 223 255
198 223 255
198 223 255
198 223 255
198 223 255
198 223 255
198 223 255
198 223 255
198 223 255
198 223 255
198 223 255
198 223 255
198 223 255
199 223 255
199 223 255
199 223 255
199 223 255
199 223 255
199 223 255
199 223 255
199 223 255
199 223 255
199 223 255
199 223 255
199 223 255
199 223 255
199 223 255
199 223 255
199 224 255
199 224 255
200 224 255
200 224 255
200 224 255
200 224 255
200 224 255
200 224 255
200 224 255
200 224 255
200 224 255
200 224 255
200 224 255
200 224 255
200 224 255
200 224 255
200 224 255
200 224 255
201 224 255
201 224 255
201 224 255
201 224 255
201 224 255
201 224 255
201 224 255
201 224 255
201 224 255
201 224 255
201 224 255
201 225 255
201 225 255
201 225 255
201 225 255
202 225 255
202 225 255
202 225 255
202 225 255
202 225 255
202 225 255
202 225 255
202 225 255
202 225 255
202 225 255
202 225 255
202 225 255
202 225 255
202 225 255
202 225 255
203 225 255
203 225 255
203 225 255
203 225 255
203 225 255
203 225 255
203 225 255
203 225 255
203 225 255
203 226 255
203 226 255
203 226 255
203 226 255
203 226 255
203 226 255
204 226 255
204 226 255
204 226 255
204 226 255
204 226 255
204 226 255
204 226 255
204 226 255
204 226 255
204 226 255
204 226 255
204 226 255
204 226 255
204 226 255
204 226 255
204 226 255
205 226 255
205 226 255
205 226 255
205 226 255
205 226 255
205 226 255
205 226 255
205 227 255
205 227 255
205 227 255
205 227 255
205 227 255
205 227 255
205 227 255
205 227 255
205 227 255
205 227 255
206 227 255
206 227 255
206 227 255
206 227 255
206 227 255
206 227 255
206 227 255
206 227 255
206 227 255
206 227 255
206 227 255
206 227 255
206 227 255
206 227 255
206 227 255
206 227 255
206 227 255
206 227 255
206 227 255
207 227 255
207 227 255
207 227 255
207 227 255
207 228 255
207 228 255
207 228 255
207 228 255
207 228 255
207 228 255
207 228 255
207 228 255
207 228 255
207 228 255
207 228 255
207 228 255
207 228 255
207 228 255
207 228 255
207 228 255
208 228 255
208 228 255
208 228 255
208 228 255
208 228 255
207 228 255
207 228 255
207 228 255
207 228 255
207 228 255
207 228 255
207 228 255
207 228 255
207 228 255
207 228 255
207 228 255
207 228 255
207 228 255
207 228 255
207 228 255
207 228 255
207 227 255
207 227 255
207 227 255
207 227 255
206 227 255
206 227 255
206 227 255
206 227 255
206 227 255
206 227 255
206 227 255
206 227 255
206 227 255
206 227 255
206 227 255
206 227 255
206 227 255
206 227 255
206 227 255
206 227 255
206 227 255
206 227 255
205 227 255
205 227 255
205 227 255
205 227 255
205 227 255
205 227 255
205 227 255
205 227 255
205 227 255
205 227 255
205 227 255
205 226 255
205 226 255
205 226 255
205 226 255
205 226 255
205 226 255
204 226 255
204 226 255
204 226 255
204 226 255
204 226 255
204 226 255
204 226 255
204 226 255
204 226 255
204 226 255
204 226 255
204 226 255
204 226 255
204 226 255
204 226 255
204 226 255
203 226 255
203 226 255
203 226 255
203 226 255
203 226 255
203 226 255
203 226 255
203 225 255
203 225 255
203 225 255
203 225 255
203 225 255
203 225 255
203 225 255
203 225 255
203 225 255
202 225 255
202 225 255
202 225 255
202 225 255
202 225 255
202 225 255
202 225 255
202 225 255
202 225 255
202 225 255
202 225 255
202 225 255
202 225 255
202 225 255
201 225 255
201 225 255
201 225 255
201 225 255
201 225 255
201 224 255
201 224 255
201 224 255
201 224 255
201 224 255
201 224 255
201 224 255
201 224 255
201 224 255
201 224 255
201 224 255
200 224 255
200 224 255
200 224 255
200 224 255
200 224 255
200 224 255
200 224 255
200 224 255
200 224 255
200 224 255
200 224 255
200 224 255
200 224 255
200 224 255
200 224 255
199 224 255
199 224 255
199 224 255
199 223 255
199 223 255
199 223 255
199 223 255
199 223 255
199 223 255
199 223 255
199 223 255
199 223 255
199 223 255
199 223 255
199 223 255
199 223 255
199 223 255
199 223 255
199 223 255
198 223 255
198 223 255
198 223 255
198 223 255
198 223 255
198 223 255
198 223 255
198 223 255
198 223 255
198 223 255
198 223 255
198 223 255
198 223 255
198 223 255
198 223 255
198 223 255
198 223 255
198 223 255
198 223 255
198 223 255
198 223 255
198 223 255
198 223 255
198 223 255
198 223 255
198 223 255
198 223 255
197 223 255
197 223 255
197 222 255
197 222 255
197 222 255
197 222 255
197 222 255
197 222 255
197 222 255
197 222 255
197 222 255
197 222 255
197 222 255
197 222 255
197 222 255
197 222 255
197 222 255
197 222 255
197 222 255
197 222 255
197 222 255
197 222 255
197 222 255
197 222 255
197 222 255
197 222 255
197 222 255
197 222 255
197 222 255
197 222 255
197 222 255
197 222 255
197 222 255
197 222 255
197 223 255
198 223 255
198 223 255
198 223 255
198 223 255
198 223 255
198 223 255
198 223 255
198 223 255
198 223 255
198 223 255
198 223 255
198 223 255
198 223 255
198 223 255
198 223 255
198 223 255
198 223 255
198 223 255
198 223 255
198 223 255
198 223 255
198 223 255
198 223 255
198 223 255
198 223 255
198 223 255
198 223 255
198 223 255
198 223 255
199 223 255
199 223 255
199 223 255
199 223 255
199 223 255
199 223 255
199 223 255
199 223 255
199 223 255
199 223 255
199 223 255
199 223 255
199 223 255
199 223 255
199 223 255
199 224 255
199 224 255
200 224 255
200 224 255
200 224 255
200 224 255
200 224 255
200 224 255
200 224 255
200 224 255
200 224 255
200 224 255
200 224 255
200 224 255
200 224 255
200 224 255
200 224 255
200 224 255
201 224 255
201 224 255
201 224 255
201 224 255
201 224 255
201 224 255
201 224 255
201 224 255
201 224 255
201 224 255
201 224 255
201 225 255
201 225 255
201 225 255
201 225 255
202 225 255
202 225 255
202 225 255
202 225 255
202 225 255
202 225 255
202 225 255
202 225 255
202 225 255
202 225 255
202 225 255
202 225 255
202 225 255
202 225 255
202 225 255
202 225 255
203 225 255
203 225 255
203 225 255
203 225 255
203 225 255
203 225 255
203 225 255
203 225 255
203 226 255
203 226 255
203 226 255
203 226 255
203 226 255
203 226 255
203 226 255
204 226 255
204 226 255
204 226 255
204 226 255
204 226 255
204 226 255
204 226 255
204 226 255
204 226 255
204 226 255
204 226 255
204 226 255
204 226 255
204 226 255
204 226 255
204 226 255
205 226 255
205 226 255
205 226 255
205 226 255
205 226 255
205 226 255
205 227 255
205 227 255
205 227 255
205 227 255
205 227 255
205 227 255
205 227 255
205 227 255
205 227 255
205 227 255
205 227 255
206 227 255
206 227 255
206 227 255
206 227 255
206 227 255
206 227 255
206 227 255
206 227 255
206 227 255
206 227 255
206 227 255
206 227 255
206 227 255
206 227 255
206 227 255
206 227 255
206 227 255
206 227 255
207 227 255
207 227 255
207 227 255
207 227 255
207 227 255
207 228 255
207 228 255
207 228 255
207 228 255
207 228 255
207 228 255
207 228 255
207 228 255
207 228 255
207 228 255
207 228 255
207 228 255
207 228 255
207 228 255
207 228 255
208 228 255
208 228 255
208 228 255
208 228 255
208 228 255
208 228 255
208 228 255
208 228 255
208 228 255
208 228 255
208 228 255
207 228 255
207 228 255
207 228 255
207 228 255
207 228 255
207 228 255
207 228 255
207 228 255
207 228 255
207 228 255
207 228 255
207 228 255
207 228 255
207 228 255
207 228 255
207 227 255
207 227 255
207 227 255
207 227 255
207 227 255
206 227 255
206 227 255
206 227 255
206 227 255
206 227 255
206 227 255
206 227 255
206 227 255
206 227 255
206 227 255
206 227 255
206 227 255
206 227 255
206 227 255
206 227 255
206 227 255
206 227 255
206 227 255
205 227 255
205 227 255
205 227 255
205 227 255
205 227 255
205 227 255
205 227 255
205 227 255
205 227 255
205 227 255
205 226 255
205 226 255
205 226 255
205 226 255
205 226 255
205 226 255
205 226 255
204 226 255
204 226 255
204 226 255
204 226 255
204 226 255
204 226 255
204 226 255
204 226 255
204 226 255
204 226 255
204 226 255
204 226 255
204 226 255
204 226 255
204 226 255
204 226 255
203 226 255
203 226 255
203 226 255
203 226 255
203 226 255
203 226 255
203 226 255
203 225 255
203 225 255
203 225 255
203 225 255
203 225 255
203 225 255
203 225 255
203 225 255
202 225 255
202 225 255
202 225 255
202 225 255
202 225 255
202 225 255
202 225 255
202 225 255
202 225 255
202 225 255
202 225 255
202 225 255
202 225 255
202 225 255
202 225 255
201 225 255
201 225 255
201 225 255
201 225 255
201 225 255
201 224 255
201 224 255
201 224 255
201 224 255
201 224 255
201 224 255
201 224 255
201 224 255
201 224 255
201 224 255
200 224 255
200 224 255
200 224 255
200 224 255
200 224 255
200 224 255
200 224 255
200 224 255
200 224 255
200 224 255
200 224 255
200 224 255
200 224 255
200 224 255
200 224 255
200 224 255
200 224 255
199 224 255
199 224 255
199 223 255
199 223 255
199 223 255
199 223 255
199 223 255
199 223 255
199 223 255
199 223 255
199 223 255
199 223 255
199 223 255
199 223 255
199 223 255
199 223 255
199 223 255
199 223 255
199 223 255
198 223 255
198 223 255
198 223 255
198 223 255
198 223 255
198 223 255
198 223 255
198 223 255
198 223 255
198 223 255
198 223 255
198 223 255
198 223 255
198 223 255
198 223 255
198 223 255
198 223 255
198 223 255
198 223 255
198 223 255
198 223 255
198 223 255
198 223 255
198 223 255
198 223 255
198 223 255
198 223 255
198 223 255
198 223 255
198 223 255
198 223 255
198 223 255
198 223 255
198 223 255
198 223 255
198 223 255
198 223 255
197 223 255
197 223 255
198 223 255
197 223 255
197 223 255
198 223 255
197 223 255
197 223 255
198 223 255
198 223 255
198 223 255
198 223 255
198 223 255
198 223 255
198 223 255
198 223 255
198 223 255
198 223 255
198 223 255
198 223 255
198 223 255
198 223 255
198 223 255
198 223 255
198 223 255
198 223 255
198 223 255
198 223 255
198 223 255
198 223 255
198 223 255
198 223 255
198 223 255
198 223 255
198 223 255
198 223 255
198 223 255
198 223 255
198 223 255
198 223 255
198 223 255
198 223 255
198 223 255
198 223 255
198 223 255
199 223 255
199 223 255
199 223 255
199 223 255
199 223 255
199 223 255
199 223 255
199 223 255
199 223 255
199 223 255
199 223 255
199 223 255
199 223 255
199 223 255
199 223 255
199 223 255
199 223 255
199 224 255
199 224 255
200 224 255
200 224 255
200 224 255
200 224 255
200 224 255
200 224 255
200 224 255
200 224 255
200 224 255
200 224 255
200 224 255
200 224 255
200 224 255
200 224 255
200 224 255
200 224 255
200 224 255
201 224 255
201 224 255
201 224 255
201 224 255
201 224 255
201 224 255
201 224 255
201 224 255
201 224 255
201 224 255
201 225 255
201 225 255
201 225 255
201 225 255
201 225 255
202 225 255
202 225 255
202 225 255
202 225 255
202 225 255
202 225 255
202 225 255
202 225 255
202 225 255
202 225 255
202 225 255
202 225 255
202 225 255
202 225 255
202 225 255
203 225 255
203 225 255
203 225 255
203 225 255
203 225 255
203 225 255
203 225 255
203 225 255
203 226 255
203 226 255
203 226 255
203 226 255
203 226 255
203 226 255
203 226 255
204 226 255
204 226 255
204 226 255
204 226 255
204 226 255
204 226 255
204 226 255
204 226 255
204 226 255
204 226 255
204 226 255
204 226 255
204 226 255
204 226 255
204 226 255
204 226 255
205 226 255
205 226 255
205 226 255
205 226 255
205 226 255
205 226 255
205 226 255
205 227 255
205 227 255
205 227 255
205 227 255
205 227 255
205 227 255
205 227 255
205 227 255
205 227 255
205 227 255
206 227 255
206 227 255
206 227 255
206 227 255
206 227 255
206 227 255
206 227 255
206 227 255
206 227 255
206 227 255
206 227 255
206 227 255
206 227 255
206 227 255
206 227 255
206 227 255
206 227 255
206 227 255
207 227 255
207 227 255
207 227 255
207 227 255
207 227 255
207 228 255
207 228 255
207 228 255
207 228 255
207 228 255
207 228 255
207 228 255
207 228 255
207 228 255
207 228 255
207 228 255
207 228 255
207 228 255
207 228 255
207 228 255
208 228 255
208 228 255
208 228 255
208 228 255
208 228 255
208 228 255
208 228 255
208 228 255
208 228 255
208 228 255
208 228 255
208 228 255
208 228 255
208 228 255
208 228 255
208 228 255
208 228 255
207 228 255
207 228 255
207 228 255
207 228 255
207 228 255
207 228 255
207 228 255
207 228 255
207 228 255
207 228 255
207 228 255
207 228 255
207 228 255
207 228 255
207 228 255
207 227 255
207 227 255
207 227 255
207 227 255
207 227 255
206 227 255
206 227 255
206 227 255
206 227 255
206 227 255
206 227 255
206 227 255
206 227 255
206 227 255
206 227 255
206 227 255
206 227 255
206 227 255
206 227 255
206 227 255
206 227 255
206 227 255
206 227 255
205 227 255
205 227 255
205 227 255
205 227 255
205 227 255
205 227 255
205 227 255
205 227 255
205 227 255
205 227 255
205 226 255
205 226 255
205 226 255
205 226 255
205 226 255
205 226 255
205 226 255
204 226 255
204 226 255
204 226 255
204 226 255
204 226 255
204 226 255
204 226 255
204 226 255
204 226 255
204 226 255
204 226 255
204 226 255
204 226 255
204 226 255
204 226 255
204 226 255
203 226 255
203 226 255
203 226 255
203 226 255
203 226 255
203 226 255
203 225 255
203 225 255
203 225 255
203 225 255
203 225 255
203 225 255
203 225 255
203 225 255
203 225 255
202 225 255
202 225 255
202 225 255
202 225 255
202 225 255
202 225 255
202 225 255
202 225 255
202 225 255
202 225 255
202 225 255
202 225 255
202 225 255
202 225 255
202 225 255
201 225 255
201 225 255
201 225 255
201 225 255
201 224 255
201 224 255
201 224 255
201 224 255
201 224 255
201 224 255
201 224 255
201 224 255
201 224 255
201 224 255
201 224 255
200 224 255
200 224 255
200 224 255
200 224 255
200 224 255
200 224 255
200 224 255
200 224 255
200 224 255
200 224 255
200 224 255
200 224 255
200 224 255
200 224 255
200 224 255
200 224 255
200 224 255
199 224 255
199 224 255
199 224 255
199 223 255
199 223 255
199 223 255
199 223 255
199 223 255
199 223 255
199 223 255
199 223 255
199 223 255
199 223 255
199 223 255
199 223 255
199 223 255
199 223 255
199 223 255
199 223 255
199 223 255
198 223 255
198 223 255
198 223 255
198 223 255
198 223 255
198 223 255
198 223 255
198 223 255
198 223 255
198 223 255
198 223 255
198 223 255
198 223 255
198 223 255
198 223 255
198 223 255
198 223 255
198 223 255
198 223 255
198 223 255
198 223 255
198 223 255
198 223 255
198 223 255
198 223 255
198 223 255
198 223 255
198 223 255
198 223 255
198 223 255
198 223 255
198 223 255
198 223 255
198 223 255
198 223 255
198 223 255
198 223 255
198 223 255
198 223 255
198 223 255
198 223 255
198 223 255
198 223 255
198 223 255
198 223 255
198 223 255
198 223 255
198 223 255
198 223 255
198 223 255
198 223 255
198 223 255
198 223 255
198 223 255
198 223 255
198 223 255
198 223 255
198 223 255
198 223 255
198 223 255
198 223 255
198 223 255
198 223 255
198 223 255
198 223 255
198 223 255
198 223 255
198 223 255
198 223 255
198 223 255
198 223 255
198 223 255
198 223 255
198 223 255
199 223 255
199 223 255
199 223 255
199 223 255
199 223 255
199 223 255
199 223 255
199 223 255
199 223 255
199 223 255
199 223 255
199 223 255
199 223 255
199 223 255
199 223 255
199 223 255
199 223 255
199 224 255
199 224 255
199 224 255
200 224 255
200 224 255
200 224 255
200 224 255
200 224 255
200 224 255
200 224 255
200 224 255
200 224 255
200 224 255
200 224 255
200 224 255
200 224 255
200 224 255
200 224 255
200 224 255
200 224 255
201 224 255
201 224 255
201 224 255
201 224 255
201 224 255
201 224 255
201 224 255
201 224 255
201 224 255
201 224 255
201 224 255
201 225 255
201 225 255
201 225 255
201 225 255
202 225 255
202 225 255
202 225 255
202 225 255
202 225 255
202 225 255
202 225 255
202 225 255
202 225 255
202 225 255
202 225 255
202 225 255
202 225 255
202 225 255
202 225 255
203 225 255
203 225 255
203 225 255
203 225 255
203 225 255
203 225 255
203 225 255
203 225 255
203 225 255
203 226 255
203 226 255
203 226 255
203 226 255
203 226 255
203 226 255
203 226 255
204 226 255
204 226 255
204 226 255
204 226 255
204 226 255
204 226 255
204 226 255
204 226 255
204 226 255
204 226 255
204 226 255
204 226 255
204 226 255
204 226 255
204 226 255
205 226 255
205 226 255
205 226 255
205 226 255
205 226 255
205 226 255
205 226 255
205 227 255
205 227 255
205 227 255
205 227 255
205 227 255
205 227 255
205 227 255
205 227 255
205 227 255
205 227 255
206 227 255
206 227 255
206 227 255
206 227 255
206 227 255
206 227 255
206 227 255
206 227 255
206 227 255
206 227 255
206 227 255
206 227 255
206 227 255
206 227 255
206 227 255
206 227 255
206 227 255
206 227 255
207 227 255
207 227 255
207 227 255
207 227 255
207 227 255
207 228 255
207 228 255
207 228 255
207 228 255
207 228 255
207 228 255
207 228 255
207 228 255
207 228 255
207 228 255
207 228 255
207 228 255
207 228 255
207 228 255
207 228 255
208 228 255
208 228 255
208 228 255
208 228 255
208 228 255
208 228 255
208 228 255
208 228 255
208 228 255
208 228 255
208 228 255
208 228 255
208 228 255
208 228 255
208 228 255
208 228 255
208 228 255
208 228 255
208 228 255
208 228 255
208 228 255
208 228 255
208 228 255
207 228 255
207 228 255
207 228 255
207 228 255
207 228 255
207 228 255
207 228 255
207 228 255
207 228 255
207 228 255
207 228 255
207 228 255
207 228 255
207 228 255
207 228 255
207 227 255
207 227 255
207 227 255
207 227 255
207 227 255
206 227 255
206 227 255
206 227 255
206 227 255
206 227 255
206 227 255
206 227 255
206 227 255
206 227 255
206 227 255
206 227 255
206 227 255
206 227 255
206 227 255
206 227 255
206 227 255
206 227 255
206 227 255
205 227 255
205 227 255
205 227 255
205 227 255
205 227 255
205 227 255
205 227 255
205 227 255
205 227 255
205 227 255
205 226 255
205 226 255
205 226 255
205 226 255
205 226 255
205 226 255
204 226 255
204 226 255
204 226 255
204 226 255
204 226 255
204 226 255
204 226 255
204 226 255
204 226 255
204 226 255
204 226 255
204 226 255
204 226 255
204 226 255
204 226 255
204 226 255
203 226 255
203 226 255
203 226 255
203 226 255
203 226 255
203 226 255
203 226 255
203 225 255
203 225 255
203 225 255
203 225 255
203 225 255
203 225 255
203 225 255
203 225 255
202 225 255
202 225 255
202 225 255
202 225 255
202 225 255
202 225 255
202 225 255
202 225 255
202 225 255
202 225 255
202 225 255
202 225 255
202 225 255
202 225 255
202 225 255
201 225 255
201 225 255
201 225 255
201 225 255
201 225 255
201 224 255
201 224 255
201 224 255
201 224 255
201 224 255
201 224 255
201 224 255
201 224 255
201 224 255
201 224 255
201 224 255
200 224 255
200 224 255
200 224 255
200 224 255
200 224 255
200 224 255
200 224 255
200 224 255
200 224 255
200 224 255
200 224 255
200 224 255
200 224 255
200 224 255
200 224 255
200 224 255
200 224 255
199 224 255
199 224 255
199 224 255
199 223 255
199 223 255
199 223 255
199 223 255
199 223 255
199 223 255
199 223 255
199 223 255
199 223 255
199 223 255
199 223 255
199 223 255
199 223 255
199 223 255
199 223 255
199 223 255
199 223 255
199 223 255
199 223 255
198 223 255
198 223 255
198 223 255
198 223 255
198 223 255
198 223 255
198 223 255
198 223 255
198 223 255
198 223 255
198 223 255
198 223 255
198 223 255
198 223 255
198 223 255
198 223 255
198 223 255
198 223 255
198 223 255
198 223 255
198 223 255
198 223 255
198 223 255
198 223 255
198 223 255
198 223 255
198 223 255
198 223 255
198 223 255
198 223 255
198 223 255
198 223 255
198 223 255
198 223 255
198 223 255
198 223 255
198 223 255
198 223 255
198 223 255
198 223 255
198 223 255
198 223 255
198 223 255
198 223 255
198 223 255
198 223 255
198 223 255
198 223 255
198 223 255
198 223 255
198 223 255
198 223 255
198 223 255
198 223 255
198 223 255
198 223 255
198 223 255
198 223 255
198 223 255
198 223 255
198 223 255
198 223 255
198 223 255
198 223 255
198 223 255
199 223 255
199 223 255
199 223 255
199 223 255
199 223 255
199 223 255
199 223 255
199 223 255
199 223 255
199 223 255
199 223 255
199 223 255
199 223 255
199 223 255
199 223 255
199 223 255
199 223 255
199 223 255
199 224 255
199 224 255
199 224 255
200 224 255
200 224 255
200 224 255
200 224 255
200 224 255
200 224 255
200 224 255
200 224 255
200 224 255
200 224 255
200 224 255
200 224 255
200 224 255
200 224 255
200 224 255
200 224 255
200 224 255
201 224 255
201 224 255
201 224 255
201 224 255
201 224 255
201 224 255
201 224 255
201 224 255
201 224 255
201 224 255
201 224 255
201 225 255
201 225 255
201 225 255
201 225 255
201 225 255
202 225 255
202 225 255
202 225 255
202 225 255
202 225 255
202 225 255
202 225 255
202 225 255
202 225 255
202 225 255
202 225 255
202 225 255
202 225 255
202 225 255
202 225 255
203 225 255
203 225 255
203 225 255
203 225 255
203 225 255
203 225 255
203 225 255
203 225 255
203 226 255
203 226 255
203 226 255
203 226 255
203 226 255
203 226 255
203 226 255
204 226 255
204 226 255
204 226 255
204 226 255
204 226 255
204 226 255
204 226 255
204 226 255
204 226 255
204 226 255
204 226 255
204 226 255
204 226 255
204 226 255
204 226 255
205 226 255
205 226 255
205 226 255
205 226 255
205 226 255
205 226 255
205 226 255
205 227 255
205 227 255
205 227 255
205 227 255
205 227 255
205 227 255
205 227 255
205 227 255
205 227 255
205 227 255
206 227 255
206 227 255
206 227 255
206 227 255
206 227 255
206 227 255
206 227 255
206 227 255
206 227 255
206 227 255
206 227 255
206 227 255
206 227 255
206 227 255
206 227 255
206 227 255
206 227 255
206 227 255
207 227 255
207 227 255
207 227 255
207 227 255
207 227 255
207 228 255
207 228 255
207 228 255
207 228 255
207 228 255
207 228 255
207 228 255
207 228 255
207 228 255
207 228 255
207 228 255
207 228 255
207 228 255
207 228 255
207 228 255
208 228 255
208 228 255
208 228 255
208 228 255
208 228 255
208 228 255
208 228 255
208 228 255
208 228 255
208 228 255
208 228 255
208 228 255
208 228 255
208 228 255
208 228 255
208 228 255
208 228 255
208 228 255
208 228 255
208 228 255
208 228 255
208 228 255
208 228 255
208 228 255
208 228 255
208 228 255
208 228 255
208 228 255
208 228 255
207 228 255
207 228 255
207 228 255
207 228 255
207 228 255
207 228 255
207 228 255
207 228 255
207 228 255
207 228 255
207 228 255
207 228 255
207 228 255
207 228 255
207 228 255
207 227 255
207 227 255
207 227 255
207 227 255
207 227 255
206 227 255
206 227 255
206 227 255
206 227 255
206 227 255
206 227 255
206 227 255
206 227 255
206 227 255
206 227 255
206 227 255
206 227 255
206 227 255
206 227 255
206 227 255
206 227 255
206 227 255
206 227 255
205 227 255
205 227 255
205 227 255
205 227 255
205 227 255
205 227 255
205 227 255
205 227 255
205 227 255
205 227 255
205 226 255
205 226 255
205 226 255
205 226 255
205 226 255
205 226 255
204 226 255
204 226 255
204 226 255
204 226 255
204 226 255
204 226 255
204 226 255
204 226 255
204 226 255
204 226 255
204 226 255
204 226 255
204 226 255
204 226 255
204 226 255
204 226 255
203 226 255
203 226 255
203 226 255
203 226 255
203 226 255
203 226 255
203 226 255
203 225 255
203 225 255
203 225 255
203 225 255
203 225 255
203 225 255
203 225 255
203 225 255
202 225 255
202 225 255
202 225 255
202 225 255
202 225 255
202 225 255
202 225 255
202 225 255
202 225 255
202 225 255
202 225 255
202 225 255
202 225 255
202 225 255
202 225 255
201 225 255
201 225 255
201 225 255
201 225 255
201 225 255
201 224 255
201 224 255
201 224 255
201 224 255
201 224 255
201 224 255
201 224 255
201 224 255
201 224 255
201 224 255
201 224 255
200 224 255
200 224 255
200 224 255
200 224 255
200 224 255
200 224 255
200 224 255
200 224 255
200 224 255
200 224 255
200 224 255
200 224 255
200 224 255
200 224 255
200 224 255
200 224 255
200 224 255
200 224 255
199 224 255
199 224 255
199 224 255
199 223 255
199 223 255
199 223 255
199 223 255
199 223 255
199 223 255
199 223 255
199 223 255
199 223 255
199 223 255
199 223 255
199 223 255
199 223 255
199 223 255
199 223 255
199 223 255
199 223 255
199 223 255
199 223 255
199 223 255
198 223 255
198 223 255
198 223 255
198 223 255
198 223 255
198 223 255
198 223 255
198 223 255
198 223 255
198 223 255
198 223 255
198 223 255
198 223 255
198 223 255
198 223 255
198 223 255
198 223 255
198 223 255
198 223 255
198 223 255
198 223 255
198 223 255
198 223 255
198 223 255
198 223 255
198 223 255
198 223 255
198 223 255
198 223 255
198 223 255
198 223 255
198 223 255
198 223 255
198 223 255
198 223 255
198 223 255
198 223 255
198 223 255
198 223 255
198 223 255
198 223 255
198 223 255
198 223 255
198 223 255
198 223 255
198 223 255
198 223 255
198 223 255
198 223 255
198 223 255
198 223 255
198 223 255
198 223 255
198 223 255
199 223 255
199 223 255
199 223 255
199 223 255
199 223 255
199 223 255
199 223 255
199 223 255
199 223 255
199 223 255
199 223 255
199 223 255
199 223 255
199 223 255
199 223 255
199 223 255
199 223 255
199 223 255
199 223 255
199 223 255
199 224 255
199 224 255
199 224 255
200 224 255
200 224 255
200 224 255
200 224 255
200 224 255
200 224 255
200 224 255
200 224 255
200 224 255
200 224 255
200 224 255
200 224 255
200 224 255
200 224 255
200 224 255
200 224 255
200 224 255
200 224 255
201 224 255
201 224 255
201 224 255
201 224 255
201 224 255
201 224 255
201 224 255
201 224 255
201 224 255
201 224 255
201 224 255
201 225 255
201 225 255
201 225 255
201 225 255
201 225 255
202 225 255
202 225 255
202 225 255
202 225 255
202 225 255
202 225 255
202 225 255
202 225 255
202 225 255
202 225 255
202 225 255
202 225 255
202 225 255
202 225 255
202 225 255
203 225 255
203 225 255
203 225 255
203 225 255
203 225 255
203 225 255
203 225 255
203 225 255
203 226 255
203 226 255
203 226 255
203 226 255
203 226 255
203 226 255
203 226 255
204 226 255
204 226 255
204 226 255
204 226 255
204 226 255
204 226 255
204 226 255
204 226 255
204 226 255
204 226 255
204 226 255
204 226 255
204 226 255
204 226 255
204 226 255
204 226 255
205 226 255
205 226 255
205 226 255
205 226 255
205 226 255
205 226 255
205 226 255
205 227 255
205 227 255
205 227 255
205 227 255
205 227 255
205 227 255
205 227 255
205 227 255
205 227 255
206 227 255
206 227 255
206 227 255
206 227 255
206 227 255
206 227 255
206 227 255
206 227 255
206 227 255
206 227 255
206 227 255
206 227 255
206 227 255
206 227 255
206 227 255
206 227 255
206 227 255
206 227 255
207 227 255
207 227 255
207 227 255
207 227 255
207 227 255
207 228 255
207 228 255
207 228 255
207 228 255
207 228 255
207 228 255
207 228 255
207 228 255
207 228 255
207 228 255
207 228 255
207 228 255
207 228 255
207 228 255
207 228 255
208 228 255
208 228 255
208 228 255
208 228 255
208 228 255
208 228 255
208 228 255
208 228 255
208 228 255
208 228 255
208 228 255
208 228 255
208 228 255
208 228 255
208 228 255
208 228 255
208 228 255
208 228 255
208 228 255
208 228 255
208 228 255
208 228 255
208 228 255
208 228 255
208 228 255
208 228 255
208 228 255
208 228 255
208 228 255
208 228 255
208 228 255
208 228 255
208 228 255
208 228 255
208 228 255
207 228 255
207 228 255
207 228 255
207 228 255
207 228 255
207 228 255
207 228 255
207 228 255
207 228 255
207 228 255
207 228 255
207 228 255
207 228 255
207 228 255
207 228 255
207 227 255
207 227 255
207 227 255
207 227 255
207 227 255
206 227 255
206 227 255
206 227 255
206 227 255
206 227 255
206 227 255
206 227 255
206 227 255
206 227 255
206 227 255
206 227 255
206 227 255
206 227 255
206 227 255
206 227 255
206 227 255
206 227 255
205 227 255
205 227 255
205 227 255
205 227 255
205 227 255
205 227 255
205 227 255
205 227 255
205 227 255
205 227 255
205 226 255
205 226 255
205 226 255
205 226 255
205 226 255
205 226 255
205 226 255
204 226 255
204 226 255
204 226 255
204 226 255
204 226 255
204 226 255
204 226 255
204 226 255
204 226 255
204 226 255
204 226 255
204 226 255
204 226 255
204 226 255
204 226 255
204 226 255
203 226 255
203 226 255
203 226 255
203 226 255
203 226 255
203 226 255
203 225 255
203 225 255
203 225 255
203 225 255
203 225 255
203 225 255
203 225 255
203 225 255
203 225 255
202 225 255
202 225 255
202 225 255
202 225 255
202 225 255
202 225 255
202 225 255
202 225 255
202 225 255
202 225 255
202 225 255
202 225 255
202 225 255
202 225 255
202 225 255
201 225 255
201 225 255
201 225 255
201 225 255
201 225 255
201 224 255
201 224 255
201 224 255
201 224 255
201 224 255
201 224 255
201 224 255
201 224 255
201 224 255
201 224 255
201 224 255
200 224 255
200 224 255
200 224 255
200 224 255
200 224 255
200 224 255
200 224 255
200 224 255
200 224 255
200 224 255
200 224 255
200 224 255
200 224 255
200 224 255
200 224 255
200 224 255
200 224 255
200 224 255
199 224 255
199 224 255
199 224 255
199 224 255
199 223 255
199 223 255
199 223 255
199 223 255
199 223 255
199 223 255
199 223 255
199 223 255
199 223 255
199 223 255
199 223 255
199 223 255
199 223 255
199 223 255
199 223 255
199 223 255
199 223 255
199 223 255
199 223 255
199 223 255
199 223 255
199 223 255
199 223 255
198 223 255
198 223 255
198 223 255
198 223 255
198 223 255
198 223 255
198 223 255
198 223 255
198 223 255
198 223 255
198 223 255
198 223 255
198 223 255
198 223 255
198 223 255
198 223 255
198 223 255
198 223 255
198 223 255
198 223 255
198 223 255
198 223 255
198 223 255
198 223 255
198 223 255
198 223 255
198 223 255
198 223 255
198 223 255
198 223 255
198 223 255
198 223 255
198 223 255
198 223 255
198 223 255
198 223 255
198 223 255
198 223 255
198 223 255
198 223 255
198 223 255
199 223 255
199 223 255
199 223 255
199 223 255
199 223 255
199 223 255
199 223 255
199 223 255
199 223 255
199 223 255
199 223 255
199 223 255
199 223 255
199 223 255
199 223 255
199 223 255
199 223 255
199 223 255
199 223 255
199 223 255
199 223 255
199 223 255
199 224 255
199 224 255
199 224 255
199 224 255
200 224 255
200 224 255
200 224 255
200 224 255
200 224 255
200 224 255
200 224 255
200 224 255
200 224 255
200 224 255
200 224 255
200 224 255
200 224 255
200 224 255
200 224 255
200 224 255
200 224 255
200 224 255
201 224 255
201 224 255
201 224 255
201 224 255
201 224 255
201 224 255
201 224 255
201 224 255
201 224 255
201 224 255
201 224 255
201 225 255
201 225 255
201 225 255
201 225 255
201 225 255
202 225 255
202 225 255
202 225 255
202 225 255
202 225 255
202 225 255
202 225 255
202 225 255
202 225 255
202 225 255
202 225 255
202 225 255
202 225 255
202 225 255
202 225 255
203 225 255
203 225 255
203 225 255
203 225 255
203 225 255
203 225 255
203 225 255
203 225 255
203 226 255
203 226 255
203 226 255
203 226 255
203 226 255
203 226 255
203 226 255
204 226 255
204 226 255
204 226 255
204 226 255
204 226 255
204 226 255
204 226 255
204 226 255
204 226 255
204 226 255
204 226 255
204 226 255
204 226 255
204 226 255
204 226 255
204 226 255
205 226 255
205 226 255
205 226 255
205 226 255
205 226 255
205 226 255
205 226 255
205 227 255
205 227 255
205 227 255
205 227 255
205 227 255
205 227 255
205 227 255
205 227 255
205 227 255
205 227 255
206 227 255
206 227 255
206 227 255
206 227 255
206 227 255
206 227 255
206 227 255
206 227 255
206 227 255
206 227 255
206 227 255
206 227 255
206 227 255
206 227 255
206 227 255
206 227 255
206 227 255
207 227 255
207 227 255
207 227 255
207 227 255
207 227 255
207 228 255
207 228 255
207 228 255
207 228 255
207 228 255
207 228 255
207 228 255
207 228 255
207 228 255
207 228 255
207 228 255
207 228 255
207 228 255
207 228 255
207 228 255
208 228 255
208 228 255
208 228 255
208 228 255
208 228 255
208 228 255
208 228 255
208 228 255
208 228 255
208 228 255
208 228 255
208 228 255
208 228 255
208 228 255
208 228 255
208 228 255
208 228 255
208 228 255
208 228 255
209 228 255
208 228 255
208 228 255
208 228 255
208 228 255
208 228 255
208 228 255
208 228 255
208 228 255
208 228 255
208 228 255
208 228 255
208 228 255
208 228 255
208 228 255
208 228 255
208 228 255
208 228 255
208 228 255
208 228 255
208 228 255
208 228 255
207 228 255
207 228 255
207 228 255
207 228 255
207 228 255
207 228 255
207 228 255
207 228 255
207 228 255
207 228 255
207 228 255
207 228 255
207 228 255
207 228 255
207 228 255
207 227 255
207 227 255
207 227 255
207 227 255
206 227 255
206 227 255
206 227 255
206 227 255
206 227 255
206 227 255
206 227 255
206 227 255
206 227 255
206 227 255
206 227 255
206 227 255
206 227 255
206 227 255
206 227 255
206 227 255
206 227 255
206 227 255
205 227 255
205 227 255
205 227 255
205 227 255
205 227 255
205 227 255
205 227 255
205 227 255
205 227 255
205 227 255
205 226 255
205 226 255
205 226 255
205 226 255
205 226 255
205 226 255
205 226 255
204 226 255
204 226 255
204 226 255
204 226 255
204 226 255
204 226 255
204 226 255
204 226 255
204 226 255
204 226 255
204 226 255
204 226 255
204 226 255
204 226 255
204 226 255
204 226 255
203 226 255
203 226 255
203 226 255
203 226 255
203 226 255
203 226 255
203 225 255
203 225 255
203 225 255
203 225 255
203 225 255
203 225 255
203 225 255
203 225 255
203 225 255
202 225 255
202 225 255
202 225 255
202 225 255
202 225 255
202 225 255
202 225 255
202 225 255
202 225 255
202 225 255
202 225 255
202 225 255
202 225 255
202 225 255
202 225 255
201 225 255
201 225 255
201 225 255
201 225 255
201 225 255
201 224 255
201 224 255
201 224 255
201 224 255
201 224 255
201 224 255
201 224 255
201 224 255
201 224 255
201 224 255
201 224 255
201 224 255
200 224 255
200 224 255
200 224 255
200 224 255
200 224 255
200 224 255
200 224 255
200 224 255
200 224 255
200 224 255
200 224 255
200 224 255
200 224 255
200 224 255
200 224 255
200 224 255
200 224 255
200 224 255
199 224 255
199 224 255
199 224 255
199 224 255
199 223 255
199 223 255
199 223 255
199 223 255
199 223 255
199 223 255
199 223 255
199 223 255
199 223 255
199 223 255
199 223 255
199 223 255
199 223 255
199 223 255
199 223 255
199 223 255
199 223 255
199 223 255
199 223 255
199 223 255
199 223 255
199 223 255
199 223 255
199 223 255
199 223 255
199 223 255
199 223 255
199 223 255
199 223 255
198 223 255
198 223 255
198 223 255
198 223 255
198 223 255
198 223 255
198 223 255
198 223 255
198 223 255
198 223 255
198 223 255
198 223 255
198 223 255
198 223 255
198 223 255
198 223 255
198 223 255
198 223 255
198 223 255
199 223 255
199 223 255
199 223 255
199 223 255
199 223 255
199 223 255
199 223 255
199 223 255
199 223 255
199 223 255
199 223 255
199 223 255
199 223 255
199 223 255
199 223 255
199 223 255
199 223 255
199 223 255
199 223 255
199 223 255
199 223 255
199 223 255
199 223 255
199 223 255
199 223 255
199 223 255
199 223 255
199 223 255
199 223 255
199 223 255
199 224 255
199 224 255
199 224 255
200 224 255
200 224 255
200 224 255
200 224 255
200 224 255
200 224 255
200 224 255
200 224 255
200 224 255
200 224 255
200 224 255
200 224 255
200 224 255
200 224 255
200 224 255
200 224 255
200 224 255
200 224 255
200 224 255
201 224 255
201 224 255
201 224 255
201 224 255
201 224 255
201 224 255
201 224 255
201 224 255
201 224 255
201 224 255
201 224 255
201 224 255
201 225 255
201 225 255
201 225 255
201 225 255
201 225 255
202 225 255
202 225 255
202 225 255
202 225 255
202 225 255
202 225 255
202 225 255
202 225 255
202 225 255
202 225 255
202 225 255
202 225 255
202 225 255
202 225 255
202 225 255
203 225 255
203 225 255
203 225 255
203 225 255
203 225 255
203 225 255
203 225 255
203 225 255
203 225 255
203 226 255
203 226 255
203 226 255
203 226 255
203 226 255
203 226 255
203 226 255
204 226 255
204 226 255
204 226 255
204 226 255
204 226 255
204 226 255
204 226 255
204 226 255
204 226 255
204 226 255
204 226 255
204 226 255
204 226 255
204 226 255
204 226 255
205 226 255
205 226 255
205 226 255
205 226 255
205 226 255
205 226 255
205 226 255
205 227 255
205 227 255
205 227 255
205 227 255
205 227 255
205 227 255
205 227 255
205 227 255
205 227 255
205 227 255
206 227 255
206 227 255
206 227 255
206 227 255
206 227 255
206 227 255
206 227 255
206 227 255
206 227 255
206 227 255
206 227 255
206 227 255
206 227 255
206 227 255
206 227 255
206 227 255
206 227 255
206 227 255
207 227 255
207 227 255
207 227 255
207 227 255
207 228 255
207 228 255
207 228 255
207 228 255
207 228 255
207 228 255
207 228 255
207 228 255
207 228 255
207 228 255
207 228 255
207 228 255
207 228 255
207 228 255
207 228 255
208 228 255
208 228 255
208 228 255
208 228 255
208 228 255
208 228 255
208 228 255
208 228 255
208 228 255
208 228 255
208 228 255
208 228 255
208 228 255
208 228 255
208 228 255
208 228 255
208 228 255
208 228 255
208 228 255
208 228 255
208 228 255
209 228 255
209 229 255
209 229 255
209 229 255
209 228 255
208 228 255
208 228 255
208 228 255
208 228 255
208 228 255
208 228 255
208 228 255
208 228 255
208 228 255
208 228 255
208 228 255
208 228 255
208 228 255
208 228 255
208 228 255
208 228 255
208 228 255
208 228 255
208 228 255
208 228 255
208 228 255
207 228 255
207 228 255
207 228 255
207 228 255
207 228 255
207 228 255
207 228 255
207 228 255
207 228 255
207 228 255
207 228 255
207 228 255
207 228 255
207 228 255
207 228 255
207 227 255
207 227 255
207 227 255
207 227 255
207 227 255
206 227 255
206 227 255
206 227 255
206 227 255
206 227 255
206 227 255
206 227 255
206 227 255
206 227 255
206 227 255
206 227 255
206 227 255
206 227 255
206 227 255
206 227 255
206 227 255
206 227 255
205 227 255
205 227 255
205 227 255
205 227 255
205 227 255
205 227 255
205 227 255
205 227 255
205 227 255
205 227 255
205 226 255
205 226 255
205 226 255
205 226 255
205 226 255
205 226 255
204 226 255
204 226 255
204 226 255
204 226 255
204 226 255
204 226 255
204 226 255
204 226 255
204 226 255
204 226 255
204 226 255
204 226 255
204 226 255
204 226 255
204 226 255
204 226 255
203 226 255
203 226 255
203 226 255
203 226 255
203 226 255
203 226 255
203 226 255
203 225 255
203 225 255
203 225 255
203 225 255
203 225 255
203 225 255
203 225 255
203 225 255
203 225 255
202 225 255
202 225 255
202 225 255
202 225 255
202 225 255
202 225 255
202 225 255
202 225 255
202 225 255
202 225 255
202 225 255
202 225 255
202 225 255
202 225 255
202 225 255
201 225 255
201 225 255
201 225 255
201 225 255
201 225 255
201 224 255
201 224 255
201 224 255
201 224 255
201 224 255
201 224 255
201 224 255
201 224 255
201 224 255
201 224 255
201 224 255
201 224 255
200 224 255
200 224 255
200 224 255
200 224 255
200 224 255
200 224 255
200 224 255
200 224 255
200 224 255
200 224 255
200 224 255
200 224 255
200 224 255
200 224 255
200 224 255
200 224 255
200 224 255
200 224 255
200 224 255
200 224 255
199 224 255
199 224 255
199 224 255
199 224 255
199 223 255
199 223 255
199 223 255
199 223 255
199 223 255
199 223 255
199 223 255
199 223 255
199 223 255
199 223 255
199 223 255
199 223 255
199 223 255
199 223 255
199 223 255
199 223 255
199 223 255
199 223 255
199 223 255
199 223 255
199 223 255
199 223 255
199 223 255
199 223 255
199 223 255
199 223 255
199 223 255
199 223 255
199 223 255
199 223 255
199 223 255
199 223 255
199 223 255
199 223 255
199 223 255
199 223 255
199 223 255
199 223 255
199 223 255
199 223 255
199 223 255
199 223 255
199 223 255
199 223 255
199 223 255
199 223 255
199 223 255
199 223 255
199 223 255
199 223 255
199 223 255
199 223 255
199 223 255
199 223 255
199 223 255
199 223 255
199 223 255
199 223 255
199 223 255
199 223 255
199 223 255
199 223 255
199 223 255
199 223 255
199 223 255
199 223 255
199 223 255
199 223 255
199 224 255
199 224 255
199 224 255
199 224 255
200 224 255
200 224 255
200 224 255
200 224 255
200 224 255
200 224 255
200 224 255
200 224 255
200 224 255
200 224 255
200 224 255
200 224 255
200 224 255
200 224 255
200 224 255
200 224 255
200 224 255
200 224 255
200 224 255
200 224 255
201 224 255
201 224 255
201 224 255
201 224 255
201 224 255
201 224 255
201 224 255
201 224 255
201 224 255
201 224 255
201 224 255
201 224 255
201 225 255
201 225 255
201 225 255
201 225 255
201 225 255
202 225 255
202 225 255
202 225 255
202 225 255
202 225 255
202 225 255
202 225 255
202 225 255
202 225 255
202 225 255
202 225 255
202 225 255
202 225 255
202 225 255
202 225 255
203 225 255
203 225 255
203 225 255
203 225 255
203 225 255
203 225 255
203 225 255
203 225 255
203 225 255
203 226 255
203 226 255
203 226 255
203 226 255
203 226 255
203 226 255
203 226 255
204 226 255
204 226 255
204 226 255
204 226 255
204 226 255
204 226 255
204 226 255
204 226 255
204 226 255
204 226 255
204 226 255
204 226 255
204 226 255
204 226 255
204 226 255
205 226 255
205 226 255
205 226 255
205 226 255
205 226 255
205 226 255
205 226 255
205 227 255
205 227 255
205 227 255
205 227 255
205 227 255
205 227 255
205 227 255
205 227 255
205 227 255
205 227 255
206 227 255
206 227 255
206 227 255
206 227 255
206 227 255
206 227 255
206 227 255
206 227 255
206 227 255
206 227 255
206 227 255
206 227 255
206 227 255
206 227 255
206 227 255
206 227 255
206 227 255
206 227 255
207 227 255
207 227 255
207 227 255
207 227 255
207 228 255
207 228 255
207 228 255
207 228 255
207 228 255
207 228 255
207 228 255
207 228 255
207 228 255
207 228 255
207 228 255
207 228 255
207 228 255
207 228 255
207 228 255
208 228 255
208 228 255
208 228 255
208 228 255
208 228 255
208 228 255
208 228 255
208 228 255
208 228 255
208 228 255
208 228 255
208 228 255
208 228 255
208 228 255
208 228 255
208 228 255
208 228 255
208 228 255
208 228 255
208 228 255
208 228 255
209 228 255
209 229 255
209 229 255
209 229 255
209 229 255
209 229 255
209 229 255
209 229 255
209 229 255
209 229 255
209 228 255
209 228 255
208 228 255
208 228 255
208 228 255
208 228 255
208 228 255
208 228 255
208 228 255
208 228 255
208 228 255
208 228 255
208 228 255
208 228 255
208 228 255
208 228 255
208 228 255
208 228 255
208 228 255
208 228 255
208 228 255
208 228 255
207 228 255
207 228 255
207 228 255
207 228 255
207 228 255
207 228 255
207 228 255
207 228 255
207 228 255
207 228 255
207 228 255
207 228 255
207 228 255
207 228 255
207 228 255
207 227 255
207 227 255
207 227 255
207 227 255
206 227 255
206 227 255
206 227 255
206 227 255
206 227 255
206 227 255
206 227 255
206 227 255
206 227 255
206 227 255
206 227 255
206 227 255
206 227 255
206 227 255
206 227 255
206 227 255
206 227 255
206 227 255
205 227 255
205 227 255
205 227 255
205 227 255
205 227 255
205 227 255
205 227 255
205 227 255
205 227 255
205 227 255
205 226 255
205 226 255
205 226 255
205 226 255
205 226 255
205 226 255
204 226 255
204 226 255
204 226 255
204 226 255
204 226 255
204 226 255
204 226 255
204 226 255
204 226 255
204 226 255
204 226 255
204 226 255
204 226 255
204 226 255
204 226 255
204 226 255
203 226 255
203 226 255
203 226 255
203 226 255
203 226 255
203 226 255
203 226 255
203 225 255
203 225 255
203 225 255
203 225 255
203 225 255
203 225 255
203 225 255
203 225 255
203 225 255
202 225 255
202 225 255
202 225 255
202 225 255
202 225 255
202 225 255
202 225 255
202 225 255
202 225 255
202 225 255
202 225 255
202 225 255
202 225 255
202 225 255
202 225 255
201 225 255
201 225 255
201 225 255
201 225 255
201 225 255
201 224 255
201 224 255
201 224 255
201 224 255
201 224 255
201 224 255
201 224 255
201 224 255
201 224 255
201 224 255
201 224 255
201 224 255
201 224 255
200 224 255
200 224 255
200 224 255
200 224 255
200 224 255
200 224 255
200 224 255
200 224 255
200 224 255
200 224 255
200 224 255
200 224 255
200 224 255
200 224 255
200 224 255
200 224 255
200 224 255
200 224 255
200 224 255
200 224 255
200 224 255
199 224 255
199 224 255
199 224 255
199 224 255
199 223 255
199 223 255
199 223 255
199 223 255
199 223 255
199 223 255
199 223 255
199 223 255
199 223 255
199 223 255
199 223 255
199 223 255
199 223 255
199 223 255
199 223 255
199 223 255
199 223 255
199 223 255
199 223 255
199 223 255
199 223 255
199 223 255
199 223 255
199 223 255
199 223 255
199 223 255
199 223 255
199 223 255
199 223 255
199 223 255
199 223 255
199 223 255
199 223 255
199 223 255
199 223 255
199 223 255
199 223 255
199 223 255
199 223 255
199 223 255
199 223 255
199 223 255
199 223 255
199 223 255
199 223 255
199 223 255
199 223 255
199 223 255
199 223 255
199 223 255
199 223 255
199 223 255
199 223 255
199 223 255
199 223 255
199 223 255
199 223 255
199 223 255
199 224 255
199 224 255
199 224 255
199 224 255
200 224 255
200 224 255
200 224 255
200 224 255
200 224 255
200 224 255
200 224 255
200 224 255
200 224 255
200 224 255
200 224 255
200 224 255
200 224 255
200 224 255
200 224 255
200 224 255
200 224 255
200 224 255
200 224 255
200 224 255
200 224 255
201 224 255
201 224 255
201 224 255
201 224 255
201 224 255
201 224 255
201 224 255
201 224 255
201 224 255
201 224 255
201 224 255
201 224 255
201 224 255
201 225 255
201 225 255
201 225 255
201 225 255
201 225 255
202 225 255
202 225 255
202 225 255
202 225 255
202 225 255
202 225 255
202 225 255
202 225 255
202 225 255
202 225 255
202 225 255
202 225 255
202 225 255
202 225 255
202 225 255
202 225 255
203 225 255
203 225 255
203 225 255
203 225 255
203 225 255
203 225 255
203 225 255
203 225 255
203 226 255
203 226 255
203 226 255
203 226 255
203 226 255
203 226 255
203 226 255
204 226 255
204 226 255
204 226 255
204 226 255
204 226 255
204 226 255
204 226 255
204 226 255
204 226 255
204 226 255
204 226 255
204 226 255
204 226 255
204 226 255
204 226 255
204 226 255
205 226 255
205 226 255
205 226 255
205 226 255
205 226 255
205 226 255
205 227 255
205 227 255
205 227 255
205 227 255
205 227 255
205 227 255
205 227 255
205 227 255
205 227 255
205 227 255
206 227 255
206 227 255
206 227 255
206 227 255
206 227 255
206 227 255
206 227 255
206 227 255
206 227 255
206 227 255
206 227 255
206 227 255
206 227 255
206 227 255
206 227 255
206 227 255
206 227 255
207 227 255
207 227 255
207 227 255
207 227 255
207 227 255
207 228 255
207 228 255
207 228 255
207 228 255
207 228 255
207 228 255
207 228 255
207 228 255
207 228 255
207 228 255
207 228 255
207 228 255
207 228 255
207 228 255
207 228 255
208 228 255
208 228 255
208 228 255
208 228 255
208 228 255
208 228 255
208 228 255
208 228 255
208 228 255
208 228 255
208 228 255
208 228 255
208 228 255
208 228 255
208 228 255
208 228 255
208 228 255
208 228 255
208 228 255
208 228 255
209 228 255
209 228 255
209 229 255
209 229 255
209 229 255
209 229 255
209 229 255
209 229 255
209 229 255
209 229 255
209 229 255
209 229 255
209 229 255
209 229 255
209 229 255
209 229 255
209 229 255
209 228 255
209 228 255
208 228 255
208 228 255
208 228 255
208 228 255
208 228 255
208 228 255
208 228 255
208 228 255
208 228 255
208 228 255
208 228 255
208 228 255
208 228 255
208 228 255
208 228 255
208 228 255
208 228 255
208 228 255
208 228 255
208 228 255
207 228 255
207 228 255
207 228 255
207 228 255
207 228 255
207 228 255
207 228 255
207 228 255
207 228 255
207 228 255
207 228 255
207 228 255
207 228 255
207 228 255
207 228 255
207 227 255
207 227 255
207 227 255
207 227 255
207 227 255
206 227 255
206 227 255
206 227 255
206 227 255
206 227 255
206 227 255
206 227 255
206 227 255
206 227 255
206 227 255
206 227 255
206 227 255
206 227 255
206 227 255
206 227 255
206 227 255
206 227 255
205 227 255
205 227 255
205 227 255
205 227 255
205 227 255
205 227 255
205 227 255
205 227 255
205 227 255
205 227 255
205 226 255
205 226 255
205 226 255
205 226 255
205 226 255
205 226 255
204 226 255
204 226 255
204 226 255
204 226 255
204 226 255
204 226 255
204 226 255
204 226 255
204 226 255
204 226 255
204 226 255
204 226 255
204 226 255
204 226 255
204 226 255
204 226 255
203 226 255
203 226 255
203 226 255
203 226 255
203 226 255
203 226 255
203 226 255
203 225 255
203 225 255
203 225 255
203 225 255
203 225 255
203 225 255
203 225 255
203 225 255
202 225 255
202 225 255
202 225 255
202 225 255
202 225 255
202 225 255
202 225 255
202 225 255
202 225 255
202 225 255
202 225 255
202 225 255
202 225 255
202 225 255
202 225 255
202 225 255
201 225 255
201 225 255
201 225 255
201 225 255
201 225 255
201 224 255
201 224 255
201 224 255
201 224 255
201 224 255
201 224 255
201 224 255
201 224 255
201 224 255
201 224 255
201 224 255
201 224 255
201 224 255
200 224 255
200 224 255
200 224 255
200 224 255
200 224 255
200 224 255
200 224 255
200 224 255
200 224 255
200 224 255
200 224 255
200 224 255
200 224 255
200 224 255
200 224 255
200 224 255
200 224 255
200 224 255
200 224 255
200 224 255
200 224 255
200 224 255
200 224 255
199 224 255
199 224 255
199 224 255
199 224 255
199 224 255
199 224 255
199 223 255
199 223 255
199 223 255
199 223 255
199 223 255
199 223 255
199 223 255
199 223 255
199 223 255
199 223 255
199 223 255
199 223 255
199 223 255
199 223 255
199 223 255
199 223 255
199 223 255
199 223 255
199 223 255
199 223 255
199 223 255
199 223 255
199 223 255
199 223 255
199 223 255
199 223 255
199 223 255
199 223 255
199 223 255
199 223 255
199 223 255
199 223 255
199 223 255
199 223 255
199 223 255
199 223 255
199 223 255
199 223 255
199 223 255
199 223 255
199 223 255
199 223 255
199 223 255
199 223 255
199 224 255
199 224 255
199 224 255
199 224 255
199 224 255
200 224 255
200 224 255
200 224 255
200 224 255
200 224 255
200 224 255
200 224 255
200 224 255
200 224 255
200 224 255
200 224 255
200 224 255
200 224 255
200 224 255
200 224 255
200 224 255
200 224 255
200 224 255
200 224 255
200 224 255
200 224 255
200 224 255
200 224 255
200 224 255
201 224 255
201 224 255
201 224 255
201 224 255
201 224 255
201 224 255
201 224 255
201 224 255
201 224 255
201 224 255
201 224 255
201 224 255
201 225 255
201 225 255
201 225 255
201 225 255
201 225 255
202 225 255
202 225 255
202 225 255
202 225 255
202 225 255
202 225 255
202 225 255
202 225 255
202 225 255
202 225 255
202 225 255
202 225 255
202 225 255
202 225 255
202 225 255
202 225 255
203 225 255
203 225 255
203 225 255
203 225 255
203 225 255
203 225 255
203 225 255
203 225 255
203 225 255
203 226 255
203 226 255
203 226 255
203 226 255
203 226 255
203 226 255
203 226 255
204 226 255
204 226 255
204 226 255
204 226 255
204 226 255
204 226 255
204 226 255
204 226 255
204 226 255
204 226 255
204 226 255
204 226 255
204 226 255
204 226 255
204 226 255
204 226 255
205 226 255
205 226 255
205 226 255
205 226 255
205 226 255
205 226 255
205 227 255
205 227 255
205 227 255
205 227 255
205 227 255
205 227 255
205 227 255
205 227 255
205 227 255
205 227 255
206 227 255
206 227 255
206 227 255
206 227 255
206 227 255
206 227 255
206 227 255
206 227 255
206 227 255
206 227 255
206 227 255
206 227 255
206 227 255
206 227 255
206 227 255
206 227 255
206 227 255
207 227 255
207 227 255
207 227 255
207 227 255
207 227 255
207 228 255
207 228 255
207 228 255
207 228 255
207 228 255
207 228 255
207 228 255
207 228 255
207 228 255
207 228 255
207 228 255
207 228 255
207 228 255
207 228 255
208 228 255
208 228 255
208 228 255
208 228 255
208 228 255
208 228 255
208 228 255
208 228 255
208 228 255
208 228 255
208 228 255
208 228 255
208 228 255
208 228 255
208 228 255
208 228 255
208 228 255
208 228 255
208 228 255
208 228 255
208 228 255
209 228 255
209 228 255
209 229 255
209 229 255
209 229 255
209 229 255
209 229 255
209 229 255
209 229 255
209 229 255
209 229 255
209 229 255
209 229 255
209 229 255
209 229 255
209 229 255
209 229 255
209 229 255
209 229 255
209 229 255
209 229 255
209 229 255
209 229 255
209 229 255
209 228 255
208 228 255
208 228 255
208 228 255
208 228 255
208 228 255
208 228 255
208 228 255
208 228 255
208 228 255
208 228 255
208 228 255
208 228 255
208 228 255
208 228 255
208 228 255
208 228 255
208 228 255
208 228 255
208 228 255
208 228 255
208 228 255
207 228 255
207 228 255
207 228 255
207 228 255
207 228 255
207 228 255
207 228 255
207 228 255
207 228 255
207 228 255
207 228 255
207 228 255
207 228 255
207 228 255
207 227 255
207 227 255
207 227 255
207 227 255
206 227 255
206 227 255
206 227 255
206 227 255
206 227 255
206 227 255
206 227 255
206 227 255
206 227 255
206 227 255
206 227 255
206 227 255
206 227 255
206 227 255
206 227 255
206 227 255
206 227 255
206 227 255
205 227 255
205 227 255
205 227 255
205 227 255
205 227 255
205 227 255
205 227 255
205 227 255
205 227 255
205 227 255
205 226 255
205 226 255
205 226 255
205 226 255
205 226 255
205 226 255
204 226 255
204 226 255
204 226 255
204 226 255
204 226 255
204 226 255
204 226 255
204 226 255
204 226 255
204 226 255
204 226 255
204 226 255
204 226 255
204 226 255
204 226 255
204 226 255
203 226 255
203 226 255
203 226 255
203 226 255
203 226 255
203 226 255
203 226 255
203 225 255
203 225 255
203 225 255
203 225 255
203 225 255
203 225 255
203 225 255
203 225 255
202 225 255
202 225 255
202 225 255
202 225 255
202 225 255
202 225 255
202 225 255
202 225 255
202 225 255
202 225 255
202 225 255
202 225 255
202 225 255
202 225 255
202 225 255
202 225 255
202 225 255
201 225 255
201 225 255
201 225 255
201 225 255
201 225 255
201 224 255
201 224 255
201 224 255
201 224 255
201 224 255
201 224 255
201 224 255
201 224 255
201 224 255
201 224 255
201 224 255
201 224 255
201 224 255
200 224 255
200 224 255
200 224 255
200 224 255
200 224 255
200 224 255
200 224 255
200 224 255
200 224 255
200 224 255
200 224 255
200 224 255
200 224 255
200 224 255
200 224 255
200 224 255
200 224 255
200 224 255
200 224 255
200 224 255
200 224 255
200 224 255
200 224 255
200 224 255
200 224 255
200 224 255
200 224 255
199 224 255
199 224 255
199 224 255
199 224 255
199 224 255
199 224 255
199 224 255
199 224 255
199 223 255
199 223 255
199 223 255
199 223 255
199 223 255
199 223 255
199 223 255
199 223 255
199 223 255
199 223 255
199 223 255
199 223 255
199 223 255
199 223 255
199 223 255
199 223 255
199 223 255
199 223 255
199 223 255
199 223 255
199 223 255
199 223 255
199 223 255
199 223 255
199 223 255
199 224 255
199 224 255
199 224 255
199 224 255
199 224 255
199 224 255
199 224 255
200 224 255
200 224 255
200 224 255
200 224 255
200 224 255
200 224 255
200 224 255
200 224 255
200 224 255
200 224 255
200 224 255
200 224 255
200 224 255
200 224 255
200 224 255
200 224 255
200 224 255
200 224 255
200 224 255
200 224 255
200 224 255
200 224 255
200 224 255
200 224 255
200 224 255
200 224 255
200 224 255
201 224 255
201 224 255
201 224 255
201 224 255
201 224 255
201 224 255
201 224 255
201 224 255
201 224 255
201 224 255
201 224 255
201 224 255
201 224 255
201 225 255
201 225 255
201 225 255
201 225 255
201 225 255
202 225 255
202 225 255
202 225 255
202 225 255
202 225 255
202 225 255
202 225 255
202 225 255
202 225 255
202 225 255
202 225 255
202 225 255
202 225 255
202 225 255
202 225 255
202 225 255
202 225 255
203 225 255
203 225 255
203 225 255
203 225 255
203 225 255
203 225 255
203 225 255
203 225 255
203 226 255
203 226 255
203 226 255
203 226 255
203 226 255
203 226 255
203 226 255
204 226 255
204 226 255
204 226 255
204 226 255
204 226 255
204 226 255
204 226 255
204 226 255
204 226 255
204 226 255
204 226 255
204 226 255
204 226 255
204 226 255
204 226 255
204 226 255
205 226 255
205 226 255
205 226 255
205 226 255
205 226 255
205 226 255
205 226 255
205 227 255
205 227 255
205 227 255
205 227 255
205 227 255
205 227 255
205 227 255
205 227 255
205 227 255
206 227 255
206 227 255
206 227 255
206 227 255
206 227 255
206 227 255
206 227 255
206 227 255
206 227 255
206 227 255
206 227 255
206 227 255
206 227 255
206 227 255
206 227 255
206 227 255
206 227 255
206 227 255
207 227 255
207 227 255
207 227 255
207 227 255
207 228 255
207 228 255
207 228 255
207 228 255
207 228 255
207 228 255
207 228 255
207 228 255
207 228 255
207 228 255
207 228 255
207 228 255
207 228 255
207 228 255
208 228 255
208 228 255
208 228 255
208 228 255
208 228 255
208 228 255
208 228 255
208 228 255
208 228 255
208 228 255
208 228 255
208 228 255
208 228 255
208 228 255
208 228 255
208 228 255
208 228 255
208 228 255
208 228 255
208 228 255
208 228 255
209 228 255
209 228 255
209 229 255
209 229 255
209 229 255
209 229 255
209 229 255
209 229 255
209 229 255
209 229 255
209 229 255
209 229 255
209 229 255
209 229 255
209 229 255
209 229 255
209 229 255
209 229 255
209 229 255
209 229 255
209 229 255
209 229 255
209 229 255
209 229 255
209 229 255
209 229 255
209 229 255
209 229 255
209 229 255
209 229 255
209 228 255
209 228 255
208 228 255
208 228 255
208 228 255
208 228 255
208 228 255
208 228 255
208 228 255
208 228 255
208 228 255
208 228 255
208 228 255
208 228 255
208 228 255
208 228 255
208 228 255
208 228 255
208 228 255
208 228 255
208 228 255
208 228 255
207 228 255
207 228 255
207 228 255
207 228 255
207 228 255
207 228 255
207 228 255
207 228 255
207 228 255
207 228 255
207 228 255
207 228 255
207 228 255
207 228 255
207 227 255
207 227 255
207 227 255
207 227 255
206 227 255
206 227 255
206 227 255
206 227 255
206 227 255
206 227 255
206 227 255
206 227 255
206 227 255
206 227 255
206 227 255
206 227 255
206 227 255
206 227 255
206 227 255
206 227 255
206 227 255
206 227 255
205 227 255
205 227 255
205 227 255
205 227 255
205 227 255
205 227 255
205 227 255
205 227 255
205 227 255
205 226 255
205 226 255
205 226 255
205 226 255
205 226 255
205 226 255
205 226 255
204 226 255
204 226 255
204 226 255
204 226 255
204 226 255
204 226 255
204 226 255
204 226 255
204 226 255
204 226 255
204 226 255
204 226 255
204 226 255
204 226 255
204 226 255
204 226 255
203 226 255
203 226 255
203 226 255
203 226 255
203 226 255
203 226 255
203 226 255
203 225 255
203 225 255
203 225 255
203 225 255
203 225 255
203 225 255
203 225 255
203 225 255
203 225 255
202 225 255
202 225 255
202 225 255
202 225 255
202 225 255
202 225 255
202 225 255
202 225 255
202 225 255
202 225 255
202 225 255
202 225 255
202 225 255
202 225 255
202 225 255
202 225 255
201 225 255
201 225 255
201 225 255
201 225 255
201 225 255
201 224 255
201 224 255
201 224 255
201 224 255
201 224 255
201 224 255
201 224 255
201 224 255
201 224 255
201 224 255
201 224 255
201 224 255
201 224 255
201 224 255
200 224 255
200 224 255
200 224 255
200 224 255
200 224 255
200 224 255
200 224 255
200 224 255
200 224 255
200 224 255
200 224 255
200 224 255
200 224 255
200 224 255
200 224 255
200 224 255
200 224 255
200 224 255
200 224 255
200 224 255
200 224 255
200 224 255
200 224 255
200 224 255
200 224 255
200 224 255
200 224 255
200 224 255
200 224 255
200 224 255
200 224 255
200 224 255
200 224 255
200 224 255
199 224 255
199 224 255
199 224 255
199 224 255
199 224 255
199 224 255
199 224 255
199 224 255
199 224 255
199 224 255
199 224 255
199 224 255
199 224 255
199 224 255
199 224 255
199 224 255
199 224 255
199 224 255
200 224 255
200 224 255
200 224 255
200 224 255
200 224 255
200 224 255
200 224 255
200 224 255
200 224 255
200 224 255
200 224 255
200 224 255
200 224 255
200 224 255
200 224 255
200 224 255
200 224 255
200 224 255
200 224 255
200 224 255
200 224 255
200 224 255
200 224 255
200 224 255
200 224 255
200 224 255
200 224 255
200 224 255
200 224 255
200 224 255
200 224 255
200 224 255
200 224 255
201 224 255
201 224 255
201 224 255
201 224 255
201 224 255
201 224 255
201 224 255
201 224 255
201 224 255
201 224 255
201 224 255
201 224 255
201 224 255
201 224 255
201 224 255
201 225 255
201 225 255
201 225 255
201 225 255
201 225 255
202 225 255
202 225 255
202 225 255
202 225 255
202 225 255
202 225 255
202 225 255
202 225 255
202 225 255
202 225 255
202 225 255
202 225 255
202 225 255
202 225 255
202 225 255
202 225 255
203 225 255
203 225 255
203 225 255
203 225 255
203 225 255
203 225 255
203 225 255
203 225 255
203 225 255
203 226 255
203 226 255
203 226 255
203 226 255
203 226 255
203 226 255
203 226 255
204 226 255
204 226 255
204 226 255
204 226 255
204 226 255
204 226 255
204 226 255
204 226 255
204 226 255
204 226 255
204 226 255
204 226 255
204 226 255
204 226 255
204 226 255
204 226 255
205 226 255
205 226 255
205 226 255
205 226 255
205 226 255
205 226 255
205 227 255
205 227 255
205 227 255
205 227 255
205 227 255
205 227 255
205 227 255
205 227 255
205 227 255
205 227 255
206 227 255
206 227 255
206 227 255
206 227 255
206 227 255
206 227 255
206 227 255
206 227 255
206 227 255
206 227 255
206 227 255
206 227 255
206 227 255
206 227 255
206 227 255
206 227 255
206 227 255
206 227 255
207 227 255
207 227 255
207 227 255
207 227 255
207 228 255
207 228 255
207 228 255
207 228 255
207 228 255
207 228 255
207 228 255
207 228 255
207 228 255
207 228 255
207 228 255
207 228 255
207 228 255
207 228 255
208 228 255
208 228 255
208 228 255
208 228 255
208 228 255
208 228 255
208 228 255
208 228 255
208 228 255
208 228 255
208 228 255
208 228 255
208 228 255
208 228 255
208 228 255
208 228 255
208 228 255
208 228 255
208 228 255
208 228 255
208 228 255
209 228 255
209 229 255
209 229 255
209 229 255
209 229 255
209 229 255
209 229 255
209 229 255
209 229 255
209 229 255
209 229 255
209 229 255
209 229 255
209 229 255
209 229 255
209 229 255
209 229 255
209 229 255
209 229 255
209 229 255
209 229 255
209 229 255
209 229 255
209 229 255
209 229 255
209 229 255
209 229 255
209 229 255
209 229 255
209 229 255
209 229 255
209 229 255
209 229 255
209 229 255
209 229 255
209 229 255
209 228 255
209 228 255
208 228 255
208 228 255
208 228 255
208 228 255
208 228 255
208 228 255
208 228 255
208 228 255
208 228 255
208 228 255
208 228 255
208 228 255
208 228 255
208 228 255
208 228 255
208 228 255
208 228 255
208 228 255
208 228 255
208 228 255
207 228 255
207 228 255
207 228 255
207 228 255
207 228 255
207 228 255
207 228 255
207 228 255
207 228 255
207 228 255
207 228 255
207 228 255
207 228 255
207 228 255
207 227 255
207 227 255
207 227 255
207 227 255
207 227 255
206 227 255
206 227 255
206 227 255
206 227 255
206 227 255
206 227 255
206 227 255
206 227 255
206 227 255
206 227 255
206 227 255
206 227 255
206 227 255
206 227 255
206 227 255
206 227 255
206 227 255
205 227 255
205 227 255
205 227 255
205 227 255
205 227 255
205 227 255
205 227 255
205 227 255
205 227 255
205 227 255
205 226 255
205 226 255
205 226 255
205 226 255
205 226 255
205 226 255
204 226 255
204 226 255
204 226 255
204 226 255
204 226 255
204 226 255
204 226 255
204 226 255
204 226 255
204 226 255
204 226 255
204 226 255
204 226 255
204 226 255
204 226 255
204 226 255
203 226 255
203 226 255
203 226 255
203 226 255
203 226 255
203 226 255
203 226 255
203 225 255
203 225 255
203 225 255
203 225 255
203 225 255
203 225 255
203 225 255
203 225 255
203 225 255
202 225 255
202 225 255
202 225 255
202 225 255
202 225 255
202 225 255
202 225 255
202 225 255
202 225 255
202 225 255
202 225 255
202 225 255
202 225 255
202 225 255
202 225 255
202 225 255
202 225 255
201 225 255
201 225 255
201 225 255
201 225 255
201 225 255
201 224 255
201 224 255
201 224 255
201 224 255
201 224 255
201 224 255
201 224 255
201 224 255
201 224 255
201 224 255
201 224 255
201 224 255
201 224 255
201 224 255
201 224 255
200 224 255
200 224 255
200 224 255
200 224 255
200 224 255
200 224 255
200 224 255
200 224 255
200 224 255
200 224 255
200 224 255
200 224 255
200 224 255
200 224 255
200 224 255
200 224 255
200 224 255
200 224 255
200 224 255
200 224 255
200 224 255
200 224 255
200 224 255
200 224 255
200 224 255
200 224 255
200 224 255
200 224 255
200 224 255
200 224 255
200 224 255
200 224 255
200 224 255
200 224 255
200 224 255
200 224 255
200 224 255
200 224 255
200 224 255
200 224 255
200 224 255
200 224 255
200 224 255
200 224 255
200 224 255
200 224 255
200 224 255
200 224 255
200 224 255
200 224 255
200 224 255
200 224 255
200 224 255
200 224 255
200 224 255
200 224 255
200 224 255
200 224 255
200 224 255
200 224 255
200 224 255
200 224 255
200 224 255
200 224 255
200 224 255
200 224 255
200 224 255
200 224 255
200 224 255
200 224 255
200 224 255
200 224 255
200 224 255
200 224 255
200 224 255
200 224 255
201 224 255
201 224 255
201 224 255
201 224 255
201 224 255
201 224 255
201 224 255
201 224 255
201 224 255
201 224 255
201 224 255
201 224 255
201 224 255
201 224 255
201 224 255
201 225 255
201 225 255
201 225 255
201 225 255
201 225 255
202 225 255
202 225 255
202 225 255
202 225 255
202 225 255
202 225 255
202 225 255
202 225 255
202 225 255
202 225 255
202 225 255
202 225 255
202 225 255
202 225 255
202 225 255
202 225 255
202 225 255
203 225 255
203 225 255
203 225 255
203 225 255
203 225 255
203 225 255
203 225 255
203 225 255
203 225 255
203 226 255
203 226 255
203 226 255
203 226 255
203 226 255
203 226 255
203 226 255
204 226 255
204 226 255
204 226 255
204 226 255
204 226 255
204 226 255
204 226 255
204 226 255
204 226 255
204 226 255
204 226 255
204 226 255
204 226 255
204 226 255
204 226 255
204 226 255
205 226 255
205 226 255
205 226 255
205 226 255
205 226 255
205 226 255
205 226 255
205 227 255
205 227 255
205 227 255
205 227 255
205 227 255
205 227 255
205 227 255
205 227 255
205 227 255
206 227 255
206 227 255
206 227 255
206 227 255
206 227 255
206 227 255
206 227 255
206 227 255
206 227 255
206 227 255
206 227 255
206 227 255
206 227 255
206 227 255
206 227 255
206 227 255
206 227 255
207 227 255
207 227 255
207 227 255
207 227 255
207 227 255
207 228 255
207 228 255
207 228 255
207 228 255
207 228 255
207 228 255
207 228 255
207 228 255
207 228 255
207 228 255
207 228 255
207 228 255
207 228 255
207 228 255
208 228 255
208 228 255
208 228 255
208 228 255
208 228 255
208 228 255
208 228 255
208 228 255
208 228 255
208 228 255
208 228 255
208 228 255
208 228 255
208 228 255
208 228 255
208 228 255
208 228 255
208 228 255
208 228 255
208 228 255
209 228 255
209 228 255
209 229 255
209 229 255
209 229 255
209 229 255
209 229 255
209 229 255
209 229 255
209 229 255
209 229 255
209 229 255
209 229 255
209 229 255
209 229 255
209 229 255
209 229 255
209 229 255
209 229 255
209 229 255
209 229 255
210 229 255
209 229 255
209 229 255
209 229 255
209 229 255
209 229 255
209 229 255
209 229 255
209 229 255
209 229 255
209 229 255
209 229 255
209 229 255
209 229 255
209 229 255
209 229 255
209 229 255
209 229 255
209 229 255
209 229 255
209 229 255
209 229 255
209 229 255
209 228 255
208 228 255
208 228 255
208 228 255
208 228 255
208 228 255
208 228 255
208 228 255
208 228 255
208 228 255
208 228 255
208 228 255
208 228 255
208 228 255
208 228 255
208 228 255
208 228 255
208 228 255
208 228 255
208 228 255
208 228 255
207 228 255
207 228 255
207 228 255
207 228 255
207 228 255
207 228 255
207 228 255
207 228 255
207 228 255
207 228 255
207 228 255
207 228 255
207 228 255
207 228 255
207 227 255
207 227 255
207 227 255
207 227 255
207 227 255
206 227 255
206 227 255
206 227 255
206 227 255
206 227 255
206 227 255
206 227 255
206 227 255
206 227 255
206 227 255
206 227 255
206 227 255
206 227 255
206 227 255
206 227 255
206 227 255
206 227 255
205 227 255
205 227 255
205 227 255
205 227 255
205 227 255
205 227 255
205 227 255
205 227 255
205 227 255
205 226 255
205 226 255
205 226 255
205 226 255
205 226 255
205 226 255
205 226 255
204 226 255
204 226 255
204 226 255
204 226 255
204 226 255
204 226 255
204 226 255
204 226 255
204 226 255
204 226 255
204 226 255
204 226 255
204 226 255
204 226 255
204 226 255
204 226 255
203 226 255
203 226 255
203 226 255
203 226 255
203 226 255
203 226 255
203 226 255
203 225 255
203 225 255
203 225 255
203 225 255
203 225 255
203 225 255
203 225 255
203 225 255
203 225 255
202 225 255
202 225 255
202 225 255
202 225 255
202 225 255
202 225 255
202 225 255
202 225 255
202 225 255
202 225 255
202 225 255
202 225 255
202 225 255
202 225 255
202 225 255
202 225 255
202 225 255
202 225 255
201 225 255
201 225 255
201 225 255
201 225 255
201 225 255
201 224 255
201 224 255
201 224 255
201 224 255
201 224 255
201 224 255
201 224 255
201 224 255
201 224 255
201 224 255
201 224 255
201 224 255
201 224 255
201 224 255
201 224 255
201 224 255
201 224 255
200 224 255
200 224 255
200 224 255
200 224 255
200 224 255
200 224 255
200 224 255
200 224 255
200 224 255
200 224 255
200 224 255
200 224 255
200 224 255
200 224 255
200 224 255
200 224 255
200 224 255
200 224 255
200 224 255
200 224 255
200 224 255
200 224 255
200 224 255
200 224 255
200 224 255
200 224 255
200 224 255
200 224 255
200 224 255
200 224 255
200 224 255
200 224 255
200 224 255
200 224 255
200 224 255
200 224 255
200 224 255
200 224 255
200 224 255
200 224 255
200 224 255
200 224 255
200 224 255
200 224 255
200 224 255
200 224 255
200 224 255
200 224 255
200 224 255
200 224 255
200 224 255
200 224 255
200 224 255
200 224 255
200 224 255
200 224 255
200 224 255
200 224 255
200 224 255
200 224 255
200 224 255
200 224 255
200 224 255
200 224 255
201 224 255
201 224 255
201 224 255
201 224 255
201 224 255
201 224 255
201 224 255
201 224 255
201 224 255
201 224 255
201 224 255
201 224 255
201 224 255
201 224 255
201 224 255
201 224 255
201 224 255
201 225 255
201 225 255
201 225 255
201 225 255
201 225 255
202 225 255
202 225 255
202 225 255
202 225 255
202 225 255
202 225 255
202 225 255
202 225 255
202 225 255
202 225 255
202 225 255
202 225 255
202 225 255
202 225 255
202 225 255
202 225 255
202 225 255
202 225 255
203 225 255
203 225 255
203 225 255
203 225 255
203 225 255
203 225 255
203 225 255
203 225 255
203 225 255
203 226 255
203 226 255
203 226 255
203 226 255
203 226 255
203 226 255
203 226 255
204 226 255
204 226 255
204 226 255
204 226 255
204 226 255
204 226 255
204 226 255
204 226 255
204 226 255
204 226 255
204 226 255
204 226 255
204 226 255
204 226 255
204 226 255
204 226 255
205 226 255
205 226 255
205 226 255
205 226 255
205 226 255
205 226 255
205 227 255
205 227 255
205 227 255
205 227 255
205 227 255
205 227 255
205 227 255
205 227 255
205 227 255
205 227 255
206 227 255
206 227 255
206 227 255
206 227 255
206 227 255
206 227 255
206 227 255
206 227 255
206 227 255
206 227 255
206 227 255
206 227 255
206 227 255
206 227 255
206 227 255
206 227 255
206 227 255
207 227 255
207 227 255
207 227 255
207 227 255
207 227 255
207 228 255
207 228 255
207 228 255
207 228 255
207 228 255
207 228 255
207 228 255
207 228 255
207 228 255
207 228 255
207 228 255
207 228 255
207 228 255
207 228 255
208 228 255
208 228 255
208 228 255
208 228 255
208 228 255
208 228 255
208 228 255
208 228 255
208 228 255
208 228 255
208 228 255
208 228 255
208 228 255
208 228 255
208 228 255
208 228 255
208 228 255
208 228 255
208 228 255
208 228 255
209 228 255
209 229 255
209 229 255
209 229 255
209 229 255
209 229 255
209 229 255
209 229 255
209 229 255
209 229 255
209 229 255
209 229 255
209 229 255
209 229 255
209 229 255
209 229 255
209 229 255
209 229 255
209 229 255
209 229 255
209 229 255
209 229 255
209 229 255
210 229 255
210 229 255
210 229 255
210 229 255
210 229 255
210 229 255
209 229 255
209 229 255
209 229 255
209 229 255
209 229 255
209 229 255
209 229 255
209 229 255
209 229 255
209 229 255
209 229 255
209 229 255
209 229 255
209 229 255
209 229 255
209 229 255
209 229 255
209 229 255
209 229 255
209 229 255
209 229 255
209 228 255
208 228 255
208 228 255
208 228 255
208 228 255
208 228 255
208 228 255
208 228 255
208 228 255
208 228 255
208 228 255
208 228 255
208 228 255
208 228 255
208 228 255
208 228 255
208 228 255
208 228 255
208 228 255
208 228 255
208 228 255
207 228 255
207 228 255
207 228 255
207 228 255
207 228 255
207 228 255
207 228 255
207 228 255
207 228 255
207 228 255
207 228 255
207 228 255
207 228 255
207 228 255
207 228 255
207 227 255
207 227 255
207 227 255
207 227 255
206 227 255
206 227 255
206 227 255
206 227 255
206 227 255
206 227 255
206 227 255
206 227 255
206 227 255
206 227 255
206 227 255
206 227 255
206 227 255
206 227 255
206 227 255
206 227 255
206 227 255
205 227 255
205 227 255
205 227 255
205 227 255
205 227 255
205 227 255
205 227 255
205 227 255
205 227 255
205 227 255
205 226 255
205 226 255
205 226 255
205 226 255
205 226 255
205 226 255
204 226 255
204 226 255
204 226 255
204 226 255
204 226 255
204 226 255
204 226 255
204 226 255
204 226 255
204 226 255
204 226 255
204 226 255
204 226 255
204 226 255
204 226 255
204 226 255
203 226 255
203 226 255
203 226 255
203 226 255
203 226 255
203 226 255
203 226 255
203 225 255
203 225 255
203 225 255
203 225 255
203 225 255
203 225 255
203 225 255
203 225 255
203 225 255
203 225 255
202 225 255
202 225 255
202 225 255
202 225 255
202 225 255
202 225 255
202 225 255
202 225 255
202 225 255
202 225 255
202 225 255
202 225 255
202 225 255
202 225 255
202 225 255
202 225 255
202 225 255
202 225 255
201 225 255
201 225 255
201 225 255
201 225 255
201 225 255
201 225 255
201 224 255
201 224 255
201 224 255
201 224 255
201 224 255
201 224 255
201 224 255
201 224 255
201 224 255
201 224 255
201 224 255
201 224 255
201 224 255
201 224 255
201 224 255
201 224 255
201 224 255
200 224 255
200 224 255
200 224 255
200 224 255
200 224 255
200 224 255
200 224 255
200 224 255
200 224 255
200 224 255
200 224 255
200 224 255
200 224 255
200 224 255
200 224 255
200 224 255
200 224 255
200 224 255
200 224 255
200 224 255
200 224 255
200 224 255
200 224 255
200 224 255
200 224 255
200 224 255
200 224 255
200 224 255
200 224 255
200 224 255
200 224 255
200 224 255
200 224 255
200 224 255
200 224 255
200 224 255
200 224 255
200 224 255
200 224 255
200 224 255
200 224 255
200 224 255
200 224 255
200 224 255
200 224 255
200 224 255
200 224 255
200 224 255
200 224 255
200 224 255
200 224 255
200 224 255
200 224 255
201 224 255
201 224 255
201 224 255
201 224 255
201 224 255
201 224 255
201 224 255
201 224 255
201 224 255
201 224 255
201 224 255
201 224 255
201 224 255
201 224 255
201 224 255
201 224 255
201 224 255
201 224 255
201 225 255
201 225 255
201 225 255
201 225 255
201 225 255
201 225 255
201 225 255
202 225 255
202 225 255
202 225 255
202 225 255
202 225 255
202 225 255
202 225 255
202 225 255
202 225 255
202 225 255
202 225 255
202 225 255
202 225 255
202 225 255
202 225 255
202 225 255
202 225 255
203 225 255
203 225 255
203 225 255
203 225 255
203 225 255
203 225 255
203 225 255
203 225 255
203 225 255
203 225 255
203 226 255
203 226 255
203 226 255
203 226 255
203 226 255
203 226 255
203 226 255
204 226 255
204 226 255
204 226 255
204 226 255
204 226 255
204 226 255
204 226 255
204 226 255
204 226 255
204 226 255
204 226 255
204 226 255
204 226 255
204 226 255
204 226 255
204 226 255
205 226 255
205 226 255
205 226 255
205 226 255
205 226 255
205 226 255
205 226 255
205 227 255
205 227 255
205 227 255
205 227 255
205 227 255
205 227 255
205 227 255
205 227 255
205 227 255
206 227 255
206 227 255
206 227 255
206 227 255
206 227 255
206 227 255
206 227 255
206 227 255
206 227 255
206 227 255
206 227 255
206 227 255
206 227 255
206 227 255
206 227 255
206 227 255
206 227 255
207 227 255
207 227 255
207 227 255
207 227 255
207 228 255
207 228 255
207 228 255
207 228 255
207 228 255
207 228 255
207 228 255
207 228 255
207 228 255
207 228 255
207 228 255
207 228 255
207 228 255
207 228 255
208 228 255
208 228 255
208 228 255
208 228 255
208 228 255
208 228 255
208 228 255
208 228 255
208 228 255
208 228 255
208 228 255
208 228 255
208 228 255
208 228 255
208 228 255
208 228 255
208 228 255
208 228 255
208 228 255
208 228 255
208 228 255
209 228 255
209 229 255
209 229 255
209 229 255
209 229 255
209 229 255
209 229 255
209 229 255
209 229 255
209 229 255
209 229 255
209 229 255
209 229 255
209 229 255
209 229 255
209 229 255
209 229 255
209 229 255
209 229 255
209 229 255
209 229 255
209 229 255
210 229 255
210 229 255
210 229 255
210 229 255
210 229 255
210 229 255
210 229 255
210 229 255
210 229 255
210 229 255
210 229 255
210 229 255
210 229 255
209 229 255
209 229 255
209 229 255
209 229 255
209 229 255
209 229 255
209 229 255
209 229 255
209 229 255
209 229 255
209 229 255
209 229 255
209 229 255
209 229 255
209 229 255
209 229 255
209 229 255
209 229 255
209 229 255
209 229 255
209 229 255
209 228 255
209 228 255
208 228 255
208 228 255
208 228 255
208 228 255
208 228 255
208 228 255
208 228 255
208 228 255
208 228 255
208 228 255
208 228 255
208 228 255
208 228 255
208 228 255
208 228 255
208 228 255
208 228 255
208 228 255
208 228 255
208 228 255
207 228 255
207 228 255
207 228 255
207 228 255
207 228 255
207 228 255
207 228 255
207 228 255
207 228 255
207 228 255
207 228 255
207 228 255
207 228 255
207 228 255
207 227 255
207 227 255
207 227 255
207 227 255
206 227 255
206 227 255
206 227 255
206 227 255
206 227 255
206 227 255
206 227 255
206 227 255
206 227 255
206 227 255
206 227 255
206 227 255
206 227 255
206 227 255
206 227 255
206 227 255
206 227 255
205 227 255
205 227 255
205 227 255
205 227 255
205 227 255
205 227 255
205 227 255
205 227 255
205 227 255
205 227 255
205 226 255
205 226 255
205 226 255
205 226 255
205 226 255
205 226 255
204 226 255
204 226 255
204 226 255
204 226 255
204 226 255
204 226 255
204 226 255
204 226 255
204 226 255
204 226 255
204 226 255
204 226 255
204 226 255
204 226 255
204 226 255
204 226 255
204 226 255
203 226 255
203 226 255
203 226 255
203 226 255
203 226 255
203 226 255
203 226 255
203 225 255
203 225 255
203 225 255
203 225 255
203 225 255
203 225 255
203 225 255
203 225 255
203 225 255
202 225 255
202 225 255
202 225 255
202 225 255
202 225 255
202 225 255
202 225 255
202 225 255
202 225 255
202 225 255
202 225 255
202 225 255
202 225 255
202 225 255
202 225 255
202 225 255
202 225 255
202 225 255
202 225 255
201 225 255
201 225 255
201 225 255
201 225 255
201 225 255
201 225 255
201 224 255
201 224 255
201 224 255
201 224 255
201 224 255
201 224 255
201 224 255
201 224 255
201 224 255
201 224 255
201 224 255
201 224 255
201 224 255
201 224 255
201 224 255
201 224 255
201 224 255
201 224 255
201 224 255
201 224 255
201 224 255
201 224 255
200 224 255
200 224 255
200 224 255
200 224 255
200 224 255
200 224 255
200 224 255
200 224 255
200 224 255
200 224 255
200 224 255
200 224 255
200 224 255
200 224 255
200 224 255
200 224 255
200 224 255
200 224 255
200 224 255
200 224 255
200 224 255
200 224 255
200 224 255
200 224 255
200 224 255
200 224 255
200 224 255
200 224 255
200 224 255
200 224 255
200 224 255
200 224 255
200 224 255
200 224 255
200 224 255
200 224 255
201 224 255
201 224 255
201 224 255
201 224 255
201 224 255
201 224 255
201 224 255
201 224 255
201 224 255
201 224 255
201 224 255
201 224 255
201 224 255
201 224 255
201 224 255
201 224 255
201 224 255
201 224 255
201 224 255
201 224 255
201 224 255
201 224 255
201 225 255
201 225 255
201 225 255
201 225 255
201 225 255
201 225 255
202 225 255
202 225 255
202 225 255
202 225 255
202 225 255
202 225 255
202 225 255
202 225 255
202 225 255
202 225 255
202 225 255
202 225 255
202 225 255
202 225 255
202 225 255
202 225 255
202 225 255
202 225 255
202 225 255
203 225 255
203 225 255
203 225 255
203 225 255
203 225 255
203 225 255
203 225 255
203 225 255
203 225 255
203 226 255
203 226 255
203 226 255
203 226 255
203 226 255
203 226 255
203 226 255
203 226 255
204 226 255
204 226 255
204 226 255
204 226 255
204 226 255
204 226 255
204 226 255
204 226 255
204 226 255
204 226 255
204 226 255
204 226 255
204 226 255
204 226 255
204 226 255
204 226 255
205 226 255
205 226 255
205 226 255
205 226 255
205 226 255
205 226 255
205 227 255
205 227 255
205 227 255
205 227 255
205 227 255
205 227 255
205 227 255
205 227 255
205 227 255
205 227 255
206 227 255
206 227 255
206 227 255
206 227 255
206 227 255
206 227 255
206 227 255
206 227 255
206 227 255
206 227 255
206 227 255
206 227 255
206 227 255
206 227 255
206 227 255
206 227 255
206 227 255
207 227 255
207 227 255
207 227 255
207 227 255
207 228 255
207 228 255
207 228 255
207 228 255
207 228 255
207 228 255
207 228 255
207 228 255
207 228 255
207 228 255
207 228 255
207 228 255
207 228 255
207 228 255
208 228 255
208 228 255
208 228 255
208 228 255
208 228 255
208 228 255
208 228 255
208 228 255
208 228 255
208 228 255
208 228 255
208 228 255
208 228 255
208 228 255
208 228 255
208 228 255
208 228 255
208 228 255
208 228 255
208 228 255
209 228 255
209 228 255
209 229 255
209 229 255
209 229 255
209 229 255
209 229 255
209 229 255
209 229 255
209 229 255
209 229 255
209 229 255
209 229 255
209 229 255
209 229 255
209 229 255
209 229 255
209 229 255
209 229 255
209 229 255
209 229 255
209 229 255
210 229 255
210 229 255
210 229 255
210 229 255
210 229 255
210 229 255
210 229 255
210 229 255
210 229 255
210 229 255
210 229 255
210 229 255
210 229 255
210 229 255
210 229 255
210 229 255
210 229 255
210 229 255
210 229 255
210 229 255
210 229 255
209 229 255
209 229 255
209 229 255
209 229 255
209 229 255
209 229 255
209 229 255
209 229 255
209 229 255
209 229 255
209 229 255
209 229 255
209 229 255
209 229 255
209 229 255
209 229 255
209 229 255
209 229 255
209 229 255
209 229 255
209 229 255
209 228 255
208 228 255
208 228 255
208 228 255
208 228 255
208 228 255
208 228 255
208 228 255
208 228 255
208 228 255
208 228 255
208 228 255
208 228 255
208 228 255
208 228 255
208 228 255
208 228 255
208 228 255
208 228 255
208 228 255
208 228 255
207 228 255
207 228 255
207 228 255
207 228 255
207 228 255
207 228 255
207 228 255
207 228 255
207 228 255
207 228 255
207 228 255
207 228 255
207 228 255
207 228 255
207 227 255
207 227 255
207 227 255
207 227 255
206 227 255
206 227 255
206 227 255
206 227 255
206 227 255
206 227 255
206 227 255
206 227 255
206 227 255
206 227 255
206 227 255
206 227 255
206 227 255
206 227 255
206 227 255
206 227 255
206 227 255
205 227 255
205 227 255
205 227 255
205 227 255
205 227 255
205 227 255
205 227 255
205 227 255
205 227 255
205 227 255
205 226 255
205 226 255
205 226 255
205 226 255
205 226 255
205 226 255
204 226 255
204 226 255
204 226 255
204 226 255
204 226 255
204 226 255
204 226 255
204 226 255
204 226 255
204 226 255
204 226 255
204 226 255
204 226 255
204 226 255
204 226 255
204 226 255
204 226 255
203 226 255
203 226 255
203 226 255
203 226 255
203 226 255
203 226 255
203 226 255
203 225 255
203 225 255
203 225 255
203 225 255
203 225 255
203 225 255
203 225 255
203 225 255
203 225 255
203 225 255
202 225 255
202 225 255
202 225 255
202 225 255
202 225 255
202 225 255
202 225 255
202 225 255
202 225 255
202 225 255
202 225 255
202 225 255
202 225 255
202 225 255
202 225 255
202 225 255
202 225 255
202 225 255
202 225 255
202 225 255
201 225 255
201 225 255
201 225 255
201 225 255
201 225 255
201 225 255
201 225 255
201 224 255
201 224 255
201 224 255
201 224 255
201 224 255
201 224 255
201 224 255
201 224 255
201 224 255
201 224 255
201 224 255
201 224 255
201 224 255
201 224 255
201 224 255
201 224 255
201 224 255
201 224 255
201 224 255
201 224 255
201 224 255
201 224 255
201 224 255
201 224 255
201 224 255
201 224 255
201 224 255
201 224 255
201 224 255
201 224 255
201 224 255
201 224 255
201 224 255
201 224 255
201 224 255
201 224 255
201 224 255
201 224 255
201 224 255
201 224 255
201 224 255
201 224 255
201 224 255
201 224 255
201 224 255
201 224 255
201 224 255
201 224 255
201 224 255
201 224 255
201 224 255
201 224 255
201 224 255
201 224 255
201 224 255
201 224 255
201 224 255
201 224 255
201 224 255
201 224 255
201 224 255
201 224 255
201 224 255
201 224 255
201 224 255
201 224 255
201 224 255
201 224 255
201 225 255
201 225 255
201 225 255
201 225 255
201 225 255
201 225 255
201 225 255
201 225 255
202 225 255
202 225 255
202 225 255
202 225 255
202 225 255
202 225 255
202 225 255
202 225 255
202 225 255
202 225 255
202 225 255
202 225 255
202 225 255
202 225 255
202 225 255
202 225 255
202 225 255
202 225 255
202 225 255
203 225 255
203 225 255
203 225 255
203 225 255
203 225 255
203 225 255
203 225 255
203 225 255
203 225 255
203 225 255
203 226 255
203 226 255
203 226 255
203 226 255
203 226 255
203 226 255
203 226 255
204 226 255
204 226 255
204 226 255
204 226 255
204 226 255
204 226 255
204 226 255
204 226 255
204 226 255
204 226 255
204 226 255
204 226 255
204 226 255
204 226 255
204 226 255
204 226 255
204 226 255
205 226 255
205 226 255
205 226 255
205 226 255
205 226 255
205 226 255
205 227 255
205 227 255
205 227 255
205 227 255
205 227 255
205 227 255
205 227 255
205 227 255
205 227 255
205 227 255
206 227 255
206 227 255
206 227 255
206 227 255
206 227 255
206 227 255
206 227 255
206 227 255
206 227 255
206 227 255
206 227 255
206 227 255
206 227 255
206 227 255
206 227 255
206 227 255
206 227 255
207 227 255
207 227 255
207 227 255
207 227 255
207 228 255
207 228 255
207 228 255
207 228 255
207 228 255
207 228 255
207 228 255
207 228 255
207 228 255
207 228 255
207 228 255
207 228 255
207 228 255
207 228 255
208 228 255
208 228 255
208 228 255
208 228 255
208 228 255
208 228 255
208 228 255
208 228 255
208 228 255
208 228 255
208 228 255
208 228 255
208 228 255
208 228 255
208 228 255
208 228 255
208 228 255
208 228 255
208 228 255
208 228 255
209 228 255
209 229 255
209 229 255
209 229 255
209 229 255
209 229 255
209 229 255
209 229 255
209 229 255
209 229 255
209 229 255
209 229 255
209 229 255
209 229 255
209 229 255
209 229 255
209 229 255
209 229 255
209 229 255
209 229 255
209 229 255
209 229 255
210 229 255
210 229 255
210 229 255
210 229 255
210 229 255
210 229 255
210 229 255
210 229 255
210 229 255
210 229 255
210 229 255
210 229 255
210 229 255
210 229 255
210 229 255
210 229 255
210 229 255
210 229 255
210 229 255
210 229 255
210 229 255
210 229 255
210 229 255
210 229 255
210 229 255
210 229 255
210 229 255
209 229 255
209 229 255
209 229 255
209 229 255
209 229 255
209 229 255
209 229 255
209 229 255
209 229 255
209 229 255
209 229 255
209 229 255
209 229 255
209 229 255
209 229 255
209 229 255
209 229 255
209 229 255
209 229 255
209 229 255
209 229 255
209 228 255
209 228 255
208 228 255
208 228 255
208 228 255
208 228 255
208 228 255
208 228 255
208 228 255
208 228 255
208 228 255
208 228 255
208 228 255
208 228 255
208 228 255
208 228 255
208 228 255
208 228 255
208 228 255
208 228 255
208 228 255
207 228 255
207 228 255
207 228 255
207 228 255
207 228 255
207 228 255
207 228 255
207 228 255
207 228 255
207 228 255
207 228 255
207 228 255
207 228 255
207 228 255
207 227 255
207 227 255
207 227 255
207 227 255
206 227 255
206 227 255
206 227 255
206 227 255
206 227 255
206 227 255
206 227 255
206 227 255
206 227 255
206 227 255
206 227 255
206 227 255
206 227 255
206 227 255
206 227 255
206 227 255
206 227 255
205 227 255
205 227 255
205 227 255
205 227 255
205 227 255
205 227 255
205 227 255
205 227 255
205 227 255
205 227 255
205 226 255
205 226 255
205 226 255
205 226 255
205 226 255
205 226 255
205 226 255
204 226 255
204 226 255
204 226 255
204 226 255
204 226 255
204 226 255
204 226 255
204 226 255
204 226 255
204 226 255
204 226 255
204 226 255
204 226 255
204 226 255
204 226 255
204 226 255
203 226 255
203 226 255
203 226 255
203 226 255
203 226 255
203 226 255
203 226 255
203 226 255
203 225 255
203 225 255
203 225 255
203 225 255
203 225 255
203 225 255
203 225 255
203 225 255
203 225 255
203 225 255
202 225 255
202 225 255
202 225 255
202 225 255
202 225 255
202 225 255
202 225 255
202 225 255
202 225 255
202 225 255
202 225 255
202 225 255
202 225 255
202 225 255
202 225 255
202 225 255
202 225 255
202 225 255
202 225 255
202 225 255
202 225 255
201 225 255
201 225 255
201 225 255
201 225 255
201 225 255
201 225 255
201 225 255
201 225 255
201 224 255
201 224 255
201 224 255
201 224 255
201 224 255
201 224 255
201 224 255
201 224 255
201 224 255
201 224 255
201 224 255
201 224 255
201 224 255
201 224 255
201 224 255
201 224 255
201 224 255
201 224 255
201 224 255
201 224 255
201 224 255
201 224 255
201 224 255
201 224 255
201 224 255
201 224 255
201 224 255
201 224 255
201 224 255
201 224 255
201 224 255
201 224 255
201 224 255
201 224 255
201 224 255
201 224 255
201 224 255
201 224 255
201 224 255
201 224 255
201 224 255
201 224 255
201 224 255
201 224 255
201 224 255
201 224 255
201 224 255
201 224 255
201 224 255
201 224 255
201 224 255
201 224 255
201 224 255
201 224 255
201 224 255
201 224 255
201 225 255
201 225 255
201 225 255
201 225 255
201 225 255
201 225 255
201 225 255
201 225 255
202 225 255
202 225 255
202 225 255
202 225 255
202 225 255
202 225 255
202 225 255
202 225 255
202 225 255
202 225 255
202 225 255
202 225 255
202 225 255
202 225 255
202 225 255
202 225 255
202 225 255
202 225 255
202 225 255
202 225 255
202 225 255
203 225 255
203 225 255
203 225 255
203 225 255
203 225 255
203 225 255
203 225 255
203 225 255
203 225 255
203 225 255
203 226 255
203 226 255
203 226 255
203 226 255
203 226 255
203 226 255
203 226 255
203 226 255
204 226 255
204 226 255
204 226 255
204 226 255
204 226 255
204 226 255
204 226 255
204 226 255
204 226 255
204 226 255
204 226 255
204 226 255
204 226 255
204 226 255
204 226 255
204 226 255
205 226 255
205 226 255
205 226 255
205 226 255
205 226 255
205 226 255
205 226 255
205 227 255
205 227 255
205 227 255
205 227 255
205 227 255
205 227 255
205 227 255
205 227 255
205 227 255
205 227 255
206 227 255
206 227 255
206 227 255
206 227 255
206 227 255
206 227 255
206 227 255
206 227 255
206 227 255
206 227 255
206 227 255
206 227 255
206 227 255
206 227 255
206 227 255
206 227 255
206 227 255
207 227 255
207 227 255
207 227 255
207 227 255
207 228 255
207 228 255
207 228 255
207 228 255
207 228 255
207 228 255
207 228 255
207 228 255
207 228 255
207 228 255
207 228 255
207 228 255
207 228 255
207 228 255
208 228 255
208 228 255
208 228 255
208 228 255
208 228 255
208 228 255
208 228 255
208 228 255
208 228 255
208 228 255
208 228 255
208 228 255
208 228 255
208 228 255
208 228 255
208 228 255
208 228 255
208 228 255
208 228 255
209 228 255
209 228 255
209 229 255
209 229 255
209 229 255
209 229 255
209 229 255
209 229 255
209 229 255
209 229 255
209 229 255
209 229 255
209 229 255
209 229 255
209 229 255
209 229 255
209 229 255
209 229 255
209 229 255
209 229 255
209 229 255
209 229 255
210 229 255
210 229 255
210 229 255
210 229 255
210 229 255
210 229 255
210 229 255
210 229 255
210 229 255
210 229 255
210 229 255
210 229 255
210 229 255
210 229 255
210 229 255
210 229 255
210 229 255
210 229 255
210 229 255
210 229 255
210 229 255
210 229 255
210 229 255
210 229 255
210 229 255
210 229 255
210 229 255
210 229 255
210 229 255
210 229 255
210 229 255
210 229 255
210 229 255
210 229 255
210 229 255
209 229 255
209 229 255
209 229 255
209 229 255
209 229 255
209 229 255
209 229 255
209 229 255
209 229 255
209 229 255
209 229 255
209 229 255
209 229 255
209 229 255
209 229 255
209 229 255
209 229 255
209 229 255
209 229 255
209 229 255
209 229 255
209 228 255
208 228 255
208 228 255
208 228 255
208 228 255
208 228 255
208 228 255
208 228 255
208 228 255
208 228 255
208 228 255
208 228 255
208 228 255
208 228 255
208 228 255
208 228 255
208 228 255
208 228 255
208 228 255
208 228 255
207 228 255
207 228 255
207 228 255
207 228 255
207 228 255
207 228 255
207 228 255
207 228 255
207 228 255
207 228 255
207 228 255
207 228 255
207 228 255
207 228 255
207 227 255
207 227 255
207 227 255
207 227 255
207 227 255
206 227 255
206 227 255
206 227 255
206 227 255
206 227 255
206 227 255
206 227 255
206 227 255
206 227 255
206 227 255
206 227 255
206 227 255
206 227 255
206 227 255
206 227 255
206 227 255
206 227 255
205 227 255
205 227 255
205 227 255
205 227 255
205 227 255
205 227 255
205 227 255
205 227 255
205 227 255
205 226 255
205 226 255
205 226 255
205 226 255
205 226 255
205 226 255
205 226 255
204 226 255
204 226 255
204 226 255
204 226 255
204 226 255
204 226 255
204 226 255
204 226 255
204 226 255
204 226 255
204 226 255
204 226 255
204 226 255
204 226 255
204 226 255
204 226 255
204 226 255
203 226 255
203 226 255
203 226 255
203 226 255
203 226 255
203 226 255
203 226 255
203 225 255
203 225 255
203 225 255
203 225 255
203 225 255
203 225 255
203 225 255
203 225 255
203 225 255
203 225 255
203 225 255
202 225 255
202 225 255
202 225 255
202 225 255
202 225 255
202 225 255
202 225 255
202 225 255
202 225 255
202 225 255
202 225 255
202 225 255
202 225 255
202 225 255
202 225 255
202 225 255
202 225 255
202 225 255
202 225 255
202 225 255
202 225 255
202 225 255
201 225 255
201 225 255
201 225 255
201 225 255
201 225 255
201 225 255
201 225 255
201 225 255
201 225 255
201 225 255
201 225 255
201 224 255
201 224 255
201 224 255
201 224 255
201 224 255
201 224 255
201 224 255
201 224 255
201 224 255
201 224 255
201 224 255
201 224 255
201 224 255
201 224 255
201 224 255
201 224 255
201 224 255
201 224 255
201 224 255
201 224 255
201 224 255
201 224 255
201 224 255
201 224 255
201 224 255
201 224 255
201 224 255
201 224 255
201 224 255
201 224 255
201 224 255
201 224 255
201 224 255
201 224 255
201 224 255
201 224 255
201 224 255
201 224 255
201 224 255
201 224 255
201 225 255
201 225 255
201 225 255
201 225 255
201 225 255
201 225 255
201 225 255
201 225 255
201 225 255
201 225 255
201 225 255
202 225 255
202 225 255
202 225 255
202 225 255
202 225 255
202 225 255
202 225 255
202 225 255
202 225 255
202 225 255
202 225 255
202 225 255
202 225 255
202 225 255
202 225 255
202 225 255
202 225 255
202 225 255
202 225 255
202 225 255
202 225 255
202 225 255
203 225 255
203 225 255
203 225 255
203 225 255
203 225 255
203 225 255
203 225 255
203 225 255
203 225 255
203 225 255
203 225 255
203 226 255
203 226 255
203 226 255
203 226 255
203 226 255
203 226 255
203 226 255
204 226 255
204 226 255
204 226 255
204 226 255
204 226 255
204 226 255
204 226 255
204 226 255
204 226 255
204 226 255
204 226 255
204 226 255
204 226 255
204 226 255
204 226 255
204 226 255
204 226 255
205 226 255
205 226 255
205 226 255
205 226 255
205 226 255
205 226 255
205 226 255
205 227 255
205 227 255
205 227 255
205 227 255
205 227 255
205 227 255
205 227 255
205 227 255
205 227 255
205 227 255
206 227 255
206 227 255
206 227 255
206 227 255
206 227 255
206 227 255
206 227 255
206 227 255
206 227 255
206 227 255
206 227 255
206 227 255
206 227 255
206 227 255
206 227 255
206 227 255
207 227 255
207 227 255
207 227 255
207 227 255
207 227 255
207 228 255
207 228 255
207 228 255
207 228 255
207 228 255
207 228 255
207 228 255
207 228 255
207 228 255
207 228 255
207 228 255
207 228 255
207 228 255
208 228 255
208 228 255
208 228 255
208 228 255
208 228 255
208 228 255
208 228 255
208 228 255
208 228 255
208 228 255
208 228 255
208 228 255
208 228 255
208 228 255
208 228 255
208 228 255
208 228 255
208 228 255
208 228 255
208 228 255
209 228 255
209 229 255
209 229 255
209 229 255
209 229 255
209 229 255
209 229 255
209 229 255
209 229 255
209 229 255
209 229 255
209 229 255
209 229 255
209 229 255
209 229 255
209 229 255
209 229 255
209 229 255
209 229 255
209 229 255
209 229 255
209 229 255
210 229 255
210 229 255
210 229 255
210 229 255
210 229 255
210 229 255
210 229 255
210 229 255
210 229 255
210 229 255
210 229 255
210 229 255
210 229 255
210 229 255
210 229 255
210 229 255
210 229 255
210 229 255
210 229 255
210 230 255
210 229 255
210 229 255
210 229 255
210 229 255
210 229 255
210 229 255
210 229 255
210 229 255
210 229 255
210 229 255
210 229 255
210 229 255
210 229 255
210 229 255
210 229 255
210 229 255
210 229 255
210 229 255
210 229 255
210 229 255
210 229 255
210 229 255
209 229 255
209 229 255
209 229 255
209 229 255
209 229 255
209 229 255
209 229 255
209 229 255
209 229 255
209 229 255
209 229 255
209 229 255
209 229 255
209 229 255
209 229 255
209 229 255
209 229 255
209 229 255
209 229 255
209 229 255
209 228 255
208 228 255
208 228 255
208 228 255
208 228 255
208 228 255
208 228 255
208 228 255
208 228 255
208 228 255
208 228 255
208 228 255
208 228 255
208 228 255
208 228 255
208 228 255
208 228 255
208 228 255
208 228 255
208 228 255
208 228 255
207 228 255
207 228 255
207 228 255
207 228 255
207 228 255
207 228 255
207 228 255
207 228 255
207 228 255
207 228 255
207 228 255
207 228 255
207 228 255
207 228 255
207 227 255
207 227 255
207 227 255
207 227 255
206 227 255
206 227 255
206 227 255
206 227 255
206 227 255
206 227 255
206 227 255
206 227 255
206 227 255
206 227 255
206 227 255
206 227 255
206 227 255
206 227 255
206 227 255
206 227 255
206 227 255
205 227 255
205 227 255
205 227 255
205 227 255
205 227 255
205 227 255
205 227 255
205 227 255
205 227 255
205 227 255
205 226 255
205 226 255
205 226 255
205 226 255
205 226 255
205 226 255
204 226 255
204 226 255
204 226 255
204 226 255
204 226 255
204 226 255
204 226 255
204 226 255
204 226 255
204 226 255
204 226 255
204 226 255
204 226 255
204 226 255
204 226 255
204 226 255
204 226 255
204 226 255
203 226 255
203 226 255
203 226 255
203 226 255
203 226 255
203 226 255
203 226 255
203 225 255
203 225 255
203 225 255
203 225 255
203 225 255
203 225 255
203 225 255
203 225 255
203 225 255
203 225 255
203 225 255
202 225 255
202 225 255
202 225 255
202 225 255
202 225 255
202 225 255
202 225 255
202 225 255
202 225 255
202 225 255
202 225 255
202 225 255
202 225 255
202 225 255
202 225 255
202 225 255
202 225 255
202 225 255
202 225 255
202 225 255
202 225 255
202 225 255
202 225 255
202 225 255
202 225 255
202 225 255
201 225 255
201 225 255
201 225 255
201 225 255
201 225 255
201 225 255
201 225 255
201 225 255
201 225 255
201 225 255
201 225 255
201 225 255
201 225 255
201 225 255
201 225 255
201 225 255
201 225 255
201 225 255
201 224 255
201 224 255
201 224 255
201 224 255
201 224 255
201 224 255
201 224 255
201 224 255
201 224 255
201 224 255
201 224 255
201 225 255
201 225 255
201 225 255
201 225 255
201 225 255
201 225 255
201 225 255
201 225 255
201 225 255
201 225 255
201 225 255
201 225 255
201 225 255
201 225 255
201 225 255
201 225 255
201 225 255
202 225 255
202 225 255
202 225 255
202 225 255
202 225 255
202 225 255
202 225 255
202 225 255
202 225 255
202 225 255
202 225 255
202 225 255
202 225 255
202 225 255
202 225 255
202 225 255
202 225 255
202 225 255
202 225 255
202 225 255
202 225 255
202 225 255
202 225 255
202 225 255
202 225 255
202 225 255
203 225 255
203 225 255
203 225 255
203 225 255
203 225 255
203 225 255
203 225 255
203 225 255
203 225 255
203 225 255
203 225 255
203 226 255
203 226 255
203 226 255
203 226 255
203 226 255
203 226 255
203 226 255
203 226 255
204 226 255
204 226 255
204 226 255
204 226 255
204 226 255
204 226 255
204 226 255
204 226 255
204 226 255
204 226 255
204 226 255
204 226 255
204 226 255
204 226 255
204 226 255
204 226 255
204 226 255
205 226 255
205 226 255
205 226 255
205 226 255
205 226 255
205 226 255
205 227 255
205 227 255
205 227 255
205 227 255
205 227 255
205 227 255
205 227 255
205 227 255
205 227 255
205 227 255
206 227 255
206 227 255
206 227 255
206 227 255
206 227 255
206 227 255
206 227 255
206 227 255
206 227 255
206 227 255
206 227 255
206 227 255
206 227 255
206 227 255
206 227 255
206 227 255
206 227 255
207 227 255
207 227 255
207 227 255
207 227 255
207 228 255
207 228 255
207 228 255
207 228 255
207 228 255
207 228 255
207 228 255
207 228 255
207 228 255
207 228 255
207 228 255
207 228 255
207 228 255
207 228 255
208 228 255
208 228 255
208 228 255
208 228 255
208 228 255
208 228 255
208 228 255
208 228 255
208 228 255
208 228 255
208 228 255
208 228 255
208 228 255
208 228 255
208 228 255
208 228 255
208 228 255
208 228 255
208 228 255
208 228 255
209 228 255
209 229 255
209 229 255
209 229 255
209 229 255
209 229 255
209 229 255
209 229 255
209 229 255
209 229 255
209 229 255
209 229 255
209 229 255
209 229 255
209 229 255
209 229 255
209 229 255
209 229 255
209 229 255
209 229 255
209 229 255
210 229 255
210 229 255
210 229 255
210 229 255
210 229 255
210 229 255
210 229 255
210 229 255
210 229 255
210 229 255
210 229 255
210 229 255
210 229 255
210 229 255
210 229 255
210 229 255
210 229 255
210 229 255
210 229 255
210 229 255
210 229 255
210 229 255
210 230 255
211 230 255
211 230 255
211 230 255
210 230 255
210 230 255
210 229 255
210 229 255
210 229 255
210 229 255
210 229 255
210 229 255
210 229 255
210 229 255
210 229 255
210 229 255
210 229 255
210 229 255
210 229 255
210 229 255
210 229 255
210 229 255
210 229 255
210 229 255
210 229 255
210 229 255
210 229 255
210 229 255
209 229 255
209 229 255
209 229 255
209 229 255
209 229 255
209 229 255
209 229 255
209 229 255
209 229 255
209 229 255
209 229 255
209 229 255
209 229 255
209 229 255
209 229 255
209 229 255
209 229 255
209 229 255
209 229 255
209 229 255
209 228 255
208 228 255
208 228 255
208 228 255
208 228 255
208 228 255
208 228 255
208 228 255
208 228 255
208 228 255
208 228 255
208 228 255
208 228 255
208 228 255
208 228 255
208 228 255
208 228 255
208 228 255
208 228 255
208 228 255
207 228 255
207 228 255
207 228 255
207 228 255
207 228 255
207 228 255
207 228 255
207 228 255
207 228 255
207 228 255
207 228 255
207 228 255
207 228 255
207 228 255
207 227 255
207 227 255
207 227 255
207 227 255
206 227 255
206 227 255
206 227 255
206 227 255
206 227 255
206 227 255
206 227 255
206 227 255
206 227 255
206 227 255
206 227 255
206 227 255
206 227 255
206 227 255
206 227 255
206 227 255
206 227 255
205 227 255
205 227 255
205 227 255
205 227 255
205 227 255
205 227 255
205 227 255
205 227 255
205 227 255
205 227 255
205 226 255
205 226 255
205 226 255
205 226 255
205 226 255
205 226 255
205 226 255
204 226 255
204 226 255
204 226 255
204 226 255
204 226 255
204 226 255
204 226 255
204 226 255
204 226 255
204 226 255
204 226 255
204 226 255
204 226 255
204 226 255
204 226 255
204 226 255
204 226 255
203 226 255
203 226 255
203 226 255
203 226 255
203 226 255
203 226 255
203 226 255
203 226 255
203 225 255
203 225 255
203 225 255
203 225 255
203 225 255
203 225 255
203 225 255
203 225 255
203 225 255
203 225 255
203 225 255
203 225 255
202 225 255
202 225 255
202 225 255
202 225 255
202 225 255
202 225 255
202 225 255
202 225 255
202 225 255
202 225 255
202 225 255
202 225 255
202 225 255
202 225 255
202 225 255
202 225 255
202 225 255
202 225 255
202 225 255
202 225 255
202 225 255
202 225 255
202 225 255
202 225 255
202 225 255
202 225 255
202 225 255
202 225 255
202 225 255
202 225 255
202 225 255
202 225 255
201 225 255
201 225 255
201 225 255
201 225 255
201 225 255
201 225 255
201 225 255
201 225 255
201 225 255
201 225 255
201 225 255
201 225 255
201 225 255
201 225 255
201 225 255
201 225 255
201 225 255
201 225 255
201 225 255
201 225 255
201 225 255
201 225 255
201 225 255
201 225 255
202 225 255
202 225 255
202 225 255
202 225 255
202 225 255
202 225 255
202 225 255
202 225 255
202 225 255
202 225 255
202 225 255
202 225 255
202 225 255
202 225 255
202 225 255
202 225 255
202 225 255
202 225 255
202 225 255
202 225 255
202 225 255
202 225 255
202 225 255
202 225 255
202 225 255
202 225 255
202 225 255
202 225 255
202 225 255
202 225 255
202 225 255
202 225 255
203 225 255
203 225 255
203 225 255
203 225 255
203 225 255
203 225 255
203 225 255
203 225 255
203 225 255
203 225 255
203 225 255
203 225 255
203 226 255
203 226 255
203 226 255
203 226 255
203 226 255
203 226 255
203 226 255
203 226 255
204 226 255
204 226 255
204 226 255
204 226 255
204 226 255
204 226 255
204 226 255
204 226 255
204 226 255
204 226 255
204 226 255
204 226 255
204 226 255
204 226 255
204 226 255
204 226 255
204 226 255
205 226 255
205 226 255
205 226 255
205 226 255
205 226 255
205 226 255
205 226 255
205 227 255
205 227 255
205 227 255
205 227 255
205 227 255
205 227 255
205 227 255
205 227 255
205 227 255
205 227 255
206 227 255
206 227 255
206 227 255
206 227 255
206 227 255
206 227 255
206 227 255
206 227 255
206 227 255
206 227 255
206 227 255
206 227 255
206 227 255
206 227 255
206 227 255
206 227 255
206 227 255
207 227 255
207 227 255
207 227 255
207 227 255
207 228 255
207 228 255
207 228 255
207 228 255
207 228 255
207 228 255
207 228 255
207 228 255
207 228 255
207 228 255
207 228 255
207 228 255
207 228 255
207 228 255
208 228 255
208 228 255
208 228 255
208 228 255
208 228 255
208 228 255
208 228 255
208 228 255
208 228 255
208 228 255
208 228 255
208 228 255
208 228 255
208 228 255
208 228 255
208 228 255
208 228 255
208 228 255
208 228 255
209 228 255
209 228 255
209 229 255
209 229 255
209 229 255
209 229 255
209 229 255
209 229 255
209 229 255
209 229 255
209 229 255
209 229 255
209 229 255
209 229 255
209 229 255
209 229 255
209 229 255
209 229 255
209 229 255
209 229 255
209 229 255
210 229 255
210 229 255
210 229 255
210 229 255
210 229 255
210 229 255
210 229 255
210 229 255
210 229 255
210 229 255
210 229 255
210 229 255
210 229 255
210 229 255
210 229 255
210 229 255
210 229 255
210 229 255
210 229 255
210 229 255
210 229 255
210 229 255
210 230 255
210 230 255
210 230 255
211 230 255
211 230 255
211 230 255
211 230 255
211 230 255
211 230 255
211 230 255
211 230 255
210 230 255
210 230 255
210 230 255
210 229 255
210 229 255
210 229 255
210 229 255
210 229 255
210 229 255
210 229 255
210 229 255
210 229 255
210 229 255
210 229 255
210 229 255
210 229 255
210 229 255
210 229 255
210 229 255
210 229 255
210 229 255
210 229 255
210 229 255
210 229 255
209 229 255
209 229 255
209 229 255
209 229 255
209 229 255
209 229 255
209 229 255
209 229 255
209 229 255
209 229 255
209 229 255
209 229 255
209 229 255
209 229 255
209 229 255
209 229 255
209 229 255
209 229 255
209 229 255
209 229 255
209 228 255
209 228 255
208 228 255
208 228 255
208 228 255
208 228 255
208 228 255
208 228 255
208 228 255
208 228 255
208 228 255
208 228 255
208 228 255
208 228 255
208 228 255
208 228 255
208 228 255
208 228 255
208 228 255
208 228 255
208 228 255
207 228 255
207 228 255
207 228 255
207 228 255
207 228 255
207 228 255
207 228 255
207 228 255
207 228 255
207 228 255
207 228 255
207 228 255
207 228 255
207 227 255
207 227 255
207 227 255
207 227 255
207 227 255
206 227 255
206 227 255
206 227 255
206 227 255
206 227 255
206 227 255
206 227 255
206 227 255
206 227 255
206 227 255
206 227 255
206 227 255
206 227 255
206 227 255
206 227 255
206 227 255
206 227 255
205 227 255
205 227 255
205 227 255
205 227 255
205 227 255
205 227 255
205 227 255
205 227 255
205 227 255
205 227 255
205 226 255
205 226 255
205 226 255
205 226 255
205 226 255
205 226 255
204 226 255
204 226 255
204 226 255
204 226 255
204 226 255
204 226 255
204 226 255
204 226 255
204 226 255
204 226 255
204 226 255
204 226 255
204 226 255
204 226 255
204 226 255
204 226 255
204 226 255
204 226 255
203 226 255
203 226 255
203 226 255
203 226 255
203 226 255
203 226 255
203 226 255
203 226 255
203 226 255
203 225 255
203 225 255
203 225 255
203 225 255
203 225 255
203 225 255
203 225 255
203 225 255
203 225 255
203 225 255
203 225 255
203 225 255
202 225 255
202 225 255
202 225 255
202 225 255
202 225 255
202 225 255
202 225 255
202 225 255
202 225 255
202 225 255
202 225 255
202 225 255
202 225 255
202 225 255
202 225 255
202 225 255
202 225 255
202 225 255
202 225 255
202 225 255
202 225 255
202 225 255
202 225 255
202 225 255
202 225 255
202 225 255
202 225 255
202 225 255
202 225 255
202 225 255
202 225 255
202 225 255
202 225 255
202 225 255
202 225 255
202 225 255
202 225 255
202 225 255
202 225 255
202 225 255
202 225 255
202 225 255
202 225 255
202 225 255
202 225 255
202 225 255
202 225 255
202 225 255
202 225 255
202 225 255
202 225 255
202 225 255
202 225 255
202 225 255
202 225 255
202 225 255
202 225 255
202 225 255
202 225 255
202 225 255
202 225 255
202 225 255
202 225 255
202 225 255
202 225 255
202 225 255
202 225 255
202 225 255
202 225 255
202 225 255
202 225 255
202 225 255
202 225 255
202 225 255
202 225 255
202 225 255
202 225 255
202 225 255
203 225 255
203 225 255
203 225 255
203 225 255
203 225 255
203 225 255
203 225 255
203 225 255
203 225 255
203 225 255
203 225 255
203 225 255
203 226 255
203 226 255
203 226 255
203 226 255
203 226 255
203 226 255
203 226 255
203 226 255
203 226 255
204 226 255
204 226 255
204 226 255
204 226 255
204 226 255
204 226 255
204 226 255
204 226 255
204 226 255
204 226 255
204 226 255
204 226 255
204 226 255
204 226 255
204 226 255
204 226 255
204 226 255
204 226 255
205 226 255
205 226 255
205 226 255
205 226 255
205 226 255
205 226 255
205 227 255
205 227 255
205 227 255
205 227 255
205 227 255
205 227 255
205 227 255
205 227 255
205 227 255
205 227 255
205 227 255
206 227 255
206 227 255
206 227 255
206 227 255
206 227 255
206 227 255
206 227 255
206 227 255
206 227 255
206 227 255
206 227 255
206 227 255
206 227 255
206 227 255
206 227 255
206 227 255
207 227 255
207 227 255
207 227 255
207 227 255
207 227 255
207 228 255
207 228 255
207 228 255
207 228 255
207 228 255
207 228 255
207 228 255
207 228 255
207 228 255
207 228 255
207 228 255
207 228 255
207 228 255
208 228 255
208 228 255
208 228 255
208 228 255
208 228 255
208 228 255
208 228 255
208 228 255
208 228 255
208 228 255
208 228 255
208 228 255
208 228 255
208 228 255
208 228 255
208 228 255
208 228 255
208 228 255
208 228 255
208 228 255
209 228 255
209 229 255
209 229 255
209 229 255
209 229 255
209 229 255
209 229 255
209 229 255
209 229 255
209 229 255
209 229 255
209 229 255
209 229 255
209 229 255
209 229 255
209 229 255
209 229 255
209 229 255
209 229 255
209 229 255
209 229 255
210 229 255
210 229 255
210 229 255
210 229 255
210 229 255
210 229 255
210 229 255
210 229 255
210 229 255
210 229 255
210 229 255
210 229 255
210 229 255
210 229 255
210 229 255
210 229 255
210 229 255
210 229 255
210 229 255
210 229 255
210 229 255
210 230 255
210 230 255
211 230 255
211 230 255
211 230 255
211 230 255
211 230 255
211 230 255
211 230 255
211 230 255
211 230 255
211 230 255
211 230 255
211 230 255
211 230 255
211 230 255
211 230 255
211 230 255
211 230 255
210 230 255
210 230 255
210 230 255
210 229 255
210 229 255
210 229 255
210 229 255
210 229 255
210 229 255
210 229 255
210 229 255
210 229 255
210 229 255
210 229 255
210 229 255
210 229 255
210 229 255
210 229 255
210 229 255
210 229 255
210 229 255
210 229 255
210 229 255
210 229 255
209 229 255
209 229 255
209 229 255
209 229 255
209 229 255
209 229 255
209 229 255
209 228 254
209 229 255
210 229 255
210 229 255
210 229 255
209 229 255
208 228 254
210 229 255
209 229 254
208 228 254
209 229 254
209 229 254
208 228 253
209 229 255
209 228 254
208 228 255
208 228 254
209 229 255
208 228 255
208 228 255
208 228 255
208 228 255
208 228 255
208 228 255
208 228 255
208 228 255
208 228 255
208 228 255
208 228 255
208 228 255
208 228 255
208 228 255
208 228 255
207 228 255
207 228 255
207 228 255
207 228 255
207 228 255
207 228 255
207 228 255
207 228 255
207 228 255
207 228 255
207 228 255
207 228 255
207 228 255
207 228 255
207 227 255
207 227 255
207 227 255
207 227 255
206 227 255
206 227 255
206 227 255
206 227 255
206 227 255
206 227 255
206 227 255
206 227 255
206 227 255
206 227 255
206 227 255
206 227 255
206 227 255
206 227 255
206 227 255
206 227 255
206 227 255
205 227 255
205 227 255
205 227 255
205 227 255
205 227 255
205 227 255
205 227 255
205 227 255
205 227 255
205 227 255
205 226 255
205 226 255
205 226 255
205 226 255
205 226 255
205 226 255
205 226 255
204 226 255
204 226 255
204 226 255
204 226 255
204 226 255
204 226 255
204 226 255
204 226 255
204 226 255
204 226 255
204 226 255
204 226 255
204 226 255
204 226 255
204 226 255
204 226 255
204 226 255
204 226 255
204 226 255
203 226 255
203 226 255
203 226 255
203 226 255
203 226 255
203 226 255
203 226 255
203 226 255
203 225 255
203 225 255
203 225 255
203 225 255
203 225 255
203 225 255
203 225 255
203 225 255
203 225 255
203 225 255
203 225 255
203 225 255
203 225 255
203 225 255
202 225 255
202 225 255
202 225 255
202 225 255
202 225 255
202 225 255
202 225 255
202 225 255
202 225 255
202 225 255
202 225 255
202 225 255
202 225 255
202 225 255
202 225 255
202 225 255
202 225 255
202 225 255
202 225 255
202 225 255
202 225 255
202 225 255
202 225 255
202 225 255
202 225 255
202 225 255
202 225 255
202 225 255
202 225 255
202 225 255
202 225 255
202 225 255
202 225 255
202 225 255
202 225 255
202 225 255
202 225 255
202 225 255
202 225 255
202 225 255
202 225 255
202 225 255
202 225 255
202 225 255
202 225 255
202 225 255
202 225 255
202 225 255
202 225 255
202 225 255
202 225 255
202 225 255
202 225 255
202 225 255
202 225 255
202 225 255
202 225 255
202 225 255
202 225 255
202 225 255
202 225 255
202 225 255
202 225 255
202 225 255
202 225 255
202 225 255
203 225 255
203 225 255
203 225 255
203 225 255
203 225 255
203 225 255
203 225 255
203 225 255
203 225 255
203 225 255
203 225 255
203 225 255
203 225 255
203 225 255
203 226 255
203 226 255
203 226 255
203 226 255
203 226 255
203 226 255
203 226 255
203 226 255
203 226 255
204 226 255
204 226 255
204 226 255
204 226 255
204 226 255
204 226 255
204 226 255
204 226 255
204 226 255
204 226 255
204 226 255
204 226 255
204 226 255
204 226 255
204 226 255
204 226 255
204 226 255
204 226 255
205 226 255
205 226 255
205 226 255
205 226 255
205 226 255
205 226 255
205 226 255
205 227 255
205 227 255
205 227 255
205 227 255
205 227 255
205 227 255
205 227 255
205 227 255
205 227 255
205 227 255
206 227 255
206 227 255
206 227 255
206 227 255
206 227 255
206 227 255
206 227 255
206 227 255
206 227 255
206 227 255
206 227 255
206 227 255
206 227 255
206 227 255
206 227 255
206 227 255
206 227 255
207 227 255
207 227 255
207 227 255
207 227 255
207 228 255
207 228 255
207 228 255
207 228 255
207 228 255
207 228 255
207 228 255
207 228 255
207 228 255
207 228 255
207 228 255
207 228 255
207 228 255
207 228 255
208 228 255
208 228 255
208 228 255
208 228 255
208 228 255
208 228 255
208 228 255
208 228 255
208 228 255
208 228 255
208 228 255
208 228 255
207 226 252
199 217 242
200 217 239
190 206 225
197 213 232
194 209 224
190 206 221
181 195 206
173 187 199
177 189 196
173 186 198
171 182 188
179 192 201
171 183 192
184 197 207
182 194 203
188 203 219
185 200 214
188 202 217
193 208 223
201 219 242
198 214 234
201 219 243
209 229 255
209 229 255
209 229 255
209 229 255
209 229 255
210 229 255
210 229 255
210 229 255
210 229 255
210 229 255
210 229 255
210 229 255
210 229 255
210 229 255
210 229 255
210 229 255
210 229 255
210 229 255
210 229 255
210 229 255
210 229 255
210 229 255
210 229 255
210 229 255
210 229 255
210 229 255
210 230 255
210 230 255
210 230 255
211 230 255
211 230 255
211 230 255
211 230 255
211 230 255
211 230 255
211 230 255
211 230 255
211 230 255
211 230 255
211 230 255
211 230 255
211 230 255
211 230 255
211 230 255
211 230 255
211 230 255
211 230 255
211 230 255
211 230 255
211 230 255
211 230 255
211 230 255
211 230 255
210 230 255
210 230 255
210 230 255
210 229 255
210 229 255
210 229 255
210 229 255
210 229 255
210 229 255
210 229 255
210 229 255
210 229 255
210 229 255
210 229 255
210 229 255
210 229 255
210 229 255
210 229 255
210 230 255
210 229 255
209 229 254
210 229 255
209 229 253
209 228 252
210 229 254
208 228 253
208 228 253
209 229 255
208 228 255
208 228 254
207 227 252
210 229 255
208 228 254
207 227 253
207 228 255
206 227 250
207 227 250
208 228 255
207 228 255
207 228 254
207 227 252
207 228 255
206 227 254
207 227 252
208 228 253
209 228 253
208 228 253
208 228 255
207 228 254
208 228 255
205 227 253
208 228 254
208 228 255
208 228 255
208 228 255
208 228 255
208 228 255
208 228 255
208 228 255
208 228 255
208 228 255
208 228 255
208 228 255
208 228 255
207 228 255
207 228 255
207 228 255
207 228 255
207 228 255
207 228 255
207 228 255
207 228 255
207 228 255
207 228 255
207 228 255
207 228 255
207 228 255
207 227 255
207 227 255
207 227 255
207 227 255
206 227 255
206 227 255
206 227 255
206 227 255
206 227 255
206 227 255
206 227 255
206 227 255
206 227 255
206 227 255
206 227 255
206 227 255
206 227 255
206 227 255
206 227 255
206 227 255
206 227 255
206 227 255
205 227 255
205 227 255
205 227 255
205 227 255
205 227 255
205 227 255
205 227 255
205 227 255
205 227 255
205 227 255
205 226 255
205 226 255
205 226 255
205 226 255
205 226 255
205 226 255
205 226 255
204 226 255
204 226 255
204 226 255
204 226 255
204 226 255
204 226 255
204 226 255
204 226 255
204 226 255
204 226 255
204 226 255
204 226 255
204 226 255
204 226 255
204 226 255
204 226 255
204 226 255
204 226 255
204 226 255
203 226 255
203 226 255
203 226 255
203 226 255
203 226 255
203 226 255
203 226 255
203 226 255
203 226 255
203 225 255
203 225 255
203 225 255
203 225 255
203 225 255
203 225 255
203 225 255
203 225 255
203 225 255
203 225 255
203 225 255
203 225 255
203 225 255
203 225 255
203 225 255
203 225 255
202 225 255
202 225 255
202 225 255
202 225 255
202 225 255
202 225 255
202 225 255
202 225 255
202 225 255
202 225 255
202 225 255
202 225 255
202 225 255
202 225 255
202 225 255
202 225 255
202 225 255
202 225 255
202 225 255
202 225 255
202 225 255
202 225 255
202 225 255
202 225 255
202 225 255
202 225 255
202 225 255
202 225 255
202 225 255
202 225 255
202 225 255
202 225 255
202 225 255
202 225 255
202 225 255
202 225 255
202 225 255
202 225 255
202 225 255
202 225 255
202 225 255
202 225 255
202 225 255
202 225 255
202 225 255
202 225 255
202 225 255
202 225 255
202 225 255
202 225 255
202 225 255
202 225 255
203 225 255
203 225 255
203 225 255
203 225 255
203 225 255
203 225 255
203 225 255
203 225 255
203 225 255
203 225 255
203 225 255
203 225 255
203 225 255
203 225 255
203 225 255
203 226 255
203 226 255
203 226 255
203 226 255
203 226 255
203 226 255
203 226 255
203 226 255
203 226 255
203 226 255
204 226 255
204 226 255
204 226 255
204 226 255
204 226 255
204 226 255
204 226 255
204 226 255
204 226 255
204 226 255
204 226 255
204 226 255
204 226 255
204 226 255
204 226 255
204 226 255
204 226 255
204 226 255
204 226 255
205 226 255
205 226 255
205 226 255
205 226 255
205 226 255
205 226 255
205 226 255
205 227 255
205 227 255
205 227 255
205 227 255
205 227 255
205 227 255
205 227 255
205 227 255
205 227 255
205 227 255
206 227 255
206 227 255
206 227 255
206 227 255
206 227 255
206 227 255
206 227 255
206 227 255
206 227 255
206 227 255
206 227 255
206 227 255
206 227 255
206 227 255
206 227 255
206 227 255
206 227 255
207 227 255
207 227 255
207 227 255
207 227 255
207 227 255
207 228 255
207 228 255
207 228 255
207 228 255
207 228 255
207 228 255
207 228 255
207 228 255
207 228 255
207 228 255
207 228 255
207 228 255
207 228 255
207 228 255
208 228 255
208 228 255
208 228 255
208 228 255
208 228 255
208 228 255
206 226 253
200 217 238
190 206 221
173 186 194
174 185 188
159 168 168
148 153 139
154 157 139
131 130 93
128 126 87
129 127 85
130 128 85
128 126 84
141 138 92
136 134 90
128 125 83
123 122 81
138 135 90
143 141 94
123 122 81
135 132 87
140 138 92
141 138 92
124 121 78
120 118 79
133 130 85
134 130 84
141 139 92
130 127 84
128 125 82
125 122 81
130 128 84
136 133 90
137 137 109
138 141 124
146 150 132
151 157 153
173 181 176
182 195 206
183 197 210
197 214 236
205 224 248
210 229 255
210 229 255
210 229 255
210 229 255
210 229 255
210 229 255
210 229 255
210 229 255
210 229 255
210 229 255
210 229 255
210 229 255
210 230 255
210 230 255
210 230 255
211 230 255
211 230 255
211 230 255
211 230 255
211 230 255
211 230 255
211 230 255
211 230 255
211 230 255
211 230 255
211 230 255
211 230 255
211 230 255
211 230 255
211 230 255
211 230 255
211 230 255
211 230 255
211 230 255
211 230 255
211 230 255
211 230 255
211 230 255
211 230 255
211 230 255
211 230 255
211 230 255
211 230 255
211 230 255
211 230 255
211 230 255
211 230 255
210 230 255
210 230 255
210 230 255
210 229 255
210 229 255
210 229 255
211 230 255
211 230 255
209 229 254
210 229 254
210 229 255
210 229 253
209 229 255
208 228 253
209 228 253
208 228 253
210 229 250
208 228 253
208 228 253
207 227 248
208 228 253
207 227 253
208 228 253
206 227 253
205 226 253
206 227 252
206 227 253
205 227 255
206 227 253
206 227 254
206 227 253
205 226 252
206 227 254
205 226 254
205 226 249
206 227 253
207 227 253
205 226 252
206 227 252
205 227 254
206 227 253
204 226 252
204 226 250
205 226 252
205 226 253
206 227 254
206 227 253
207 227 254
207 227 252
206 227 254
206 226 249
208 228 253
206 227 253
207 227 252
208 228 254
208 228 255
207 228 254
208 228 255
208 228 255
208 228 255
208 228 255
208 228 255
208 228 255
207 228 255
207 228 255
207 228 255
207 228 255
207 228 255
207 228 255
207 228 255
207 228 255
207 228 255
207 228 255
207 228 255
207 228 255
207 228 255
207 228 255
207 227 255
207 227 255
207 227 255
207 227 255
206 227 255
206 227 255
206 227 255
206 227 255
206 227 255
206 227 255
206 227 255
206 227 255
206 227 255
206 227 255
206 227 255
206 227 255
206 227 255
206 227 255
206 227 255
206 227 255
206 227 255
206 227 255
205 227 255
205 227 255
205 227 255
205 227 255
205 227 255
205 227 255
205 227 255
205 227 255
205 227 255
205 227 255
205 226 255
205 226 255
205 226 255
205 226 255
205 226 255
205 226 255
205 226 255
204 226 255
204 226 255
204 226 255
204 226 255
204 226 255
204 226 255
204 226 255
204 226 255
204 226 255
204 226 255
204 226 255
204 226 255
204 226 255
204 226 255
204 226 255
204 226 255
204 226 255
204 226 255
204 226 255
204 226 255
203 226 255
203 226 255
203 226 255
203 226 255
203 226 255
203 226 255
203 226 255
203 226 255
203 226 255
203 226 255
203 225 255
203 225 255
203 225 255
203 225 255
203 225 255
203 225 255
203 225 255
203 225 255
203 225 255
203 225 255
203 225 255
203 225 255
203 225 255
203 225 255
203 225 255
203 225 255
203 225 255
203 225 255
203 225 255
203 225 255
202 225 255
202 225 255
202 225 255
202 225 255
202 225 255
202 225 255
202 225 255
202 225 255
202 225 255
202 225 255
202 225 255
202 225 255
202 225 255
202 225 255
202 225 255
202 225 255
202 225 255
202 225 255
202 225 255
202 225 255
202 225 255
202 225 255
202 225 255
202 225 255
202 225 255
202 225 255
202 225 255
202 225 255
202 225 255
202 225 255
202 225 255
202 225 255
203 225 255
203 225 255
203 225 255
203 225 255
203 225 255
203 225 255
203 225 255
203 225 255
203 225 255
203 225 255
203 225 255
203 225 255
203 225 255
203 225 255
203 225 255
203 225 255
203 225 255
203 225 255
203 225 255
203 226 255
203 226 255
203 226 255
203 226 255
203 226 255
203 226 255
203 226 255
203 226 255
203 226 255
203 226 255
203 226 255
204 226 255
204 226 255
204 226 255
204 226 255
204 226 255
204 226 255
204 226 255
204 226 255
204 226 255
204 226 255
204 226 255
204 226 255
204 226 255
204 226 255
204 226 255
204 226 255
204 226 255
204 226 255
204 226 255
204 226 255
205 226 255
205 226 255
205 226 255
205 226 255
205 226 255
205 226 255
205 226 255
205 227 255
205 227 255
205 227 255
205 227 255
205 227 255
205 227 255
205 227 255
205 227 255
205 227 255
205 227 255
205 227 255
206 227 255
206 227 255
206 227 255
206 227 255
206 227 255
206 227 255
206 227 255
206 227 255
206 227 255
206 227 255
206 227 255
206 227 255
206 227 255
206 227 255
206 227 255
206 227 255
206 227 255
207 227 255
207 227 255
207 227 255
207 227 255
207 228 255
207 228 255
207 228 255
207 228 255
207 228 255
207 228 255
207 228 255
207 228 255
207 228 255
207 228 255
207 228 255
207 228 255
207 228 255
207 228 255
208 228 255
208 228 255
208 228 255
208 228 255
202 221 244
189 206 223
184 198 211
173 183 181
147 153 142
140 141 110
130 126 84
130 127 84
123 122 81
130 128 86
125 123 82
122 121 80
119 117 78
126 124 83
134 133 89
138 135 90
135 132 87
126 124 83
122 120 80
131 129 86
125 122 80
147 145 97
132 129 85
135 133 89
137 134 88
132 131 88
131 128 84
127 125 83
130 128 85
129 127 85
125 122 81
143 140 93
138 135 90
132 128 84
134 132 87
130 127 84
146 142 94
135 133 88
138 135 89
131 130 87
135 132 88
134 130 85
132 129 84
127 124 82
128 126 84
133 130 85
127 124 82
141 138 92
140 139 108
164 167 150
174 184 188
175 185 187
192 206 219
207 225 249
210 229 255
210 229 255
210 230 255
210 230 255
210 230 255
211 230 255
211 230 255
211 230 255
211 230 255
211 230 255
211 230 255
211 230 255
211 230 255
211 230 255
211 230 255
211 230 255
211 230 255
211 230 255
211 230 255
211 230 255
211 230 255
211 230 255
211 230 255
211 230 255
211 230 255
211 230 255
211 230 255
211 230 255
211 230 255
211 230 255
211 230 255
211 230 255
211 230 255
211 230 255
211 230 255
211 230 255
211 230 255
211 230 255
211 230 255
211 230 255
211 230 255
211 230 255
211 230 255
210 229 254
209 229 254
211 230 254
211 230 254
210 229 254
209 229 253
210 229 253
210 229 252
209 228 253
209 229 254
207 227 249
206 227 252
207 227 252
207 228 253
206 227 253
205 227 253
205 226 254
206 227 255
206 227 254
206 227 255
207 227 255
206 227 254
206 227 255
206 227 255
206 227 255
206 227 255
205 227 255
204 226 255
204 226 255
203 226 254
205 226 255
205 227 255
204 226 255
205 227 255
204 226 255
204 226 255
205 227 255
203 226 255
204 226 255
204 226 255
204 226 255
204 226 253
204 226 255
203 225 253
204 226 254
204 226 255
204 226 255
204 226 253
204 226 252
204 226 253
204 226 253
205 226 252
206 227 253
205 226 249
208 228 253
206 227 252
207 227 253
207 228 254
208 228 255
207 228 255
208 228 255
208 228 255
208 228 255
208 228 255
208 228 255
207 228 255
207 228 255
207 228 255
207 228 255
207 228 255
207 228 255
207 228 255
207 228 255
207 228 255
207 228 255
207 228 255
207 228 255
207 228 255
207 227 255
207 227 255
207 227 255
207 227 255
207 227 255
206 227 255
206 227 255
206 227 255
206 227 255
206 227 255
206 227 255
206 227 255
206 227 255
206 227 255
206 227 255
206 227 255
206 227 255
206 227 255
206 227 255
206 227 255
206 227 255
206 227 255
205 227 255
205 227 255
205 227 255
205 227 255
205 227 255
205 227 255
205 227 255
205 227 255
205 227 255
205 227 255
205 227 255
205 226 255
205 226 255
205 226 255
205 226 255
205 226 255
205 226 255
205 226 255
204 226 255
204 226 255
204 226 255
204 226 255
204 226 255
204 226 255
204 226 255
204 226 255
204 226 255
204 226 255
204 226 255
204 226 255
204 226 255
204 226 255
204 226 255
204 226 255
204 226 255
204 226 255
204 226 255
204 226 255
204 226 255
203 226 255
203 226 255
203 226 255
203 226 255
203 226 255
203 226 255
203 226 255
203 226 255
203 226 255
203 226 255
203 226 255
203 226 255
203 226 255
203 225 255
203 225 255
203 225 255
203 225 255
203 225 255
203 225 255
203 225 255
203 225 255
203 225 255
203 225 255
203 225 255
203 225 255
203 225 255
203 225 255
203 225 255
203 225 255
203 225 255
203 225 255
203 225 255
203 225 255
203 225 255
203 225 255
203 225 255
203 225 255
203 225 255
203 225 255
203 225 255
203 225 255
203 225 255
203 225 255
203 225 255
203 225 255
203 225 255
203 225 255
203 225 255
203 225 255
203 225 255
203 225 255
203 225 255
203 225 255
203 225 255
203 225 255
203 225 255
203 225 255
203 225 255
203 225 255
203 225 255
203 225 255
203 225 255
203 225 255
203 225 255
203 225 255
203 225 255
203 225 255
203 225 255
203 225 255
203 225 255
203 226 255
203 226 255
203 226 255
203 226 255
203 226 255
203 226 255
203 226 255
203 226 255
203 226 255
203 226 255
203 226 255
203 226 255
204 226 255
204 226 255
204 226 255
204 226 255
204 226 255
204 226 255
204 226 255
204 226 255
204 226 255
204 226 255
204 226 255
204 226 255
204 226 255
204 226 255
204 226 255
204 226 255
204 226 255
204 226 255
204 226 255
204 226 255
204 226 255
205 226 255
205 226 255
205 226 255
205 226 255
205 226 255
205 226 255
205 226 255
205 227 255
205 227 255
205 227 255
205 227 255
205 227 255
205 227 255
205 227 255
205 227 255
205 227 255
205 227 255
205 227 255
206 227 255
206 227 255
206 227 255
206 227 255
206 227 255
206 227 255
206 227 255
206 227 255
206 227 255
206 227 255
206 227 255
206 227 255
206 227 255
206 227 255
206 227 255
206 227 255
206 227 255
207 227 255
207 227 255
207 227 255
207 227 255
207 227 255
207 228 255
207 228 255
207 228 255
207 228 255
207 228 255
207 228 255
207 228 255
207 228 255
207 228 255
207 228 255
207 228 255
207 228 255
207 228 255
208 228 255
208 228 255
208 228 255
200 219 243
187 203 221
170 180 183
151 157 145
133 133 102
125 124 83
134 131 87
131 129 86
130 129 86
132 130 87
131 130 87
135 133 89
133 130 87
137 135 90
136 134 90
140 140 94
139 137 92
136 134 90
146 143 95
135 133 89
145 143 95
147 145 97
134 133 89
138 137 92
137 135 90
136 134 90
132 130 87
130 129 86
131 129 85
142 139 92
128 126 84
131 127 84
131 130 87
136 134 89
129 127 84
140 138 90
141 138 91
135 133 88
139 137 92
134 133 89
145 142 95
140 138 90
141 138 91
136 134 90
133 130 86
136 134 89
127 125 83
140 137 90
137 135 90
131 127 83
143 139 91
126 123 81
130 128 84
130 128 84
137 134 87
129 125 81
133 129 84
129 125 80
138 135 87
122 121 94
164 170 161
169 179 182
189 202 216
202 220 243
211 230 255
211 230 255
211 230 255
211 230 255
211 230 255
211 230 255
211 230 255
211 230 255
211 230 255
211 230 255
211 230 255
211 230 255
211 230 255
211 230 255
211 230 255
211 230 255
211 230 255
211 230 255
211 230 255
211 230 255
211 230 255
211 230 255
211 230 255
211 230 255
211 230 255
211 230 255
211 230 255
211 230 255
211 230 255
211 230 255
211 230 255
211 230 255
211 230 255
211 230 255
211 230 255
212 230 255
211 229 253
211 229 252
210 229 254
208 228 253
209 228 253
208 227 249
208 228 253
207 228 253
207 227 252
206 226 250
207 227 253
206 227 253
208 228 255
207 228 255
209 229 255
206 227 255
207 228 255
206 227 255
205 227 255
205 227 255
205 226 254
204 226 255
204 226 255
204 226 255
204 226 255
203 226 255
204 226 255
203 226 255
203 225 255
203 226 255
203 225 255
203 225 255
203 226 255
200 224 255
203 225 255
201 225 255
202 225 255
202 225 255
202 225 255
202 225 255
202 225 255
203 225 255
203 226 255
202 225 255
202 225 255
201 225 255
202 225 255
202 225 255
202 225 255
203 226 255
202 225 253
204 226 255
204 226 255
204 226 255
202 225 253
204 226 255
203 225 254
203 225 253
203 225 250
205 226 248
206 227 253
206 227 253
208 228 253
207 227 255
206 227 250
207 228 253
207 228 255
208 228 255
208 228 255
208 228 255
207 228 255
207 228 255
207 228 255
207 228 255
207 228 255
207 228 255
207 228 255
207 228 255
207 228 255
207 228 255
207 228 255
207 228 255
207 228 255
207 228 255
207 227 255
207 227 255
207 227 255
207 227 255
206 227 255
206 227 255
206 227 255
206 227 255
206 227 255
206 227 255
206 227 255
206 227 255
206 227 255
206 227 255
206 227 255
206 227 255
206 227 255
206 227 255
206 227 255
206 227 255
206 227 255
206 227 255
205 227 255
205 227 255
205 227 255
205 227 255
205 227 255
205 227 255
205 227 255
205 227 255
205 227 255
205 227 255
205 227 255
205 226 255
205 226 255
205 226 255
205 226 255
205 226 255
205 226 255
205 226 255
205 226 255
204 226 255
204 226 255
204 226 255
204 226 255
204 226 255
204 226 255
204 226 255
204 226 255
204 226 255
204 226 255
204 226 255
204 226 255
204 226 255
204 226 255
204 226 255
204 226 255
204 226 255
204 226 255
204 226 255
204 226 255
204 226 255
204 226 255
203 226 255
203 226 255
203 226 255
203 226 255
203 226 255
203 226 255
203 226 255
203 226 255
203 226 255
203 226 255
203 226 255
203 226 255
203 226 255
203 226 255
203 226 255
203 225 255
203 225 255
203 225 255
203 225 255
203 225 255
203 225 255
203 225 255
203 225 255
203 225 255
203 225 255
203 225 255
203 225 255
203 225 255
203 225 255
203 225 255
203 225 255
203 225 255
203 225 255
203 225 255
203 225 255
203 225 255
203 225 255
203 225 255
203 225 255
203 225 255
203 225 255
203 225 255
203 225 255
203 225 255
203 225 255
203 225 255
203 225 255
203 225 255
203 225 255
203 225 255
203 225 255
203 225 255
203 225 255
203 225 255
203 226 255
203 226 255
203 226 255
203 226 255
203 226 255
203 226 255
203 226 255
203 226 255
203 226 255
203 226 255
203 226 255
203 226 255
203 226 255
203 226 255
203 226 255
203 226 255
204 226 255
204 226 255
204 226 255
204 226 255
204 226 255
204 226 255
204 226 255
204 226 255
204 226 255
204 226 255
204 226 255
204 226 255
204 226 255
204 226 255
204 226 255
204 226 255
204 226 255
204 226 255
204 226 255
204 226 255
204 226 255
204 226 255
204 226 255
205 226 255
205 226 255
205 226 255
205 226 255
205 226 255
205 226 255
205 226 255
205 227 255
205 227 255
205 227 255
205 227 255
205 227 255
205 227 255
205 227 255
205 227 255
205 227 255
205 227 255
205 227 255
206 227 255
206 227 255
206 227 255
206 227 255
206 227 255
206 227 255
206 227 255
206 227 255
206 227 255
206 227 255
206 227 255
206 227 255
206 227 255
206 227 255
206 227 255
206 227 255
206 227 255
207 227 255
207 227 255
207 227 255
207 227 255
207 227 255
207 228 255
207 228 255
207 228 255
207 228 255
207 228 255
207 228 255
207 228 255
207 228 255
207 228 255
207 228 255
207 228 255
207 228 255
207 228 255
208 228 255
208 228 255
208 228 255
194 211 230
184 197 207
158 166 164
147 148 123
127 125 84
132 131 87
125 124 83
124 123 83
129 127 84
143 142 95
129 128 86
131 129 86
133 132 88
135 134 90
133 131 87
119 119 80
132 131 88
128 126 84
138 138 93
134 132 88
138 137 92
144 143 95
140 138 93
141 140 93
134 133 89
132 131 87
137 135 90
137 135 90
138 136 91
150 148 99
131 129 86
139 137 92
135 133 89
137 135 90
144 142 95
131 129 86
148 146 98
139 137 92
146 144 95
142 139 93
140 137 90
141 139 93
146 144 96
142 139 93
135 133 87
139 137 91
139 136 90
139 137 90
134 132 88
146 143 95
141 138 91
140 138 90
131 128 85
133 130 85
140 137 90
139 136 89
130 128 84
134 131 86
128 125 82
142 137 89
140 135 88
135 132 87
140 138 90
139 135 88
135 131 85
129 126 82
127 124 80
129 125 80
142 141 113
165 171 161
182 195 205
200 216 236
211 230 255
211 230 255
211 230 255
211 230 255
211 230 255
211 230 255
211 230 255
211 230 255
211 230 255
211 230 255
211 230 255
211 230 255
211 230 255
211 230 255
212 230 255
212 230 255
212 230 255
212 230 255
211 230 255
211 230 255
211 230 255
211 230 255
211 230 255
211 230 255
211 230 255
212 230 255
212 230 255
212 230 255
211 229 252
211 230 254
209 229 252
209 229 252
209 229 253
208 228 249
207 227 249
209 229 254
208 228 250
206 227 253
206 227 253
209 229 255
207 228 254
205 226 254
205 227 254
206 227 255
206 227 255
205 227 255
206 227 255
204 226 255
206 227 255
206 227 255
204 226 255
203 226 255
203 226 255
204 226 255
202 225 255
202 225 255
202 225 255
201 225 255
202 225 255
202 225 255
201 224 255
201 224 255
202 225 255
200 224 255
200 224 255
200 224 255
201 224 255
200 224 255
200 224 255
200 224 255
200 224 255
200 224 255
199 223 255
200 224 255
200 224 255
201 224 255
199 223 254
199 223 254
199 223 255
199 223 255
200 224 255
200 224 254
200 224 254
201 225 255
201 224 254
202 225 255
201 225 255
201 224 255
202 225 255
202 225 255
204 226 255
204 226 254
203 226 255
204 226 254
204 226 253
204 225 252
205 227 255
205 227 253
206 227 253
206 227 252
208 228 255
207 227 253
208 228 255
208 228 255
208 228 255
208 228 255
207 228 255
207 228 255
207 228 255
207 228 255
207 228 255
207 228 255
207 228 255
207 228 255
207 228 255
207 228 255
207 228 255
207 228 255
207 228 255
207 228 255
207 227 255
207 227 255
207 227 255
207 227 255
206 227 255
206 227 255
206 227 255
206 227 255
206 227 255
206 227 255
206 227 255
206 227 255
206 227 255
206 227 255
206 227 255
206 227 255
206 227 255
206 227 255
206 227 255
206 227 255
206 227 255
206 227 255
205 227 255
205 227 255
205 227 255
205 227 255
205 227 255
205 227 255
205 227 255
205 227 255
205 227 255
205 227 255
205 227 255
205 226 255
205 226 255
205 226 255
205 226 255
205 226 255
205 226 255
205 226 255
205 226 255
204 226 255
204 226 255
204 226 255
204 226 255
204 226 255
204 226 255
204 226 255
204 226 255
204 226 255
204 226 255
204 226 255
204 226 255
204 226 255
204 226 255
204 226 255
204 226 255
204 226 255
204 226 255
204 226 255
204 226 255
204 226 255
204 226 255
204 226 255
204 226 255
204 226 255
203 226 255
203 226 255
203 226 255
203 226 255
203 226 255
203 226 255
203 226 255
203 226 255
203 226 255
203 226 255
203 226 255
203 226 255
203 226 255
203 226 255
203 226 255
203 226 255
203 226 255
203 226 255
203 226 255
203 226 255
203 226 255
203 226 255
203 226 255
203 226 255
203 226 255
203 226 255
203 226 255
203 226 255
203 226 255
203 226 255
203 226 255
203 226 255
203 226 255
203 226 255
203 226 255
203 226 255
203 226 255
203 226 255
203 226 255
203 226 255
203 226 255
203 226 255
203 226 255
203 226 255
203 226 255
203 226 255
203 226 255
203 226 255
203 226 255
203 226 255
203 226 255
203 226 255
203 226 255
203 226 255
203 226 255
204 226 255
204 226 255
204 226 255
204 226 255
204 226 255
204 226 255
204 226 255
204 226 255
204 226 255
204 226 255
204 226 255
204 226 255
204 226 255
204 226 255
204 226 255
204 226 255
204 226 255
204 226 255
204 226 255
204 226 255
204 226 255
204 226 255
204 226 255
204 226 255
204 226 255
204 226 255
205 226 255
205 226 255
205 226 255
205 226 255
205 226 255
205 226 255
205 226 255
205 226 255
205 227 255
205 227 255
205 227 255
205 227 255
205 227 255
205 227 255
205 227 255
205 227 255
205 227 255
205 227 255
205 227 255
206 227 255
206 227 255
206 227 255
206 227 255
206 227 255
206 227 255
206 227 255
206 227 255
206 227 255
206 227 255
206 227 255
206 227 255
206 227 255
206 227 255
206 227 255
206 227 255
206 227 255
206 227 255
207 227 255
207 227 255
207 227 255
207 227 255
207 228 255
207 228 255
207 228 255
207 228 255
207 228 255
207 228 255
207 228 255
207 228 255
207 228 255
207 228 255
207 228 255
207 228 255
207 228 255
207 228 255
208 228 255
208 228 255
202 221 244
185 201 217
167 175 172
147 149 124
133 131 87
123 121 81
136 135 90
128 126 84
134 132 89
141 140 94
132 130 87
132 130 87
134 133 89
132 131 87
136 135 91
145 143 95
136 134 90
140 139 93
149 147 99
134 132 88
124 123 83
137 135 90
148 146 97
139 138 93
135 133 89
142 141 95
139 137 92
144 142 95
140 138 93
129 128 85
139 137 92
141 138 92
142 140 93
149 147 98
144 141 94
146 144 97
147 144 95
142 139 93
139 136 90
146 144 96
131 129 86
139 137 91
137 135 90
138 135 90
140 139 93
136 133 88
137 134 89
146 144 96
145 143 93
138 136 91
142 138 91
143 141 92
142 139 93
135 132 86
144 141 93
135 132 87
139 137 90
136 133 86
143 141 94
141 138 89
131 128 85
149 146 95
140 137 90
135 132 87
136 132 87
135 132 86
133 130 83
140 137 90
129 127 82
126 123 80
129 126 80
128 125 83
133 131 84
136 132 86
136 131 85
126 122 79
135 135 110
155 161 152
183 196 207
202 219 243
211 230 255
211 230 255
211 230 255
211 230 255
211 230 255
211 230 255
212 230 255
212 230 255
212 230 255
212 230 255
212 230 255
212 230 255
212 230 255
212 230 255
212 230 255
212 230 255
212 230 255
212 230 255
211 230 255
212 230 253
212 230 255
211 230 254
208 228 248
210 229 253
208 228 252
209 228 250
209 228 252
207 227 252
209 229 254
208 228 255
208 228 255
208 228 255
208 228 254
207 227 255
207 227 255
206 227 255
207 227 255
205 227 255
206 227 255
204 226 255
204 226 254
204 226 255
205 227 255
204 226 255
203 226 255
203 226 255
202 225 255
201 224 255
201 224 255
201 224 255
201 224 255
199 224 255
200 224 255
201 224 255
200 224 255
201 224 255
200 224 255
199 223 255
198 223 255
198 223 254
198 223 254
199 223 255
199 223 255
198 223 255
198 223 255
198 223 254
197 222 255
198 223 255
198 223 255
198 223 255
198 222 254
198 223 255
198 223 255
197 222 255
198 223 255
197 222 255
197 222 255
197 222 255
198 223 255
198 223 254
198 223 255
199 223 255
198 223 255
199 224 255
200 224 255
201 224 255
201 224 255
201 224 255
202 225 255
202 225 255
202 225 255
201 224 254
203 226 255
205 226 255
203 225 249
205 226 253
204 225 250
207 227 254
207 227 254
206 226 249
208 228 254
210 229 255
207 228 254
208 228 255
208 228 255
208 228 255
207 228 255
207 228 255
207 228 255
207 228 255
207 228 255
207 228 255
207 228 255
207 228 255
207 228 255
207 228 255
207 228 255
207 228 255
207 228 255
207 228 255
207 227 255
207 227 255
207 227 255
207 227 255
206 227 255
206 227 255
206 227 255
206 227 255
206 227 255
206 227 255
206 227 255
206 227 255
206 227 255
206 227 255
206 227 255
206 227 255
206 227 255
206 227 255
206 227 255
206 227 255
206 227 255
206 227 255
205 227 255
205 227 255
205 227 255
205 227 255
205 227 255
205 227 255
205 227 255
205 227 255
205 227 255
205 227 255
205 227 255
205 227 255
205 226 255
205 226 255
205 226 255
205 226 255
205 226 255
205 226 255
205 226 255
205 226 255
204 226 255
204 226 255
204 226 255
204 226 255
204 226 255
204 226 255
204 226 255
204 226 255
204 226 255
204 226 255
204 226 255
204 226 255
204 226 255
204 226 255
204 226 255
204 226 255
204 226 255
204 226 255
204 226 255
204 226 255
204 226 255
204 226 255
204 226 255
204 226 255
204 226 255
204 226 255
204 226 255
204 226 255
204 226 255
204 226 255
203 226 255
203 226 255
203 226 255
203 226 255
203 226 255
203 226 255
203 226 255
203 226 255
203 226 255
203 226 255
203 226 255
203 226 255
203 226 255
203 226 255
203 226 255
203 226 255
203 226 255
203 226 255
203 226 255
203 226 255
203 226 255
203 226 255
203 226 255
203 226 255
203 226 255
203 226 255
203 226 255
203 226 255
203 226 255
203 226 255
203 226 255
203 226 255
203 226 255
203 226 255
203 226 255
203 226 255
204 226 255
204 226 255
204 226 255
204 226 255
204 226 255
204 226 255
204 226 255
204 226 255
204 226 255
204 226 255
204 226 255
204 226 255
204 226 255
204 226 255
204 226 255
204 226 255
204 226 255
204 226 255
204 226 255
204 226 255
204 226 255
204 226 255
204 226 255
204 226 255
204 226 255
204 226 255
204 226 255
204 226 255
204 226 255
205 226 255
205 226 255
205 226 255
205 226 255
205 226 255
205 226 255
205 226 255
205 226 255
205 226 255
205 227 255
205 227 255
205 227 255
205 227 255
205 227 255
205 227 255
205 227 255
205 227 255
205 227 255
205 227 255
205 227 255
206 227 255
206 227 255
206 227 255
206 227 255
206 227 255
206 227 255
206 227 255
206 227 255
206 227 255
206 227 255
206 227 255
206 227 255
206 227 255
206 227 255
206 227 255
206 227 255
206 227 255
206 227 255
206 227 255
207 227 255
207 227 255
207 227 255
207 227 255
207 228 255
207 228 255
207 228 255
207 228 255
207 228 255
207 228 255
207 228 255
207 228 255
207 228 255
207 228 255
207 228 255
207 228 255
207 228 255
207 228 255
208 228 255
208 228 255
208 228 255
189 206 225
172 186 197
149 154 141
115 114 76
132 130 87
131 129 87
130 129 87
141 139 93
132 131 88
139 137 92
140 138 93
129 128 86
140 138 93
141 140 94
131 129 87
141 140 94
141 139 93
140 138 93
139 138 93
139 138 93
137 136 92
133 132 89
135 134 90
145 144 97
130 128 86
140 139 93
139 137 92
138 136 91
142 140 93
145 143 96
150 148 99
143 141 95
143 141 95
143 141 94
139 138 93
132 131 87
148 146 97
148 146 97
157 155 103
147 143 95
147 145 97
140 138 93
143 141 95
140 137 91
138 136 90
141 139 93
147 145 97
138 135 89
139 137 90
146 143 95
142 139 92
132 130 87
147 144 95
146 144 96
149 146 97
149 146 95
151 148 97
146 144 95
139 136 90
137 134 87
140 136 89
150 147 95
149 146 96
137 133 87
153 151 99
132 130 86
135 133 87
136 132 86
144 142 93
138 135 88
138 135 87
140 137 89
144 140 92
135 134 87
125 123 79
126 122 77
139 136 89
137 134 87
130 126 82
143 139 90
124 120 77
130 127 82
127 123 80
150 154 137
179 190 197
196 211 228
212 230 255
212 230 255
212 230 255
212 230 255
212 230 255
212 230 255
212 230 255
212 230 255
212 230 255
212 230 255
212 230 255
211 230 255
212 230 255
212 230 255
211 229 254
211 229 253
209 229 250
208 228 249
210 229 252
209 228 253
208 228 253
209 229 254
208 228 254
208 228 254
209 229 255
208 228 255
207 228 255
207 228 255
207 227 255
206 227 255
206 227 255
205 227 255
205 227 255
204 226 254
204 226 255
203 226 255
203 225 255
203 225 255
202 225 255
203 225 255
201 225 255
201 225 255
202 225 254
202 225 255
200 224 255
200 223 254
201 224 255
200 224 255
199 223 255
199 223 255
198 223 255
199 223 255
199 223 255
197 222 255
198 223 255
197 222 254
197 222 254
197 222 254
197 222 255
196 222 254
197 222 255
196 222 255
197 222 255
196 222 255
196 222 255
196 222 255
195 221 255
195 221 255
196 222 255
195 221 255
195 221 255
195 221 255
196 222 255
197 222 255
197 222 255
197 222 255
196 222 255
197 222 255
197 222 255
196 222 255
196 222 255
198 223 255
198 223 255
198 223 255
198 223 255
198 223 254
199 223 255
199 224 255
200 224 255
201 224 255
201 224 254
202 225 255
202 225 254
202 225 255
205 226 252
205 226 253
205 226 254
205 226 254
206 227 253
205 226 249
208 228 252
208 228 254
207 228 255
208 228 255
208 228 255
208 228 255
208 228 255
207 228 255
207 228 255
207 228 255
207 228 255
207 228 255
207 228 255
207 228 255
207 228 255
207 228 255
207 228 255
207 228 255
207 228 255
207 228 255
207 228 255
207 227 255
207 227 255
207 227 255
207 227 255
206 227 255
206 227 255
206 227 255
206 227 255
206 227 255
206 227 255
206 227 255
206 227 255
206 227 255
206 227 255
206 227 255
206 227 255
206 227 255
206 227 255
206 227 255
206 227 255
206 227 255
206 227 255
206 227 255
205 227 255
205 227 255
205 227 255
205 227 255
205 227 255
205 227 255
205 227 255
205 227 255
205 227 255
205 227 255
205 227 255
205 227 255
205 226 255
205 226 255
205 226 255
205 226 255
205 226 255
205 226 255
205 226 255
205 226 255
205 226 255
204 226 255
204 226 255
204 226 255
204 226 255
204 226 255
204 226 255
204 226 255
204 226 255
204 226 255
204 226 255
204 226 255
204 226 255
204 226 255
204 226 255
204 226 255
204 226 255
204 226 255
204 226 255
204 226 255
204 226 255
204 226 255
204 226 255
204 226 255
204 226 255
204 226 255
204 226 255
204 226 255
204 226 255
204 226 255
204 226 255
204 226 255
204 226 255
204 226 255
204 226 255
204 226 255
204 226 255
204 226 255
204 226 255
204 226 255
204 226 255
204 226 255
204 226 255
204 226 255
204 226 255
204 226 255
204 226 255
204 226 255
204 226 255
204 226 255
204 226 255
204 226 255
204 226 255
204 226 255
204 226 255
204 226 255
204 226 255
204 226 255
204 226 255
204 226 255
204 226 255
204 226 255
204 226 255
204 226 255
204 226 255
204 226 255
204 226 255
204 226 255
204 226 255
204 226 255
204 226 255
204 226 255
204 226 255
204 226 255
204 226 255
204 226 255
204 226 255
204 226 255
204 226 255
204 226 255
204 226 255
204 226 255
204 226 255
204 226 255
204 226 255
205 226 255
205 226 255
205 226 255
205 226 255
205 226 255
205 226 255
205 226 255
205 226 255
205 226 255
205 227 255
205 227 255
205 227 255
205 227 255
205 227 255
205 227 255
205 227 255
205 227 255
205 227 255
205 227 255
205 227 255
205 227 255
206 227 255
206 227 255
206 227 255
206 227 255
206 227 255
206 227 255
206 227 255
206 227 255
206 227 255
206 227 255
206 227 255
206 227 255
206 227 255
206 227 255
206 227 255
206 227 255
206 227 255
206 227 255
206 227 255
207 227 255
207 227 255
207 227 255
207 227 255
207 228 255
207 228 255
207 228 255
207 228 255
207 228 255
207 228 255
207 228 255
207 228 255
207 228 255
207 228 255
207 228 255
207 228 255
207 228 255
207 228 255
208 228 255
208 228 255
208 228 255
207 228 254
192 209 230
174 184 186
143 144 117
130 128 85
124 123 82
124 122 82
135 134 90
135 133 89
130 129 86
131 130 87
145 143 96
134 133 90
148 146 98
146 146 98
143 142 95
141 140 94
143 142 95
142 142 95
141 140 94
139 138 93
139 138 93
145 143 96
144 142 95
142 140 94
144 142 95
146 145 97
144 142 95
152 151 101
147 146 98
145 144 97
141 139 93
151 149 100
140 138 93
138 136 91
141 140 93
150 148 99
149 148 99
147 145 97
143 140 93
152 150 100
148 146 97
146 145 97
150 148 98
149 146 97
141 140 93
144 142 95
143 141 95
140 138 92
152 150 99
147 144 96
148 146 97
141 139 92
146 144 96
147 144 95
142 139 93
144 142 93
143 140 93
143 140 93
148 145 97
147 144 95
146 143 94
145 142 93
142 139 91
144 141 94
149 146 97
137 135 87
141 139 92
147 144 95
136 134 88
137 135 88
141 137 90
134 131 86
139 136 87
143 140 90
138 134 85
139 135 87
139 135 87
142 138 90
136 132 86
142 139 89
143 139 89
141 137 88
136 133 86
135 131 82
138 135 87
141 138 87
139 135 87
139 135 84
124 121 76
144 146 123
174 183 189
196 212 229
211 229 254
212 230 255
212 230 255
212 230 255
212 230 255
212 230 255
212 230 253
212 230 255
211 229 254
211 229 252
211 230 254
209 228 250
211 230 254
210 229 253
210 229 254
209 229 254
209 229 254
208 228 255
208 228 255
208 228 255
207 228 255
207 228 255
208 228 255
206 227 255
205 227 254
204 226 255
205 227 255
203 226 254
204 226 255
204 226 255
203 226 255
202 225 254
201 224 254
202 225 255
201 224 255
201 224 254
201 224 255
201 224 255
201 224 255
200 224 255
200 224 255
200 224 255
198 223 255
200 224 255
198 223 255
199 223 255
197 222 255
197 222 255
197 222 255
197 222 255
196 222 255
197 222 255
196 222 255
196 222 255
195 221 255
196 222 255
195 221 255
195 221 255
195 221 255
195 221 255
195 221 255
195 221 255
194 221 255
194 221 255
194 221 255
194 221 255
195 221 255
194 221 255
194 221 255
194 221 255
194 221 255
194 221 255
193 220 255
194 221 255
195 221 255
194 221 255
195 221 255
194 221 255
195 221 255
195 221 255
196 222 255
196 222 255
197 222 255
196 222 255
197 222 254
198 223 255
199 223 255
199 223 255
199 223 255
199 223 255
199 223 253
201 225 255
201 225 255
202 225 255
203 225 255
205 226 254
204 226 254
205 226 254
204 226 252
206 227 252
208 228 254
209 229 255
208 228 255
208 228 255
208 228 255
208 228 255
208 228 255
208 228 255
207 228 255
207 228 255
207 228 255
207 228 255
207 228 255
207 228 255
207 228 255
207 228 255
207 228 255
207 228 255
207 228 255
207 228 255
207 228 255
207 228 255
207 227 255
207 227 255
207 227 255
207 227 255
206 227 255
206 227 255
206 227 255
206 227 255
206 227 255
206 227 255
206 227 255
206 227 255
206 227 255
206 227 255
206 227 255
206 227 255
206 227 255
206 227 255
206 227 255
206 227 255
206 227 255
206 227 255
206 227 255
206 227 255
205 227 255
205 227 255
205 227 255
205 227 255
205 227 255
205 227 255
205 227 255
205 227 255
205 227 255
205 227 255
205 227 255
205 227 255
205 226 255
205 226 255
205 226 255
205 226 255
205 226 255
205 226 255
205 226 255
205 226 255
205 226 255
205 226 255
204 226 255
204 226 255
204 226 255
204 226 255
204 226 255
204 226 255
204 226 255
204 226 255
204 226 255
204 226 255
204 226 255
204 226 255
204 226 255
204 226 255
204 226 255
204 226 255
204 226 255
204 226 255
204 226 255
204 226 255
204 226 255
204 226 255
204 226 255
204 226 255
204 226 255
204 226 255
204 226 255
204 226 255
204 226 255
204 226 255
204 226 255
204 226 255
204 226 255
204 226 255
204 226 255
204 226 255
204 226 255
204 226 255
204 226 255
204 226 255
204 226 255
204 226 255
204 226 255
204 226 255
204 226 255
204 226 255
204 226 255
204 226 255
204 226 255
204 226 255
204 226 255
204 226 255
204 226 255
204 226 255
204 226 255
204 226 255
204 226 255
204 226 255
204 226 255
204 226 255
204 226 255
204 226 255
204 226 255
204 226 255
204 226 255
204 226 255
204 226 255
204 226 255
204 226 255
204 226 255
204 226 255
205 226 255
205 226 255
205 226 255
205 226 255
205 226 255
205 226 255
205 226 255
205 226 255
205 226 255
205 226 255
205 226 255
205 227 255
205 227 255
205 227 255
205 227 255
205 227 255
205 227 255
205 227 255
205 227 255
205 227 255
205 227 255
205 227 255
205 227 255
205 227 255
206 227 255
206 227 255
206 227 255
206 227 255
206 227 255
206 227 255
206 227 255
206 227 255
206 227 255
206 227 255
206 227 255
206 227 255
206 227 255
206 227 255
206 227 255
206 227 255
206 227 255
206 227 255
206 227 255
207 227 255
207 227 255
207 227 255
207 227 255
207 228 255
207 228 255
207 228 255
207 228 255
207 228 255
207 228 255
207 228 255
207 228 255
207 228 255
207 228 255
207 228 255
207 228 255
207 228 255
207 228 255
208 228 255
208 228 255
208 228 255
208 228 255
208 228 255
201 218 240
175 186 192
134 137 121
135 134 90
130 129 87
141 139 93
145 143 96
129 128 85
142 141 95
128 128 86
146 144 97
131 130 87
136 135 91
127 126 84
138 137 93
138 137 93
144 143 96
141 140 95
139 139 93
150 148 99
143 142 96
143 143 96
135 135 90
136 135 91
147 145 97
136 135 91
147 145 97
146 145 97
150 149 100
143 141 95
146 145 97
154 152 102
144 142 95
141 139 93
146 143 95
147 145 97
147 145 97
152 150 100
136 135 90
145 143 96
141 139 93
149 147 98
143 141 95
146 144 96
140 138 93
142 140 93
145 142 94
145 143 95
148 146 98
144 142 95
141 139 93
138 136 91
135 133 89
152 149 99
149 147 98
139 136 90
145 143 95
146 144 96
136 133 87
135 132 87
140 137 90
150 148 99
147 144 95
136 133 88
143 140 90
148 144 94
155 153 102
138 135 90
145 142 93
147 144 95
150 147 97
141 138 90
134 132 86
148 145 97
142 140 92
136 133 87
152 148 97
136 133 86
141 137 90
145 142 93
133 130 84
140 137 90
145 141 90
136 132 87
127 123 80
143 139 90
135 131 85
137 133 87
144 141 91
133 130 81
137 134 85
134 129 83
137 133 87
129 125 81
127 124 80
133 132 103
172 180 179
204 222 244
212 230 255
212 230 254
212 230 254
211 230 253
210 229 253
211 230 252
210 229 252
211 230 254
210 229 254
208 228 252
210 229 255
210 229 255
209 229 255
208 228 255
208 228 255
208 228 254
207 228 255
206 227 254
206 227 255
205 227 255
204 226 255
204 226 255
204 226 255
203 226 255
204 226 255
203 226 255
202 225 255
203 225 255
203 225 255
201 225 255
201 224 255
201 224 255
200 224 255
200 224 255
200 224 255
199 223 255
199 224 255
199 223 255
198 223 255
198 223 255
197 223 255
197 222 255
197 222 255
196 222 255
196 222 255
196 222 255
195 221 255
196 222 255
195 221 255
195 221 255
194 221 255
195 221 255
194 221 255
194 221 255
194 221 255
193 220 255
193 220 255
193 220 255
193 220 255
193 220 255
192 220 255
193 220 255
193 220 255
193 220 255
192 219 255
193 220 255
193 220 255
193 220 255
192 220 255
192 220 255
193 220 255
193 220 255
193 220 255
193 220 255
192 220 255
193 220 255
193 220 255
194 221 255
194 221 255
194 221 255
194 221 255
195 221 255
195 221 255
196 222 255
196 222 255
198 223 255
197 222 255
197 222 255
199 223 255
199 223 255
199 223 255
200 224 254
200 224 255
202 225 255
203 225 255
202 225 253
204 226 254
205 227 254
205 226 252
209 229 253
207 228 254
208 228 255
208 228 255
208 228 255
208 228 255
208 228 255
208 228 255
208 228 255
208 228 255
207 228 255
207 228 255
207 228 255
207 228 255
207 228 255
207 228 255
207 228 255
207 228 255
207 228 255
207 228 255
207 228 255
207 228 255
207 228 255
207 228 255
207 227 255
207 227 255
207 227 255
207 227 255
206 227 255
206 227 255
206 227 255
206 227 255
206 227 255
206 227 255
206 227 255
206 227 255
206 227 255
206 227 255
206 227 255
206 227 255
206 227 255
206 227 255
206 227 255
206 227 255
206 227 255
206 227 255
206 227 255
206 227 255
205 227 255
205 227 255
205 227 255
205 227 255
205 227 255
205 227 255
205 227 255
205 227 255
205 227 255
205 227 255
205 227 255
205 227 255
205 227 255
205 227 255
205 226 255
205 226 255
205 226 255
205 226 255
205 226 255
205 226 255
205 226 255
205 226 255
205 226 255
205 226 255
205 226 255
205 226 255
204 226 255
204 226 255
204 226 255
204 226 255
204 226 255
204 226 255
204 226 255
204 226 255
204 226 255
204 226 255
204 226 255
204 226 255
204 226 255
204 226 255
204 226 255
204 226 255
204 226 255
204 226 255
204 226 255
204 226 255
204 226 255
204 226 255
204 226 255
204 226 255
204 226 255
204 226 255
204 226 255
204 226 255
204 226 255
204 226 255
204 226 255
204 226 255
204 226 255
204 226 255
204 226 255
204 226 255
204 226 255
204 226 255
204 226 255
204 226 255
204 226 255
204 226 255
204 226 255
204 226 255
204 226 255
204 226 255
204 226 255
204 226 255
204 226 255
204 226 255
204 226 255
204 226 255
204 226 255
204 226 255
204 226 255
204 226 255
205 226 255
205 226 255
205 226 255
205 226 255
205 226 255
205 226 255
205 226 255
205 226 255
205 226 255
205 226 255
205 226 255
205 226 255
205 227 255
205 227 255
205 227 255
205 227 255
205 227 255
205 227 255
205 227 255
205 227 255
205 227 255
205 227 255
205 227 255
205 227 255
205 227 255
205 227 255
206 227 255
206 227 255
206 227 255
206 227 255
206 227 255
206 227 255
206 227 255
206 227 255
206 227 255
206 227 255
206 227 255
206 227 255
206 227 255
206 227 255
206 227 255
206 227 255
206 227 255
206 227 255
206 227 255
207 227 255
207 227 255
207 227 255
207 227 255
207 227 255
207 228 255
207 228 255
207 228 255
207 228 255
207 228 255
207 228 255
207 228 255
207 228 255
207 228 255
207 228 255
207 228 255
207 228 255
207 228 255
207 228 255
208 228 255
208 228 255
208 228 255
208 228 255
208 228 255
208 228 255
203 222 245
178 193 211
137 141 126
131 129 86
128 126 84
140 139 93
133 131 88
144 142 95
148 146 97
140 139 93
139 138 93
141 140 94
141 140 94
136 135 91
139 138 93
137 136 91
141 139 93
144 142 95
142 141 95
147 146 99
136 135 90
137 136 91
137 136 91
145 144 97
151 150 101
149 147 99
149 148 99
146 144 97
144 143 96
150 148 99
142 141 95
143 143 97
150 149 100
145 144 97
140 138 92
143 141 95
154 152 101
139 137 92
154 152 101
149 148 99
143 142 95
148 146 98
148 146 97
144 141 94
147 146 97
146 144 97
150 148 99
147 144 95
147 146 97
147 145 96
147 144 95
154 152 102
149 148 99
151 148 98
153 150 99
157 154 103
148 145 96
151 148 99
144 142 95
152 149 98
148 144 95
139 138 91
141 138 91
146 142 93
146 143 95
145 142 93
141 138 92
148 145 95
140 137 90
141 138 89
148 145 97
143 140 92
144 141 92
139 136 89
135 133 87
146 143 93
137 134 87
141 138 90
146 142 94
141 138 89
137 134 87
146 143 91
137 134 88
154 150 95
124 122 79
134 131 86
146 142 92
131 127 83
143 139 90
149 144 93
136 132 86
131 128 82
134 130 84
133 129 84
128 124 78
137 134 86
124 121 76
134 130 84
129 125 81
127 123 79
123 119 77
154 155 128
211 230 253
210 229 250
211 229 252
210 229 250
209 228 252
208 228 253
209 229 255
209 229 255
209 229 255
208 228 255
207 228 255
208 228 255
208 228 255
206 227 254
206 227 255
205 227 255
206 227 255
205 226 255
205 226 255
205 226 255
204 226 255
203 226 255
203 225 255
202 225 255
202 225 255
202 225 255
201 224 255
201 224 255
201 224 255
201 224 255
200 224 255
200 224 255
200 224 255
198 223 255
199 223 255
198 223 255
197 222 255
197 222 255
197 222 255
197 222 255
196 222 255
196 222 255
196 222 255
196 221 255
195 221 255
194 221 255
195 221 255
194 221 255
194 221 255
194 220 255
193 220 255
193 220 255
193 220 255
193 220 255
193 220 255
192 220 255
192 220 255
192 219 255
192 220 255
191 219 255
191 219 255
191 219 255
192 219 255
191 219 255
191 219 255
191 219 255
191 219 255
190 219 255
191 219 255
191 219 255
190 219 255
191 219 255
191 219 255
191 219 255
191 219 255
191 219 255
191 219 255
191 219 255
192 220 255
192 220 255
193 220 255
193 220 255
194 220 255
193 220 255
194 221 255
194 221 255
194 221 255
196 222 255
196 221 254
196 222 255
197 222 255
197 222 255
198 223 255
201 224 255
201 225 255
201 224 255
201 224 255
203 226 254
205 227 254
205 226 252
205 226 250
207 227 253
207 227 252
208 228 255
208 228 255
208 228 255
208 228 255
208 228 255
208 228 255
208 228 255
208 228 255
208 228 255
207 228 255
207 228 255
207 228 255
207 228 255
207 228 255
207 228 255
207 228 255
207 228 255
207 228 255
207 228 255
207 228 255
207 228 255
207 228 255
207 228 255
207 228 255
207 227 255
207 227 255
207 227 255
207 227 255
206 227 255
206 227 255
206 227 255
206 227 255
206 227 255
206 227 255
206 227 255
206 227 255
206 227 255
206 227 255
206 227 255
206 227 255
206 227 255
206 227 255
206 227 255
206 227 255
206 227 255
206 227 255
206 227 255
206 227 255
206 227 255
205 227 255
205 227 255
205 227 255
205 227 255
205 227 255
205 227 255
205 227 255
205 227 255
205 227 255
205 227 255
205 227 255
205 227 255
205 227 255
205 227 255
205 227 255
205 226 255
205 226 255
205 226 255
205 226 255
205 226 255
205 226 255
205 226 255
205 226 255
205 226 255
205 226 255
205 226 255
205 226 255
205 226 255
205 226 255
205 226 255
204 226 255
204 226 255
204 226 255
204 226 255
204 226 255
204 226 255
204 226 255
204 226 255
204 226 255
204 226 255
204 226 255
204 226 255
204 226 255
204 226 255
204 226 255
204 226 255
204 226 255
204 226 255
204 226 255
204 226 255
204 226 255
204 226 255
204 226 255
204 226 255
204 226 255
204 226 255
204 226 255
204 226 255
204 226 255
204 226 255
204 226 255
204 226 255
204 226 255
204 226 255
204 226 255
205 226 255
205 226 255
205 226 255
205 226 255
205 226 255
205 226 255
205 226 255
205 226 255
205 226 255
205 226 255
205 226 255
205 226 255
205 226 255
205 226 255
205 226 255
205 226 255
205 227 255
205 227 255
205 227 255
205 227 255
205 227 255
205 227 255
205 227 255
205 227 255
205 227 255
205 227 255
205 227 255
205 227 255
205 227 255
205 227 255
205 227 255
206 227 255
206 227 255
206 227 255
206 227 255
206 227 255
206 227 255
206 227 255
206 227 255
206 227 255
206 227 255
206 227 255
206 227 255
206 227 255
206 227 255
206 227 255
206 227 255
206 227 255
206 227 255
206 227 255
206 227 255
206 227 255
207 227 255
207 227 255
207 227 255
207 227 255
207 227 255
207 228 255
207 228 255
207 228 255
207 228 255
207 228 255
207 228 255
207 228 255
207 228 255
207 228 255
207 228 255
207 228 255
207 228 255
207 228 255
207 228 255
208 228 255
208 228 255
208 228 255
208 228 255
208 228 255
208 228 255
208 228 255
208 228 255
187 202 219
160 169 170
127 127 95
123 121 81
136 134 90
135 134 90
139 137 92
136 134 90
137 136 91
136 134 90
134 133 89
141 140 95
137 137 92
141 139 93
136 135 90
143 141 95
150 150 101
144 144 97
143 142 95
146 144 96
151 149 100
145 144 97
145 143 96
137 136 91
147 145 97
150 149 100
145 143 95
149 147 99
150 148 99
141 140 94
150 148 99
144 143 96
145 144 97
141 139 93
134 133 90
139 138 93
150 148 99
148 146 98
143 141 94
149 147 98
150 148 99
158 155 104
151 148 99
145 144 97
151 149 99
152 151 101
142 140 94
147 145 97
142 140 94
144 142 95
143 142 95
144 141 94
150 148 99
143 142 94
153 150 99
150 148 96
152 149 99
145 142 94
150 147 96
145 143 95
149 147 98
145 141 92
147 145 94
142 141 93
158 154 103
147 145 97
149 147 98
142 139 92
148 144 95
139 135 89
153 150 99
146 143 93
140 137 88
149 146 95
141 138 88
148 145 95
148 145 93
140 136 87
154 150 97
145 142 93
150 147 95
144 141 90
148 145 93
138 135 88
145 141 92
140 136 87
143 139 89
138 135 87
139 136 89
142 138 89
132 128 81
146 143 93
150 146 94
136 133 83
144 140 91
145 141 90
149 145 93
134 129 83
136 132 84
132 128 82
134 130 85
140 135 85
129 125 79
141 136 87
210 229 254
211 230 254
211 230 254
210 229 255
209 229 255
209 229 255
209 229 255
208 228 255
208 228 255
207 228 255
208 228 255
207 227 255
206 227 255
206 227 255
205 227 255
204 226 254
204 226 255
204 226 255
204 226 254
203 226 255
203 225 254
202 225 255
202 225 255
202 225 255
201 224 255
201 224 255
200 224 255
200 224 255
199 223 255
199 223 255
198 223 255
199 223 255
198 223 255
198 223 255
197 222 255
197 222 255
197 222 255
196 222 255
196 222 255
195 221 255
195 221 255
195 221 255
194 221 255
194 221 255
194 221 255
193 220 255
193 220 255
193 220 255
193 220 255
192 220 255
192 220 255
192 220 255
192 219 255
191 219 255
191 219 255
191 219 255
191 219 255
191 219 255
190 219 255
190 219 255
190 219 255
190 219 255
190 219 255
190 218 255
190 218 255
190 218 255
190 218 255
189 218 255
189 218 255
189 218 255
190 218 255
190 218 255
190 218 255
189 218 255
189 218 255
190 218 255
189 218 255
190 219 255
190 219 255
190 219 255
191 219 255
191 219 255
191 219 255
191 219 255
192 220 255
193 220 255
193 220 255
194 221 255
194 221 255
194 221 255
196 222 255
196 222 255
197 222 255
198 223 255
198 223 255
199 223 255
199 223 255
201 224 255
201 224 254
203 226 255
203 225 253
205 226 255
206 227 252
206 227 253
207 228 254
207 227 253
208 228 255
208 228 255
208 228 255
208 228 255
208 228 255
208 228 255
208 228 255
208 228 255
208 228 255
208 228 255
207 228 255
207 228 255
207 228 255
207 228 255
207 228 255
207 228 255
207 228 255
207 228 255
207 228 255
207 228 255
207 228 255
207 228 255
207 228 255
207 228 255
207 228 255
207 227 255
207 227 255
207 227 255
207 227 255
207 227 255
206 227 255
206 227 255
206 227 255
206 227 255
206 227 255
206 227 255
206 227 255
206 227 255
206 227 255
206 227 255
206 227 255
206 227 255
206 227 255
206 227 255
206 227 255
206 227 255
206 227 255
206 227 255
206 227 255
206 227 255
206 227 255
206 227 255
205 227 255
205 227 255
205 227 255
205 227 255
205 227 255
205 227 255
205 227 255
205 227 255
205 227 255
205 227 255
205 227 255
205 227 255
205 227 255
205 227 255
205 227 255
205 227 255
205 227 255
205 226 255
205 226 255
205 226 255
205 226 255
205 226 255
205 226 255
205 226 255
205 226 255
205 226 255
205 226 255
205 226 255
205 226 255
205 226 255
205 226 255
205 226 255
205 226 255
205 226 255
205 226 255
205 226 255
205 226 255
205 226 255
205 226 255
205 226 255
205 226 255
205 226 255
205 226 255
205 226 255
205 226 255
205 226 255
205 226 255
205 226 255
205 226 255
205 226 255
205 226 255
205 226 255
205 226 255
205 226 255
205 226 255
205 226 255
205 226 255
205 226 255
205 226 255
205 226 255
205 226 255
205 226 255
205 226 255
205 226 255
205 226 255
205 226 255
205 227 255
205 227 255
205 227 255
205 227 255
205 227 255
205 227 255
205 227 255
205 227 255
205 227 255
205 227 255
205 227 255
205 227 255
205 227 255
205 227 255
205 227 255
205 227 255
205 227 255
205 227 255
206 227 255
206 227 255
206 227 255
206 227 255
206 227 255
206 227 255
206 227 255
206 227 255
206 227 255
206 227 255
206 227 255
206 227 255
206 227 255
206 227 255
206 227 255
206 227 255
206 227 255
206 227 255
206 227 255
206 227 255
206 227 255
206 227 255
207 227 255
207 227 255
207 227 255
207 227 255
207 227 255
207 228 255
207 228 255
207 228 255
207 228 255
207 228 255
207 228 255
207 228 255
207 228 255
207 228 255
207 228 255
207 228 255
207 228 255
207 228 255
207 228 255
207 228 255
208 228 255
208 228 255
208 228 255
208 228 255
208 228 255
208 228 255
208 228 255
208 228 255
208 228 255
208 228 254
185 200 216
151 155 141
126 124 83
132 130 87
133 132 88
135 133 89
137 136 91
141 139 93
138 137 92
135 134 90
139 139 93
138 137 92
141 140 94
143 142 95
135 134 90
144 144 97
145 143 96
142 141 95
141 140 95
146 144 96
144 142 95
145 144 96
154 153 103
145 144 97
141 141 95
143 142 95
155 154 103
147 145 97
142 141 95
145 143 95
153 152 102
147 146 98
143 143 96
155 152 102
154 152 101
153 151 101
145 143 96
147 146 97
143 141 95
154 153 102
147 145 97
149 147 98
145 143 95
145 143 96
144 142 95
157 154 103
156 154 103
156 154 103
151 149 99
148 146 97
153 151 101
148 146 97
150 148 99
153 150 99
144 141 94
143 141 94
150 147 97
151 147 97
154 151 101
156 154 103
146 143 93
147 144 96
139 138 92
143 141 94
147 145 97
149 145 95
147 144 95
159 156 103
143 140 93
148 145 97
149 146 95
141 138 92
137 134 88
148 144 93
144 141 91
150 146 96
147 144 94
148 145 93
152 147 97
157 153 99
146 142 92
143 139 90
153 150 99
147 144 93
146 142 92
138 135 88
147 143 90
148 145 94
148 144 95
150 145 95
136 133 83
150 146 96
139 135 85
138 135 88
137 133 87
147 143 91
134 130 80
142 139 88
135 131 83
142 138 90
135 133 83
146 141 87
137 133 85
139 135 88
131 127 81
132 129 80
211 230 254
211 230 255
211 230 255
209 229 255
210 229 255
208 228 255
209 229 255
208 228 254
206 227 255
207 227 255
206 227 255
206 227 255
205 227 255
205 227 255
204 226 254
205 226 255
203 226 255
203 226 255
203 226 255
202 225 255
202 225 255
202 225 255
202 225 255
201 224 255
201 224 255
200 224 255
199 223 255
199 223 255
198 223 255
199 223 255
198 223 255
197 222 255
197 222 255
197 222 255
196 222 255
196 222 255
196 222 255
195 221 255
195 221 255
194 221 255
194 221 255
194 221 255
193 220 255
194 221 255
193 220 255
193 220 255
193 220 255
192 220 255
192 220 255
192 219 255
192 219 255
191 219 255
191 219 255
190 219 255
190 219 255
190 219 255
190 219 255
190 218 255
189 218 255
189 218 255
189 218 255
189 218 255
188 218 255
188 218 255
188 218 255
188 218 255
188 218 255
188 218 255
188 218 255
188 217 255
188 218 255
188 218 255
188 218 255
188 218 255
188 218 255
188 218 255
189 218 255
189 218 255
189 218 255
189 218 255
189 218 255
189 218 255
190 218 255
189 218 255
190 219 255
190 219 255
191 219 254
191 219 255
191 219 255
193 220 255
192 220 255
194 220 255
194 221 255
195 221 255
195 221 255
197 222 255
198 223 255
198 223 255
199 223 254
200 224 255
202 225 254
202 225 255
203 225 254
204 226 254
207 227 254
207 227 250
207 227 254
208 228 255
208 228 255
208 228 255
208 228 255
208 228 255
208 228 255
208 228 255
208 228 255
208 228 255
208 228 255
208 228 255
208 228 255
208 228 255
208 228 255
207 228 255
207 228 255
207 228 255
207 228 255
207 228 255
207 228 255
207 228 255
207 228 255
207 228 255
207 228 255
207 228 255
207 228 255
207 228 255
207 228 255
207 228 255
207 227 255
207 227 255
207 227 255
207 227 255
207 227 255
206 227 255
206 227 255
206 227 255
206 227 255
206 227 255
206 227 255
206 227 255
206 227 255
206 227 255
206 227 255
206 227 255
206 227 255
206 227 255
206 227 255
206 227 255
206 227 255
206 227 255
206 227 255
206 227 255
206 227 255
206 227 255
206 227 255
206 227 255
206 227 255
205 227 255
205 227 255
205 227 255
205 227 255
205 227 255
205 227 255
205 227 255
205 227 255
205 227 255
205 227 255
205 227 255
205 227 255
205 227 255
205 227 255
205 227 255
205 227 255
205 227 255
205 227 255
205 227 255
205 227 255
205 227 255
205 227 255
205 227 255
205 227 255
205 227 255
205 226 255
205 226 255
205 226 255
205 226 255
205 226 255
205 226 255
205 226 255
205 226 255
205 226 255
205 226 255
205 226 255
205 226 255
205 226 255
205 226 255
205 226 255
205 226 255
205 226 255
205 226 255
205 226 255
205 227 255
205 227 255
205 227 255
205 227 255
205 227 255
205 227 255
205 227 255
205 227 255
205 227 255
205 227 255
205 227 255
205 227 255
205 227 255
205 227 255
205 227 255
205 227 255
205 227 255
205 227 255
205 227 255
205 227 255
205 227 255
205 227 255
205 227 255
205 227 255
205 227 255
205 227 255
206 227 255
206 227 255
206 227 255
206 227 255
206 227 255
206 227 255
206 227 255
206 227 255
206 227 255
206 227 255
206 227 255
206 227 255
206 227 255
206 227 255
206 227 255
206 227 255
206 227 255
206 227 255
206 227 255
206 227 255
206 227 255
206 227 255
206 227 255
206 227 255
207 227 255
207 227 255
207 227 255
207 227 255
207 227 255
207 228 255
207 228 255
207 228 255
207 228 255
207 228 255
207 228 255
207 228 255
207 228 255
207 228 255
207 228 255
207 228 255
207 228 255
207 228 255
207 228 255
207 228 255
208 228 255
208 228 255
208 228 255
208 228 255
208 228 255
208 228 255
208 228 255
208 228 255
208 228 255
208 228 255
208 228 255
208 228 255
207 227 253
174 187 195
133 135 111
137 135 90
122 120 80
131 130 87
138 137 91
144 142 95
135 133 89
146 144 96
123 122 82
139 138 93
119 118 79
137 136 91
143 142 95
146 145 97
134 133 90
147 145 97
146 146 98
146 144 97
143 142 95
148 147 99
143 142 95
143 141 95
146 145 97
143 141 95
147 146 98
152 151 101
151 149 100
154 153 103
149 147 98
148 147 99
148 146 98
148 147 99
154 152 101
153 151 101
149 147 99
152 151 101
150 148 99
143 141 94
151 150 101
155 153 102
149 147 98
147 145 97
142 139 93
153 150 100
142 140 93
151 149 100
150 148 99
140 139 93
150 147 97
152 149 99
155 153 102
149 147 97
152 150 100
154 151 100
149 147 98
145 143 94
155 152 101
151 149 99
152 150 100
148 146 96
148 145 95
154 151 99
145 143 95
157 153 100
147 144 95
153 149 96
151 148 98
141 138 92
152 149 98
146 142 92
149 146 96
148 145 95
149 146 97
139 137 87
147 143 93
146 143 94
147 144 96
149 146 96
152 148 97
144 141 92
155 152 99
147 144 94
141 138 91
146 141 92
145 143 92
146 143 91
153 148 95
148 144 93
153 151 97
145 140 92
140 138 90
138 135 87
142 139 91
142 139 89
143 139 90
142 139 88
155 151 97
129 126 81
149 144 92
131 127 84
134 131 83
133 129 81
136 133 85
141 137 86
138 134 84
143 138 87
137 133 83
210 229 255
210 229 255
209 228 254
208 228 254
209 229 255
208 228 255
207 228 253
206 227 254
207 227 255
206 227 255
206 227 255
205 227 255
204 226 254
205 226 255
204 226 255
203 225 255
203 226 255
203 225 255
202 225 255
202 225 255
202 225 255
201 224 255
200 224 255
200 224 255
200 224 255
199 223 255
199 223 255
199 223 255
198 223 254
197 222 255
197 222 255
197 222 255
197 222 255
196 222 255
195 221 255
195 221 255
195 221 255
195 221 255
195 221 255
194 221 255
194 221 255
193 220 255
193 220 255
193 220 255
193 220 255
192 220 255
192 219 255
192 219 255
191 219 255
191 219 255
190 219 255
190 219 255
190 218 255
190 218 255
189 218 255
189 218 255
189 218 255
189 218 255
189 218 255
188 218 255
188 218 255
188 218 255
188 217 255
188 217 255
187 217 255
187 217 255
187 217 255
187 217 255
187 217 255
187 217 255
187 217 255
187 217 255
187 217 255
187 217 255
187 217 255
188 217 255
187 217 255
187 217 255
187 217 255
187 217 255
187 217 255
188 217 255
188 217 255
188 218 255
188 218 255
189 218 255
189 218 255
190 218 255
190 219 255
191 219 255
191 219 254
192 219 255
192 220 255
193 220 255
193 220 255
194 221 255
194 221 255
196 222 255
196 222 255
197 222 255
198 223 255
200 224 255
202 225 255
202 225 255
203 226 255
204 226 254
206 227 252
206 227 254
207 228 254
208 228 253
209 229 255
208 228 255
208 228 255
208 228 255
208 228 255
208 228 255
208 228 255
208 228 255
208 228 255
208 228 255
208 228 255
208 228 255
208 228 255
208 228 255
208 228 255
207 228 255
207 228 255
207 228 255
207 228 255
207 228 255
207 228 255
207 228 255
207 228 255
207 228 255
207 228 255
207 228 255
207 228 255
207 228 255
207 228 255
207 228 255
207 228 255
207 227 255
207 227 255
207 227 255
207 227 255
207 227 255
206 227 255
206 227 255
206 227 255
206 227 255
206 227 255
206 227 255
206 227 255
206 227 255
206 227 255
206 227 255
206 227 255
206 227 255
206 227 255
206 227 255
206 227 255
206 227 255
206 227 255
206 227 255
206 227 255
206 227 255
206 227 255
206 227 255
206 227 255
206 227 255
206 227 255
206 227 255
205 227 255
205 227 255
205 227 255
205 227 255
205 227 255
205 227 255
205 227 255
205 227 255
205 227 255
205 227 255
205 227 255
205 227 255
205 227 255
205 227 255
205 227 255
205 227 255
205 227 255
205 227 255
205 227 255
205 227 255
205 227 255
205 227 255
205 227 255
205 227 255
205 227 255
205 227 255
204 226 255
199 220 251
198 220 251
202 224 254
204 226 255
205 227 255
205 227 255
205 227 255
205 227 255
205 227 255
205 227 255
205 227 255
205 227 255
205 227 255
205 227 255
205 227 255
205 227 255
205 227 255
205 227 255
205 227 255
205 227 255
205 227 255
205 227 255
205 227 255
205 227 255
205 227 255
205 227 255
205 227 255
205 227 255
206 227 255
206 227 255
206 227 255
206 227 255
206 227 255
206 227 255
206 227 255
206 227 255
206 227 255
206 227 255
206 227 255
206 227 255
206 227 255
206 227 255
206 227 255
206 227 255
206 227 255
206 227 255
206 227 255
206 227 255
206 227 255
206 227 255
206 227 255
206 227 255
206 227 255
206 227 255
206 227 255
207 227 255
207 227 255
207 227 255
207 227 255
207 227 255
207 228 255
207 228 255
207 228 255
207 228 255
207 228 255
207 228 255
207 228 255
207 228 255
207 228 255
207 228 255
207 228 255
207 228 255
207 228 255
207 228 255
207 228 255
207 228 255
208 228 255
208 228 255
208 228 255
208 228 255
208 228 255
208 228 255
208 228 255
208 228 255
208 228 255
208 228 255
208 228 255
208 228 255
208 228 255
208 228 255
205 225 250
170 181 188
137 138 112
133 131 87
130 129 86
130 128 85
130 129 87
137 136 91
136 135 91
134 132 88
141 140 94
132 131 87
137 136 91
130 130 88
142 140 94
145 144 97
136 135 90
140 139 93
139 138 93
149 147 99
153 151 101
140 139 93
155 154 103
149 148 99
146 145 97
147 147 99
141 140 94
146 145 97
148 146 98
149 147 99
151 149 99
152 150 101
151 149 99
147 146 98
149 147 99
144 142 95
154 152 102
153 151 101
156 154 103
152 150 100
142 140 93
151 150 101
149 147 98
154 152 101
150 149 100
151 149 99
156 154 103
155 152 101
154 152 101
152 150 99
148 146 97
161 158 105
155 152 101
149 148 99
157 154 102
160 157 104
147 144 96
149 146 97
151 148 97
155 152 101
156 153 101
151 148 97
146 145 97
156 153 101
147 145 96
152 148 96
152 149 97
150 147 97
151 149 99
146 143 93
157 154 101
154 150 98
152 149 97
156 153 101
144 142 94
149 146 97
149 147 97
155 151 99
158 154 100
159 156 101
151 147 95
147 144 93
147 144 94
148 145 95
145 141 93
143 140 91
150 148 97
146 142 90
146 142 94
146 143 91
152 148 96
135 132 85
149 145 93
139 135 87
146 143 90
150 146 95
139 135 88
139 136 88
145 142 92
148 145 93
137 133 87
141 137 90
144 140 91
141 137 85
151 147 97
139 135 87
136 133 86
148 145 92
141 138 90
138 135 85
139 136 87
209 229 255
210 229 255
207 228 255
208 228 255
208 228 255
208 228 255
206 227 255
206 227 254
206 227 255
206 227 255
205 226 254
204 226 255
204 226 255
204 226 255
203 225 255
203 225 255
202 225 255
202 225 255
201 225 255
201 224 255
201 224 255
200 224 255
200 224 255
199 224 255
199 223 255
199 223 255
198 223 255
197 222 254
197 222 255
197 222 255
197 222 255
196 222 255
196 222 255
195 221 255
195 221 255
195 221 255
195 221 255
194 221 255
194 220 255
193 220 255
193 220 255
192 220 255
192 220 255
192 219 255
191 219 255
191 219 255
191 219 255
190 219 255
190 219 255
190 219 255
190 218 255
189 218 255
189 218 255
189 218 255
189 218 255
189 218 255
188 218 255
188 217 255
188 218 255
187 217 255
187 217 255
187 217 255
187 217 255
187 217 255
186 217 255
186 217 255
186 217 255
186 217 255
186 217 255
186 217 255
186 216 255
186 216 255
186 216 255
186 216 255
186 217 255
186 216 255
186 216 255
186 216 255
186 216 255
186 217 255
186 217 255
186 217 255
187 217 255
187 217 255
187 217 255
187 217 255
188 217 255
188 217 255
188 218 255
189 218 255
189 218 255
189 218 255
190 219 255
191 219 255
191 219 255
192 220 255
193 220 255
194 221 255
194 221 255
195 221 255
197 222 255
196 222 255
198 223 255
199 224 255
201 224 255
202 225 255
204 226 255
206 227 255
206 227 254
207 227 252
207 227 254
209 228 254
208 228 255
208 228 255
208 228 255
208 228 255
208 228 255
208 228 255
208 228 255
208 228 255
208 228 255
208 228 255
208 228 255
208 228 255
208 228 255
208 228 255
208 228 255
208 228 255
208 228 255
208 228 255
207 228 255
207 228 255
207 228 255
207 228 255
207 228 255
207 228 255
207 228 255
207 228 255
207 228 255
207 228 255
207 228 255
207 228 255
207 228 255
207 228 255
207 228 255
207 228 255
207 227 255
207 227 255
207 227 255
207 227 255
207 227 255
207 227 255
206 227 255
206 227 255
206 227 255
206 227 255
206 227 255
206 227 255
206 227 255
206 227 255
206 227 255
206 227 255
206 227 255
206 227 255
206 227 255
206 227 255
206 227 255
206 227 255
206 227 255
206 227 255
206 227 255
206 227 255
206 227 255
206 227 255
206 227 255
206 227 255
206 227 255
206 227 255
206 227 255
206 227 255
206 227 255
206 227 255
206 227 255
206 227 255
206 227 255
205 227 255
205 227 255
205 227 255
205 227 255
205 226 255
187 209 243
168 191 229
144 168 214
137 161 211
106 133 196
96 125 192
83 115 184
62 99 177
62 99 175
61 98 175
63 100 180
62 99 179
62 99 180
78 111 182
87 118 186
103 131 194
137 161 209
144 168 215
167 190 230
193 215 247
203 224 254
205 227 255
205 227 255
205 227 255
205 227 255
206 227 255
206 227 255
206 227 255
206 227 255
206 227 255
206 227 255
206 227 255
206 227 255
206 227 255
206 227 255
206 227 255
206 227 255
206 227 255
206 227 255
206 227 255
206 227 255
206 227 255
206 227 255
206 227 255
206 227 255
206 227 255
206 227 255
206 227 255
206 227 255
206 227 255
206 227 255
206 227 255
206 227 255
206 227 255
206 227 255
206 227 255
206 227 255
206 227 255
207 227 255
207 227 255
207 227 255
207 227 255
207 227 255
207 227 255
207 228 255
207 228 255
207 228 255
207 228 255
207 228 255
207 228 255
207 228 255
207 228 255
207 228 255
207 228 255
207 228 255
207 228 255
207 228 255
207 228 255
207 228 255
207 228 255
208 228 255
208 228 255
208 228 255
208 228 255
208 228 255
208 228 255
208 228 255
208 228 255
208 228 255
208 228 255
208 228 255
208 228 255
208 228 255
208 228 255
208 228 255
208 228 255
208 228 255
206 225 250
175 187 194
148 148 116
125 123 82
133 132 89
132 131 87
132 130 87
138 137 92
127 127 85
136 135 90
138 137 92
144 142 95
147 145 98
142 141 95
138 137 92
142 141 95
148 148 99
138 137 93
148 147 99
145 143 96
145 144 97
151 150 101
139 138 93
144 143 96
147 146 97
149 147 99
149 147 99
153 152 103
148 146 98
149 148 99
152 151 101
152 150 101
151 149 100
148 146 98
152 150 101
146 145 97
158 156 104
154 152 102
153 151 101
152 150 101
157 155 104
146 144 97
152 150 100
150 148 99
148 146 98
152 149 99
153 151 101
155 152 101
156 154 103
151 150 101
154 152 101
158 156 104
162 160 107
147 146 97
157 154 103
154 151 100
153 151 100
161 158 104
152 149 98
150 148 98
154 150 99
155 152 101
147 144 95
157 154 103
157 154 103
152 150 99
157 154 102
150 146 95
154 151 99
156 153 101
155 151 99
148 145 93
152 149 99
154 150 98
151 148 99
154 150 99
151 148 98
144 142 95
156 153 101
154 151 99
154 151 100
147 143 90
153 151 100
151 148 98
155 152 100
156 152 100
150 147 96
155 151 98
153 149 95
144 141 93
150 146 95
150 146 95
152 148 95
149 145 93
143 140 89
142 138 89
145 141 90
145 141 88
142 138 90
146 141 93
142 138 88
149 145 90
149 145 94
140 136 87
136 133 84
143 139 88
140 136 88
146 142 91
138 134 85
144 141 87
150 146 91
149 144 93
137 133 83
209 229 255
209 229 255
207 228 254
208 228 255
208 228 255
207 228 255
206 227 255
206 227 255
205 226 255
205 226 255
205 226 255
204 226 255
203 226 255
203 225 255
203 225 255
202 225 255
202 225 255
201 224 255
201 224 255
201 225 255
200 224 255
200 224 255
199 223 255
199 223 255
198 223 255
197 223 255
197 222 255
198 223 255
197 222 255
197 222 255
196 222 255
195 221 255
195 221 255
195 221 255
195 221 255
195 221 255
194 221 255
194 221 255
193 220 255
192 220 255
192 220 255
192 220 255
192 219 255
191 219 255
191 219 255
191 219 255
190 219 255
190 219 255
190 218 255
190 218 255
189 218 255
189 218 255
188 218 255
188 218 255
188 217 255
188 217 255
187 217 255
187 217 255
187 217 255
187 217 255
186 217 255
186 217 255
186 217 255
186 217 255
186 216 255
185 216 255
186 216 255
186 216 255
185 216 255
185 216 255
185 216 255
185 216 255
185 216 255
185 216 255
185 216 255
185 216 255
185 216 255
185 216 255
185 216 255
185 216 255
185 216 255
185 216 255
185 216 255
185 216 255
185 216 255
186 217 255
186 216 255
187 217 255
187 217 255
187 217 255
187 217 255
188 217 255
188 218 255
189 218 255
189 218 255
190 218 255
191 219 255
191 219 255
192 220 255
193 220 255
194 220 255
194 221 255
196 222 255
197 222 255
199 223 255
199 223 255
199 224 255
201 225 255
204 226 255
205 226 255
204 226 252
206 227 254
208 228 252
209 229 255
209 228 255
208 228 255
208 228 255
208 228 255
208 228 255
208 228 255
208 228 255
208 228 255
208 228 255
208 228 255
208 228 255
208 228 255
208 228 255
208 228 255
208 228 255
208 228 255
208 228 255
208 228 255
208 228 255
208 228 255
208 228 255
207 228 255
207 228 255
207 228 255
207 228 255
207 228 255
207 228 255
207 228 255
207 228 255
207 228 255
207 228 255
207 228 255
207 228 255
207 228 255
207 228 255
207 228 255
207 228 255
207 228 255
207 227 255
207 227 255
207 227 255
207 227 255
207 227 255
207 227 255
206 227 255
206 227 255
206 227 255
206 227 255
206 227 255
206 227 255
206 227 255
206 227 255
206 227 255
206 227 255
206 227 255
206 227 255
206 227 255
206 227 255
206 227 255
206 227 255
206 227 255
206 227 255
206 227 255
206 227 255
206 227 255
206 227 255
206 227 255
206 227 255
206 227 255
206 227 255
206 227 255
205 226 255
179 201 237
149 173 218
127 152 204
71 105 181
62 99 176
62 99 175
62 99 178
62 99 175
62 99 172
62 98 174
63 99 178
62 99 175
62 99 176
62 98 171
62 99 175
61 98 174
62 99 175
62 99 173
62 99 176
61 98 176
63 99 176
62 99 174
62 99 176
63 99 176
73 106 181
123 148 202
149 173 220
181 203 238
204 225 254
206 227 255
206 227 255
206 227 255
206 227 255
206 227 255
206 227 255
206 227 255
206 227 255
206 227 255
206 227 255
206 227 255
206 227 255
206 227 255
206 227 255
206 227 255
206 227 255
206 227 255
206 227 255
206 227 255
206 227 255
206 227 255
206 227 255
206 227 255
206 227 255
206 227 255
206 227 255
207 227 255
207 227 255
207 227 255
207 227 255
207 227 255
207 227 255
207 227 255
207 228 255
207 228 255
207 228 255
207 228 255
207 228 255
207 228 255
207 228 255
207 228 255
207 228 255
207 228 255
207 228 255
207 228 255
207 228 255
207 228 255
207 228 255
207 228 255
207 228 255
208 228 255
208 228 255
208 228 255
208 228 255
208 228 255
208 228 255
208 228 255
208 228 255
208 228 255
208 228 255
208 228 255
208 228 255
208 228 255
208 228 255
208 228 255
208 228 255
208 228 255
208 228 255
208 228 255
208 228 255
207 226 252
177 190 201
138 141 120
126 125 83
127 126 85
135 134 90
136 135 90
142 140 93
137 136 92
144 143 96
134 133 89
144 143 96
135 133 89
143 142 96
154 152 102
140 139 93
151 149 100
143 142 95
149 147 99
139 138 93
145 143 95
151 149 100
150 149 100
146 146 98
153 151 101
154 152 102
150 148 99
145 143 95
150 148 99
160 158 106
148 146 97
147 145 97
148 147 99
153 152 102
151 149 100
152 150 101
146 144 96
138 137 92
156 154 103
161 158 106
150 148 99
153 151 101
159 158 106
147 145 97
146 144 97
157 155 103
151 149 99
150 148 98
156 154 103
152 150 99
157 155 104
160 156 103
157 155 103
151 148 97
153 151 101
158 155 103
152 149 98
152 150 99
154 152 101
160 158 105
153 150 100
160 157 104
155 153 101
153 151 100
154 152 101
155 151 100
158 155 102
150 147 97
162 157 102
147 145 97
146 143 93
156 153 100
149 146 95
155 153 101
157 153 100
153 150 99
154 151 99
153 149 99
159 154 101
151 147 96
153 149 97
156 152 99
159 156 103
137 134 86
150 148 97
154 150 99
155 150 97
154 150 97
144 141 90
150 147 93
149 145 95
151 147 93
149 145 90
155 150 96
147 143 92
142 138 88
143 139 87
148 144 93
146 143 91
151 146 94
156 152 96
149 145 93
139 136 88
139 135 84
150 146 93
146 143 93
143 139 87
147 143 92
153 148 95
142 138 88
143 139 87
146 141 87
145 142 92
145 142 90
141 137 85
208 228 255
208 228 255
208 228 255
207 227 255
207 228 255
206 227 255
206 227 255
205 227 255
204 226 255
204 226 255
204 226 255
203 225 255
202 225 255
202 225 255
202 225 255
201 225 255
201 225 255
201 224 255
200 224 255
200 224 255
199 224 255
199 224 255
198 223 255
199 224 255
198 223 255
198 223 255
197 222 255
197 222 255
196 222 255
196 222 255
196 222 255
195 221 255
195 221 255
195 221 255
194 221 255
193 220 255
193 220 255
193 220 255
193 220 255
192 220 255
192 220 255
192 219 255
191 219 255
191 219 255
191 219 255
190 219 255
190 218 255
189 218 255
189 218 255
189 218 255
189 218 255
188 218 255
188 217 255
188 217 255
187 217 255
188 217 255
188 217 253
186 215 252
189 218 254
190 218 253
190 218 252
188 218 253
193 220 252
191 219 254
189 217 250
189 217 250
190 218 253
190 218 254
191 219 252
190 218 253
188 217 250
190 218 254
189 218 255
186 215 248
187 217 254
186 216 255
185 216 253
184 215 255
184 215 255
184 215 255
184 215 255
184 216 255
184 216 255
184 216 255
185 216 255
184 216 255
185 216 255
185 216 255
185 216 255
185 216 255
186 216 255
187 217 255
187 217 255
187 217 255
188 217 255
189 218 255
189 218 255
189 218 255
190 219 255
191 219 255
192 220 255
192 220 255
194 220 255
195 221 255
196 221 255
197 222 255
197 222 255
199 223 255
201 224 255
201 224 255
203 226 255
204 226 255
204 226 253
206 226 249
209 229 254
208 228 255
209 229 255
209 229 255
209 228 255
209 228 255
208 228 255
208 228 255
208 228 255
208 228 255
208 228 255
208 228 255
208 228 255
208 228 255
208 228 255
208 228 255
208 228 255
208 228 255
208 228 255
208 228 255
208 228 255
208 228 255
208 228 255
208 228 255
208 228 255
208 228 255
208 228 255
207 228 255
207 228 255
207 228 255
207 228 255
207 228 255
207 228 255
207 228 255
207 228 255
207 228 255
207 228 255
207 228 255
207 228 255
207 228 255
207 228 255
207 228 255
207 228 255
207 228 255
207 228 255
207 227 255
207 227 255
207 227 255
207 227 255
207 227 255
207 227 255
207 227 255
206 227 255
206 227 255
206 227 255
206 227 255
206 227 255
206 227 255
206 227 255
206 227 255
206 227 255
206 227 255
206 227 255
206 227 255
206 227 255
206 227 255
206 227 255
206 227 255
200 221 251
179 201 235
133 157 207
79 111 184
61 98 175
61 99 178
63 99 178
62 99 177
61 98 168
63 99 172
62 99 172
62 98 171
63 99 175
62 98 172
62 99 176
62 99 178
62 98 173
62 99 175
63 99 173
62 98 175
62 99 174
61 98 171
62 99 173
62 99 171
62 98 172
62 99 176
62 99 172
62 98 172
62 99 177
62 98 174
61 98 173
62 98 174
69 104 178
127 152 204
163 186 226
205 226 255
206 227 255
206 227 255
206 227 255
206 227 255
206 227 255
206 227 255
206 227 255
206 227 255
206 227 255
206 227 255
206 227 255
206 227 255
206 227 255
206 227 255
206 227 255
206 227 255
207 227 255
207 227 255
207 227 255
207 227 255
207 227 255
207 227 255
207 227 255
207 228 255
207 228 255
207 228 255
207 228 255
207 228 255
207 228 255
207 228 255
207 228 255
207 228 255
207 228 255
207 228 255
207 228 255
207 228 255
207 228 255
207 228 255
207 228 255
207 228 255
207 228 255
207 228 255
208 228 255
208 228 255
208 228 255
208 228 255
208 228 255
208 228 255
208 228 255
208 228 255
208 228 255
208 228 255
208 228 255
208 228 255
208 228 255
208 228 255
208 228 255
208 228 255
208 228 255
208 228 255
208 228 255
208 228 255
209 228 255
209 228 255
209 229 255
209 229 255
189 204 218
151 154 135
137 134 89
139 138 93
133 131 87
136 135 90
138 136 91
137 136 91
136 134 90
136 135 91
140 139 93
143 141 95
145 143 96
138 137 92
148 147 98
138 137 93
144 142 96
149 147 99
138 137 93
148 148 100
149 149 100
144 143 96
148 147 99
155 153 103
152 151 101
148 148 99
152 150 100
158 156 105
161 159 107
152 150 101
147 146 98
152 150 101
151 150 101
158 157 105
156 154 103
158 155 103
152 151 101
156 154 103
156 154 103
158 156 104
149 147 99
153 150 100
148 146 98
153 151 101
154 152 101
156 153 102
157 156 104
157 155 103
160 157 104
151 149 99
152 149 99
158 156 104
152 149 99
157 154 102
153 150 100
158 155 103
162 159 105
158 155 103
154 151 101
155 153 100
155 152 101
157 154 101
160 157 104
162 159 106
154 152 101
156 153 101
151 148 97
155 152 100
150 147 97
158 155 103
155 152 99
162 159 104
150 147 95
149 146 96
152 150 99
152 149 97
152 149 99
151 148 96
154 151 100
153 150 97
156 153 99
158 154 102
151 147 95
150 147 95
156 152 99
149 146 94
152 150 97
161 156 100
153 151 97
150 147 95
151 148 97
146 142 93
154 150 97
151 148 97
148 144 93
152 148 92
151 146 95
149 146 94
147 143 94
149 144 93
151 147 90
145 142 92
160 156 99
141 137 87
140 136 88
148 143 91
143 138 87
150 147 92
144 141 90
147 144 91
143 139 85
146 143 90
147 143 87
142 138 89
143 139 88
132 129 82
208 228 255
207 228 255
207 228 255
206 227 255
206 227 255
206 227 255
205 227 255
205 226 255
204 226 255
203 226 255
203 226 255
202 225 255
202 225 255
202 225 255
202 225 255
201 224 255
201 224 255
200 224 255
200 224 255
200 224 255
199 223 255
199 223 255
198 223 255
198 223 255
198 223 255
197 222 255
197 222 255
196 222 255
196 222 255
195 221 255
195 221 255
195 221 255
194 221 255
194 221 255
194 220 255
193 220 255
193 220 255
193 220 255
192 220 255
192 220 255
191 219 255
191 219 255
191 219 255
190 219 255
190 219 255
190 218 255
189 218 255
188 217 254
190 219 254
191 219 254
191 218 248
192 220 253
193 219 250
193 219 248
196 221 252
196 221 253
196 221 246
193 219 241
194 220 246
195 220 246
196 221 249
195 220 245
196 221 249
196 221 248
197 222 250
196 221 248
195 221 248
195 220 246
195 221 250
194 220 245
193 219 252
194 220 248
193 219 245
193 219 245
194 220 246
195 221 253
194 220 246
194 220 252
192 219 249
189 218 252
189 218 253
188 217 250
187 217 255
185 216 255
184 215 255
183 215 255
184 216 255
184 216 255
185 216 255
185 216 255
185 216 255
185 216 255
186 216 255
186 217 255
186 217 255
187 217 255
187 217 255
188 217 255
189 218 255
189 218 255
190 219 255
191 219 255
192 219 255
192 220 255
193 220 255
195 221 255
194 221 255
197 222 255
198 223 255
199 223 255
200 224 255
201 224 255
203 226 255
203 225 252
207 227 250
207 227 252
209 229 254
209 229 255
209 229 255
209 229 255
209 229 255
209 229 255
209 229 255
209 228 255
208 228 255
208 228 255
208 228 255
208 228 255
208 228 255
208 228 255
208 228 255
208 228 255
208 228 255
208 228 255
208 228 255
208 228 255
208 228 255
208 228 255
208 228 255
208 228 255
208 228 255
208 228 255
208 228 255
208 228 255
208 228 255
208 228 255
207 228 255
207 228 255
207 228 255
207 228 255
207 228 255
207 228 255
207 228 255
207 228 255
207 228 255
207 228 255
207 228 255
207 228 255
207 228 255
207 228 255
207 228 255
207 228 255
207 228 255
207 228 255
207 228 255
207 228 255
207 228 255
207 227 255
207 227 255
207 227 255
207 227 255
207 227 255
207 227 255
207 227 255
207 227 255
206 227 255
206 227 255
206 227 255
206 227 255
206 227 255
182 204 238
133 158 209
76 109 182
62 99 176
62 99 172
62 99 174
62 99 179
62 99 173
61 98 174
62 99 180
62 98 169
63 99 175
62 99 176
63 99 177
62 99 167
62 99 173
62 99 170
62 99 174
62 99 172
61 98 170
62 99 173
61 98 174
62 98 172
62 99 173
62 99 176
62 99 172
62 99 171
63 99 176
63 100 178
62 99 174
62 98 172
63 99 170
63 99 172
62 99 178
62 98 170
61 98 173
62 99 175
73 106 180
146 169 215
188 209 242
206 227 255
206 227 255
206 227 255
206 227 255
206 227 255
207 227 255
207 227 255
207 227 255
207 227 255
207 227 255
207 227 255
207 227 255
207 227 255
207 228 255
207 228 255
207 228 255
207 228 255
207 228 255
207 228 255
207 228 255
207 228 255
207 228 255
207 228 255
207 228 255
207 228 255
207 228 255
207 228 255
207 228 255
207 228 255
207 228 255
207 228 255
207 228 255
207 228 255
207 228 255
208 228 255
208 228 255
208 228 255
208 228 255
208 228 255
208 228 255
208 228 255
208 228 255
208 228 255
208 228 255
208 228 255
208 228 255
208 228 255
208 228 255
208 228 255
208 228 255
208 228 255
208 228 255
208 228 255
208 228 255
208 228 255
208 228 255
209 228 255
209 229 255
209 229 255
209 229 255
209 229 255
209 229 255
203 221 245
157 164 159
137 135 90
137 134 89
133 131 88
129 127 85
141 140 93
138 136 90
141 139 93
141 139 94
138 137 92
144 143 96
147 146 98
148 147 98
149 148 99
142 141 94
149 147 99
144 144 97
147 144 97
153 151 102
150 148 99
148 147 99
147 146 98
152 151 101
144 143 96
152 150 101
154 152 102
151 150 101
149 148 99
155 153 103
157 155 103
153 151 101
150 149 99
152 150 101
154 151 101
155 153 103
157 155 104
149 147 98
155 152 102
149 147 98
157 154 103
163 159 106
158 156 104
151 149 99
149 146 97
151 149 99
162 159 106
157 156 104
156 154 103
162 159 106
155 152 101
152 150 100
148 146 98
158 155 103
163 160 106
161 157 104
155 151 101
162 158 104
162 159 105
155 152 101
155 152 101
157 155 103
163 160 105
156 153 101
162 158 104
154 151 100
163 159 104
154 151 100
156 153 102
158 154 100
160 156 103
151 148 97
157 154 101
161 158 103
151 147 95
164 159 103
160 156 103
147 144 95
151 147 96
149 146 95
153 149 97
156 152 100
159 156 103
154 150 98
152 148 95
150 147 95
154 151 97
155 151 97
156 152 99
148 145 94
152 148 95
149 146 95
144 142 92
159 155 101
149 145 93
150 146 96
150 147 97
147 144 93
156 151 96
140 136 86
160 156 100
157 152 98
155 152 96
153 148 94
140 137 87
141 137 86
146 142 93
149 146 90
154 149 95
149 145 93
147 143 93
144 140 89
139 135 85
154 148 93
143 140 90
148 143 89
139 135 85
141 136 87
207 228 255
207 228 255
206 227 255
206 227 255
205 227 255
205 227 255
205 226 255
204 226 255
204 226 255
203 225 255
203 225 255
203 225 255
202 225 255
201 225 255
201 224 255
201 224 255
200 224 255
200 224 255
199 224 255
199 223 255
199 223 255
198 223 255
198 223 255
198 223 255
197 222 255
196 222 255
196 222 255
196 222 255
196 221 255
195 221 255
195 221 255
194 221 255
194 221 255
194 220 255
193 220 255
193 220 255
193 220 255
192 220 255
192 220 255
192 219 255
191 219 255
191 219 255
191 219 255
191 219 252
191 219 252
194 220 252
195 221 253
197 221 249
196 221 249
197 222 250
196 221 252
196 221 248
197 221 242
196 221 248
198 222 246
195 220 248
199 223 250
196 221 246
197 222 246
197 221 246
195 219 241
197 222 252
195 220 248
195 220 240
196 222 252
196 221 246
195 220 242
197 221 246
196 221 252
195 221 249
196 221 249
194 220 245
196 221 248
196 221 248
194 219 242
195 220 249
196 221 246
197 222 253
194 219 244
194 220 249
194 220 250
193 220 249
194 220 252
194 220 248
193 220 253
193 220 250
188 217 249
186 216 253
185 216 253
184 216 255
184 215 255
184 215 255
184 216 255
185 216 255
185 216 255
186 216 255
186 216 255
186 217 255
187 217 255
188 217 255
188 218 255
189 218 255
190 218 255
190 219 255
191 219 255
192 219 255
193 220 255
195 221 255
196 221 255
197 222 255
199 223 255
199 223 255
201 225 255
203 225 255
204 226 254
205 226 253
206 227 253
207 228 253
208 228 253
209 229 255
209 229 255
209 229 255
209 229 255
209 229 255
209 229 255
209 229 255
209 229 255
209 229 255
209 228 255
209 228 255
208 228 255
208 228 255
208 228 255
208 228 255
208 228 255
208 228 255
208 228 255
208 228 255
208 228 255
208 228 255
208 228 255
208 228 255
208 228 255
208 228 255
208 228 255
208 228 255
208 228 255
208 228 255
208 228 255
208 228 255
208 228 255
208 228 255
208 228 255
207 228 255
207 228 255
207 228 255
207 228 255
207 228 255
207 228 255
207 228 255
207 228 255
207 228 255
207 228 255
207 228 255
207 228 255
207 228 255
207 228 255
207 228 255
207 228 255
207 228 255
207 228 255
207 228 255
207 228 255
207 228 255
207 228 255
207 228 255
207 227 255
204 225 254
160 183 224
98 126 187
62 98 175
62 99 172
62 99 172
62 99 173
63 99 173
61 98 171
62 99 174
62 99 177
61 98 175
62 99 173
62 98 169
62 99 171
63 99 177
62 99 168
63 100 177
63 99 175
62 98 170
62 98 173
62 99 174
62 99 173
63 99 174
62 99 174
62 99 172
62 99 174
63 99 175
61 98 170
62 98 170
63 100 177
62 98 168
61 98 169
62 99 173
62 98 176
62 99 176
62 98 171
62 99 173
62 99 175
61 98 172
61 98 173
63 99 173
62 98 169
108 135 196
177 199 235
206 227 255
207 228 255
207 228 255
207 228 255
207 228 255
207 228 255
207 228 255
207 228 255
207 228 255
207 228 255
207 228 255
207 228 255
207 228 255
207 228 255
207 228 255
207 228 255
207 228 255
207 228 255
207 228 255
207 228 255
207 228 255
207 228 255
207 228 255
207 228 255
207 228 255
208 228 255
208 228 255
208 228 255
208 228 255
208 228 255
208 228 255
208 228 255
208 228 255
208 228 255
208 228 255
208 228 255
208 228 255
208 228 255
208 228 255
208 228 255
208 228 255
208 228 255
208 228 255
208 228 255
208 228 255
208 228 255
208 228 255
208 228 255
208 228 255
209 228 255
209 229 255
209 229 255
209 229 255
209 229 255
209 229 255
209 229 255
209 229 255
209 229 255
209 228 253
177 189 199
129 128 92
133 131 87
136 134 90
137 135 90
138 137 91
138 136 92
144 142 95
148 147 98
145 144 97
139 139 94
144 143 96
139 139 94
141 140 93
145 144 97
138 137 92
156 154 103
148 147 99
155 153 103
149 147 98
141 140 95
150 149 100
144 142 95
155 153 103
148 147 98
151 150 101
146 145 98
162 160 106
157 155 104
161 158 105
152 150 101
149 147 98
151 149 100
154 152 102
161 159 106
156 154 103
156 154 103
154 152 101
162 159 106
158 156 104
154 152 101
156 154 103
152 150 100
156 154 103
157 155 104
159 156 104
155 152 101
155 152 101
160 156 103
166 163 109
159 156 104
154 152 101
165 162 108
157 155 103
154 152 101
152 150 99
158 155 102
153 151 99
153 151 100
149 147 99
153 151 100
158 155 103
152 149 98
156 153 101
156 152 101
156 154 101
159 156 103
156 152 99
155 151 99
162 159 105
163 159 104
156 153 101
155 152 100
158 155 103
159 155 100
154 151 99
156 153 101
149 145 95
153 149 97
159 155 98
153 150 97
156 153 101
160 157 101
156 153 101
162 157 101
156 152 98
159 156 101
150 146 93
161 157 101
149 145 92
153 150 97
155 151 100
159 155 102
155 151 99
151 147 93
160 156 101
149 145 89
157 152 99
155 151 92
152 148 93
149 145 95
149 145 93
144 139 87
150 146 89
149 144 90
150 147 93
150 146 90
144 140 90
147 144 93
153 149 95
151 146 94
144 140 89
157 152 96
146 143 90
162 157 100
146 141 90
138 134 82
155 151 93
159 155 96
207 228 255
206 227 255
206 227 255
206 227 255
205 227 255
204 226 255
204 226 255
204 226 255
203 226 255
203 225 255
202 225 255
202 225 255
202 225 255
201 225 255
201 224 255
200 224 255
200 224 255
200 224 255
200 224 255
199 223 255
198 223 255
198 223 255
198 223 255
197 222 255
197 222 255
197 222 255
196 222 255
196 222 255
195 221 255
195 221 255
195 221 255
194 221 255
194 221 255
194 220 255
193 220 255
193 220 255
192 220 255
192 219 255
191 219 255
193 220 254
193 220 253
197 222 253
195 220 245
198 222 245
196 221 246
197 221 242
198 223 254
197 221 249
197 222 246
198 222 245
198 223 252
199 222 248
198 222 245
197 222 250
199 223 250
199 222 246
199 223 249
198 222 246
198 222 246
199 223 250
197 222 250
198 222 249
198 222 248
198 222 249
197 222 248
197 222 250
198 222 252
198 222 250
198 222 250
195 220 244
196 221 250
195 221 252
196 221 245
197 222 249
197 222 250
197 221 244
197 221 248
195 220 242
197 222 248
196 221 252
194 220 246
194 220 252
195 220 242
195 220 245
195 221 248
193 219 249
194 220 248
193 219 249
195 220 246
194 220 249
190 217 250
186 216 250
186 216 254
184 215 255
184 216 255
184 216 255
185 216 255
185 216 255
186 216 255
186 217 255
187 217 255
188 217 255
188 218 255
189 218 255
190 218 255
191 219 255
191 219 255
193 220 255
193 220 255
194 221 255
195 221 255
197 222 255
198 223 254
201 224 255
202 225 255
203 226 255
205 226 255
205 226 253
206 227 248
209 228 250
210 229 255
209 229 255
209 229 255
209 229 255
209 229 255
209 229 255
209 229 255
209 229 255
209 229 255
209 229 255
209 229 255
209 229 255
209 229 255
209 228 255
209 228 255
208 228 255
208 228 255
208 228 255
208 228 255
208 228 255
208 228 255
208 228 255
208 228 255
208 228 255
208 228 255
208 228 255
208 228 255
208 228 255
208 228 255
208 228 255
208 228 255
208 228 255
208 228 255
208 228 255
208 228 255
208 228 255
208 228 255
208 228 255
208 228 255
208 228 255
207 228 255
207 228 255
207 228 255
207 228 255
207 228 255
207 228 255
207 228 255
207 228 255
207 228 255
207 228 255
207 228 255
207 228 255
207 228 255
207 228 255
207 228 255
205 226 254
160 182 222
86 116 184
62 99 177
63 99 171
62 99 173
62 99 175
62 99 172
63 99 171
63 99 171
62 99 170
62 99 172
62 99 173
62 99 172
63 99 173
62 99 172
62 99 171
62 99 172
62 98 166
62 99 170
63 99 170
62 99 172
62 98 171
63 99 170
62 99 171
63 99 172
62 99 168
61 98 166
61 98 165
62 99 169
62 98 166
62 98 170
62 98 170
62 99 176
62 98 168
62 99 173
62 98 174
62 99 174
62 98 169
62 99 172
62 99 174
62 98 171
62 98 171
62 98 170
61 98 170
62 98 173
61 97 170
104 131 193
158 180 219
203 224 252
207 228 255
207 228 255
207 228 255
207 228 255
207 228 255
207 228 255
207 228 255
207 228 255
207 228 255
207 228 255
207 228 255
207 228 255
207 228 255
207 228 255
207 228 255
208 228 255
208 228 255
208 228 255
208 228 255
208 228 255
208 228 255
208 228 255
208 228 255
208 228 255
208 228 255
208 228 255
208 228 255
208 228 255
208 228 255
208 228 255
208 228 255
208 228 255
208 228 255
208 228 255
208 228 255
208 228 255
208 228 255
208 228 255
208 228 255
208 228 255
209 228 255
209 229 255
209 229 255
209 229 255
209 229 255
209 229 255
209 229 255
209 229 255
209 229 255
209 229 255
209 229 255
209 229 255
209 229 255
209 229 255
196 213 234
152 155 135
128 126 84
137 134 89
143 140 94
137 136 91
140 138 92
143 141 95
141 140 94
146 145 98
141 139 94
142 141 95
148 146 97
143 142 96
139 139 94
145 144 97
150 148 99
143 142 96
151 149 100
144 142 96
144 143 96
148 146 98
142 141 95
152 150 101
151 150 101
147 146 99
155 154 103
155 153 103
158 156 105
148 146 98
148 146 98
146 144 96
158 157 105
159 157 105
159 157 105
156 154 103
150 149 100
157 155 103
155 152 102
162 160 107
163 161 108
160 158 106
153 151 101
156 155 104
163 160 107
156 153 102
165 161 107
155 152 101
154 153 102
153 151 101
161 158 105
163 159 104
153 151 101
159 157 104
160 158 105
161 158 104
156 153 103
161 157 104
160 156 103
161 158 105
156 153 102
156 153 101
157 153 102
154 151 100
161 157 104
161 157 104
161 158 104
157 155 103
155 151 99
154 151 98
159 157 104
164 161 106
156 153 101
159 156 102
153 149 98
161 157 104
160 156 102
159 155 102
158 155 101
154 150 96
157 153 100
164 160 105
160 156 101
158 155 100
155 152 99
144 141 91
152 149 95
151 148 97
154 152 99
162 157 101
157 153 99
158 153 98
152 148 95
153 149 95
157 153 100
156 152 97
157 153 99
153 149 95
162 157 102
143 140 87
162 156 99
149 145 93
154 150 94
156 152 98
152 147 93
160 156 100
141 137 88
152 147 93
143 140 89
143 138 90
138 134 85
146 142 90
142 139 89
145 140 87
146 142 88
148 144 87
140 136 87
152 147 93
151 146 93
152 148 95
151 146 91
207 227 255
206 227 255
205 227 255
205 227 255
205 226 255
204 226 255
204 226 255
203 226 255
203 226 255
203 225 255
202 225 255
202 225 255
201 224 255
201 224 255
201 224 255
200 224 255
200 224 255
199 223 255
199 223 255
199 223 255
198 223 255
198 223 255
198 223 255
197 222 255
197 222 255
196 222 255
196 222 255
196 222 255
195 221 255
195 221 255
194 221 255
194 221 255
194 220 255
193 220 255
193 220 255
193 220 255
193 220 254
196 222 252
198 223 250
199 222 249
198 222 250
197 221 245
199 223 249
200 223 252
199 222 248
199 222 244
200 223 249
198 221 240
198 221 242
198 222 248
199 223 245
197 221 242
199 223 248
196 220 242
198 222 249
198 222 250
198 222 244
199 223 250
199 223 249
199 223 252
199 223 248
199 222 242
197 221 244
200 224 252
198 223 252
199 222 246
198 223 250
197 221 249
197 222 248
198 223 254
197 221 244
197 221 245
197 221 246
198 223 254
197 221 249
198 222 249
197 221 249
197 222 249
197 222 250
196 222 250
196 221 248
196 221 249
198 222 250
196 222 253
194 220 248
195 220 246
196 221 249
194 219 242
194 220 248
196 221 250
194 220 246
194 220 245
194 220 246
194 220 246
191 219 253
185 215 253
185 216 255
184 215 255
185 216 255
185 216 255
186 216 255
186 217 255
187 217 255
187 217 255
188 217 255
189 218 255
190 219 255
191 219 255
192 220 255
193 220 255
195 221 255
195 221 255
196 222 255
197 222 255
199 223 254
200 224 255
202 225 255
204 226 255
205 227 255
207 228 254
208 228 252
210 229 254
209 229 255
209 229 255
209 229 255
209 229 255
209 229 255
209 229 255
209 229 255
209 229 255
209 229 255
209 229 255
209 229 255
209 229 255
209 229 255
209 229 255
209 229 255
209 229 255
209 229 255
209 228 255
209 228 255
208 228 255
208 228 255
208 228 255
208 228 255
208 228 255
208 228 255
208 228 255
208 228 255
208 228 255
208 228 255
208 228 255
208 228 255
208 228 255
208 228 255
208 228 255
208 228 255
208 228 255
208 228 255
208 228 255
208 228 255
208 228 255
208 228 255
208 228 255
208 228 255
208 228 255
208 228 255
208 228 255
208 228 255
207 228 255
207 228 255
207 228 255
207 228 255
207 228 255
175 197 234
92 122 185
62 99 173
62 99 171
62 99 174
62 99 177
62 98 169
61 98 171
62 98 171
62 99 171
62 99 171
61 98 169
62 98 167
62 98 168
62 99 169
62 99 168
62 98 168
62 99 167
62 98 173
62 98 165
62 99 175
62 98 169
62 99 173
62 98 169
62 99 176
62 99 170
62 99 172
63 99 172
62 99 167
62 98 170
62 98 170
62 98 170
62 98 166
62 99 171
62 99 171
62 98 168
62 98 167
62 98 166
62 99 174
61 97 164
61 98 168
62 98 171
62 98 172
61 97 168
62 98 170
62 99 175
60 96 164
61 98 170
62 98 172
62 98 171
88 117 181
172 193 231
206 227 255
207 228 255
207 228 255
207 228 255
207 228 255
208 228 255
208 228 255
208 228 255
208 228 255
208 228 255
208 228 255
208 228 255
208 228 255
208 228 255
208 228 255
208 228 255
208 228 255
208 228 255
208 228 255
208 228 255
208 228 255
208 228 255
208 228 255
208 228 255
208 228 255
208 228 255
208 228 255
208 228 255
208 228 255
208 228 255
208 228 255
208 228 255
208 228 255
209 228 255
209 228 255
209 229 255
209 229 255
209 229 255
209 229 255
209 229 255
209 229 255
209 229 255
209 229 255
209 229 255
209 229 255
209 229 255
209 229 255
209 229 255
209 229 255
209 229 255
209 229 255
207 226 252
170 181 182
140 137 91
141 138 92
136 134 90
135 134 90
137 135 90
137 136 92
143 142 95
144 142 95
155 153 103
146 145 97
143 142 96
149 147 98
146 144 96
151 149 100
145 143 97
138 137 93
147 146 98
148 147 99
157 155 104
152 151 101
149 147 98
157 155 104
144 143 96
150 148 99
160 158 106
154 153 103
153 152 102
155 153 102
159 157 105
153 151 101
156 153 102
155 152 102
155 153 103
156 154 103
165 163 109
158 156 104
150 148 100
159 156 104
156 153 102
156 154 103
157 154 103
162 160 106
157 154 103
158 155 103
157 154 103
160 157 104
154 152 102
163 160 106
155 153 102
161 158 105
160 158 106
167 163 108
158 154 102
163 159 106
160 156 103
160 157 104
162 158 104
160 157 104
154 151 101
159 156 104
161 158 105
158 155 101
157 153 101
159 155 103
159 156 103
157 154 101
154 151 98
161 157 101
160 157 103
158 155 102
163 159 104
155 152 100
153 150 98
152 149 96
161 157 102
163 159 104
159 155 101
165 161 106
157 153 98
156 153 99
164 160 104
162 158 101
160 156 101
156 152 97
152 148 95
154 150 98
156 152 97
159 154 101
155 152 99
154 150 96
154 149 97
156 152 101
159 155 99
158 153 97
149 145 93
160 156 100
162 157 101
150 145 90
158 154 94
150 146 93
161 156 101
152 149 95
148 144 90
158 154 99
146 142 91
160 155 97
148 144 91
145 141 91
154 150 96
147 143 89
151 146 93
146 141 87
149 143 91
146 142 89
142 138 86
158 153 97
150 146 95
156 151 96
141 137 82
145 141 89
154 150 94
206 227 255
205 227 255
205 227 255
205 227 255
205 226 255
204 226 255
204 226 255
203 226 255
203 225 255
203 225 255
202 225 255
202 225 255
201 224 255
201 224 255
201 224 255
200 224 255
200 224 255
199 223 255
199 223 255
198 223 255
198 223 255
198 223 255
197 222 255
197 222 255
197 222 255
196 222 255
196 222 255
195 221 255
195 221 255
195 221 255
194 221 255
194 221 255
194 220 255
196 222 255
199 223 254
199 223 252
199 223 250
201 223 248
201 224 252
200 224 253
200 223 250
200 223 246
199 223 249
199 222 245
200 223 250
200 223 246
198 221 242
199 223 249
198 221 241
201 224 250
198 221 242
201 224 250
202 224 249
201 223 246
200 223 250
200 223 245
201 224 253
200 222 244
200 224 250
198 222 246
198 222 245
199 223 248
197 221 245
195 219 237
195 219 234
196 221 244
193 218 230
194 219 233
196 220 244
194 218 231
195 219 236
196 220 240
194 219 237
196 220 240
196 221 246
194 219 240
196 220 244
195 220 241
196 220 241
195 219 236
195 220 242
195 220 240
197 221 245
197 222 250
196 221 249
196 220 244
197 221 249
195 220 246
197 221 246
196 221 250
194 220 245
195 221 249
194 219 242
195 220 249
194 220 249
196 221 253
193 219 245
191 219 250
188 217 255
186 216 255
185 216 255
185 216 255
186 216 255
186 217 255
187 217 255
187 217 255
188 218 255
189 218 255
190 219 255
191 219 255
191 219 255
193 220 255
195 221 255
196 222 255
197 222 255
198 223 255
200 224 255
201 224 255
202 225 255
204 226 254
207 228 255
206 227 250
209 229 254
210 229 255
209 229 255
209 229 255
209 229 255
209 229 255
209 229 255
209 229 255
209 229 255
209 229 255
209 229 255
209 229 255
209 229 255
209 229 255
209 229 255
209 229 255
209 229 255
209 229 255
209 229 255
209 229 255
209 229 255
209 229 255
209 229 255
209 228 255
209 228 255
209 228 255
208 228 255
208 228 255
208 228 255
208 228 255
208 228 255
208 228 255
208 228 255
208 228 255
208 228 255
208 228 255
208 228 255
208 228 255
208 228 255
208 228 255
208 228 255
208 228 255
208 228 255
208 228 255
208 228 255
208 228 255
208 228 255
208 228 255
208 228 255
208 228 255
195 216 246
117 143 199
63 99 175
62 98 170
62 99 174
62 99 174
62 98 171
63 99 172
62 99 169
62 99 175
62 99 172
62 99 169
62 99 167
62 99 168
62 99 173
63 99 171
62 99 168
62 99 171
62 98 167
62 98 167
62 99 171
62 99 175
63 100 174
62 99 166
62 99 175
63 99 174
62 98 165
62 99 177
62 98 165
62 99 169
62 98 166
61 98 164
62 98 165
62 99 165
62 98 168
62 99 171
62 98 171
62 99 175
62 99 168
62 98 171
61 97 167
62 98 174
61 98 167
62 98 165
61 97 167
61 98 167
61 98 170
62 98 171
62 98 166
61 97 169
62 98 171
63 98 173
61 98 174
62 98 172
113 138 193
188 208 241
208 228 255
208 228 255
208 228 255
208 228 255
208 228 255
208 228 255
208 228 255
208 228 255
208 228 255
208 228 255
208 228 255
208 228 255
208 228 255
208 228 255
208 228 255
208 228 255
208 228 255
208 228 255
208 228 255
208 228 255
208 228 255
208 228 255
208 228 255
208 228 255
208 228 255
209 228 255
209 229 255
209 229 255
209 229 255
209 229 255
209 229 255
209 229 255
209 229 255
209 229 255
209 229 255
209 229 255
209 229 255
209 229 255
209 229 255
209 229 255
209 229 255
209 229 255
209 229 255
209 229 255
209 229 255
209 229 255
209 229 255
209 229 255
191 208 227
145 147 126
128 126 84
132 131 87
129 127 84
134 133 89
132 131 87
148 145 96
141 140 94
141 140 95
137 136 93
135 135 91
140 138 93
133 133 90
151 149 100
135 135 91
153 152 102
149 147 99
150 150 101
153 151 102
149 148 99
155 153 103
147 146 98
153 151 102
152 151 102
151 149 100
156 154 103
154 152 102
152 151 102
149 147 98
152 150 100
154 152 102
159 156 104
156 154 104
150 149 100
157 155 104
157 156 104
155 152 102
158 156 104
161 159 107
155 152 101
162 158 105
160 156 104
157 155 103
160 157 104
151 149 99
156 153 102
164 161 108
159 155 103
158 155 103
164 161 108
156 153 102
161 157 103
149 146 97
161 157 103
167 163 108
162 158 104
171 166 109
160 157 103
157 154 101
163 159 105
163 160 104
167 164 109
164 160 106
164 161 107
160 156 103
155 153 101
158 154 99
161 158 104
161 158 103
157 154 100
155 152 101
155 153 101
158 154 100
161 158 102
157 154 99
165 161 104
156 152 98
165 161 104
154 151 99
156 153 101
160 156 102
160 156 100
154 151 98
149 146 95
162 157 103
165 161 106
155 150 95
156 152 97
152 147 94
161 157 103
150 146 95
154 150 95
164 159 98
154 149 95
156 152 95
160 156 99
166 161 101
160 155 100
157 154 100
154 150 95
149 146 95
159 155 99
153 148 93
150 146 92
156 151 95
158 154 96
154 149 93
143 140 88
146 142 91
149 145 90
142 138 87
150 145 90
148 144 94
140 136 84
144 140 86
158 153 96
156 151 97
146 143 90
153 149 92
147 142 90
149 146 90
144 140 90
142 137 87
206 227 255
206 227 255
205 227 255
205 226 255
204 226 255
204 226 255
204 226 255
203 225 255
203 225 255
202 225 255
202 225 255
201 224 255
201 224 255
201 224 255
200 224 255
200 224 255
199 224 255
199 223 255
199 223 255
198 223 255
198 223 255
198 223 255
197 222 255
197 222 255
196 222 255
196 222 255
196 222 255
195 221 255
195 221 255
195 221 255
196 222 254
198 222 252
201 223 246
199 223 245
201 224 253
202 224 249
200 223 244
201 224 249
202 225 253
202 224 252
200 222 241
200 223 248
200 223 244
201 224 250
200 223 252
200 222 245
201 224 249
202 225 253
200 223 249
201 224 253
202 225 254
200 223 248
200 223 246
198 222 245
196 220 233
197 221 241
198 222 246
194 218 224
198 222 246
197 221 242
195 219 233
198 222 245
196 220 237
198 222 249
197 222 245
197 221 246
194 219 233
197 221 244
197 221 241
195 219 234
196 220 237
197 221 241
197 221 241
195 220 240
197 221 244
197 222 248
196 220 240
196 221 245
196 221 241
194 219 231
195 219 236
195 219 238
194 220 244
193 218 228
196 220 244
195 220 242
196 221 245
195 221 248
196 220 242
199 223 252
198 222 245
196 221 246
196 221 248
197 222 252
195 221 249
195 220 249
194 220 250
195 220 245
196 222 255
192 219 249
191 219 255
189 218 254
185 216 255
185 216 255
186 216 255
187 217 255
187 217 255
188 217 255
189 218 255
190 218 255
191 219 255
191 219 255
192 220 255
194 221 255
194 221 255
196 222 255
198 223 255
199 224 255
200 224 255
202 225 255
204 226 255
206 227 255
208 228 254
210 229 253
209 229 255
210 229 255
210 229 255
210 229 255
210 229 255
210 229 255
209 229 255
209 229 255
209 229 255
209 229 255
209 229 255
209 229 255
209 229 255
209 229 255
209 229 255
209 229 255
209 229 255
209 229 255
209 229 255
209 229 255
209 229 255
209 229 255
209 229 255
209 229 255
209 229 255
209 229 255
209 229 255
209 229 255
209 228 255
209 228 255
208 228 255
208 228 255
208 228 255
208 228 255
208 228 255
208 228 255
208 228 255
208 228 255
208 228 255
208 228 255
208 228 255
208 228 255
208 228 255
208 228 255
208 228 255
208 228 255
207 227 255
149 172 217
74 108 181
62 99 174
62 99 175
63 99 171
63 99 169
61 98 169
62 99 170
63 99 172
62 98 170
62 99 171
63 99 167
62 98 168
62 99 171
61 97 164
61 98 169
62 99 169
62 98 170
63 99 168
63 99 169
62 98 169
62 98 163
62 99 168
63 99 169
61 98 170
62 97 163
62 98 167
62 98 166
63 99 166
61 98 164
62 99 171
62 98 168
63 99 171
62 98 166
62 99 169
62 98 171
62 98 165
62 98 168
63 99 173
63 99 173
62 98 169
62 98 170
62 99 171
62 98 165
62 98 170
62 98 169
61 97 166
62 98 171
62 98 172
61 97 167
62 98 167
62 98 166
61 97 164
62 98 171
62 99 174
62 98 170
68 102 175
155 177 216
204 224 253
208 228 255
208 228 255
208 228 255
208 228 255
208 228 255
208 228 255
208 228 255
208 228 255
208 228 255
208 228 255
208 228 255
208 228 255
208 228 255
208 228 255
208 228 255
209 228 255
209 228 255
209 228 255
209 229 255
209 229 255
209 229 255
209 229 255
209 229 255
209 229 255
209 229 255
209 229 255
209 229 255
209 229 255
209 229 255
209 229 255
209 229 255
209 229 255
209 229 255
209 229 255
209 229 255
209 229 255
209 229 255
209 229 255
209 229 255
209 229 255
210 229 255
210 229 255
210 229 255
210 229 255
210 229 255
185 199 212
137 133 90
128 125 83
132 130 88
138 136 91
149 147 99
142 140 94
151 150 100
143 140 94
135 134 90
137 136 92
134 133 90
148 146 98
148 147 99
146 145 98
145 143 96
151 150 101
151 150 101
150 148 100
149 148 99
147 146 99
142 141 94
154 152 102
150 149 100
155 153 103
146 145 97
155 153 102
154 152 102
152 150 101
157 155 104
159 156 104
159 157 105
158 156 104
158 155 104
156 154 103
158 156 104
150 149 100
157 154 103
166 163 108
164 161 107
159 156 103
160 158 106
164 161 107
159 156 104
160 157 104
165 164 110
161 158 104
166 163 108
163 160 106
164 160 106
162 159 106
160 157 104
163 160 106
165 161 107
166 162 106
158 155 103
162 159 105
162 159 105
158 155 101
163 160 104
161 158 105
171 167 109
159 156 102
160 157 105
168 164 106
153 150 96
162 158 103
165 161 104
165 162 105
159 156 104
161 157 104
157 153 99
160 156 102
161 157 101
156 152 98
155 151 98
165 161 105
158 155 101
156 152 100
164 160 104
161 158 104
164 160 104
164 159 103
158 154 101
150 146 95
164 160 104
157 152 99
153 148 93
160 156 101
161 156 101
159 155 100
164 159 103
157 153 98
156 152 97
160 156 99
153 149 97
157 152 99
161 156 99
159 155 99
168 162 102
154 150 94
160 155 97
155 151 97
147 142 90
159 155 99
156 153 99
154 150 93
155 151 97
157 152 95
158 155 98
158 153 98
153 147 94
150 146 91
150 144 90
156 151 97
153 148 91
164 158 101
151 147 96
150 146 90
157 152 95
149 144 92
154 149 94
149 144 89
155 150 94
149 144 87
206 227 255
205 226 255
205 226 255
204 226 255
204 226 255
204 226 255
203 226 255
203 225 255
203 225 255
202 225 255
201 225 255
201 225 255
201 224 255
201 224 255
200 224 255
200 224 255
199 224 255
199 223 255
199 223 255
198 223 255
198 223 255
198 223 255
197 222 255
197 222 255
196 222 255
196 222 255
196 222 255
196 222 254
198 222 252
200 224 252
202 224 246
202 224 250
199 222 245
200 223 246
201 224 250
201 223 244
199 222 241
200 223 242
200 223 246
201 224 252
200 222 241
202 224 249
200 223 242
201 224 252
201 224 248
203 225 250
198 222 248
201 223 245
198 222 241
200 223 241
198 221 238
197 221 236
200 223 248
196 219 230
199 222 244
196 220 231
197 221 238
198 222 244
197 220 231
198 222 246
197 221 240
198 221 238
198 221 238
198 221 240
199 223 248
198 221 240
197 221 241
196 220 237
197 221 242
198 221 240
196 219 230
196 220 238
197 220 238
198 222 246
197 221 244
198 222 248
195 219 234
196 220 244
197 221 242
198 222 242
197 221 248
195 219 240
194 219 240
196 221 245
195 220 240
196 221 244
195 220 242
193 219 237
195 219 242
195 220 240
193 218 231
197 222 249
196 221 248
197 221 245
197 222 246
197 221 241
196 221 246
195 220 246
195 221 249
195 221 246
194 219 241
192 219 245
193 219 246
188 217 252
186 216 254
185 216 255
186 217 255
187 217 255
187 217 255
188 218 255
189 218 255
190 219 255
191 219 255
193 220 255
194 220 255
194 221 255
196 222 255
197 222 255
198 223 255
200 224 254
202 225 255
204 226 255
205 227 255
207 227 253
208 228 252
210 229 255
210 229 255
210 229 255
210 229 255
210 229 255
210 229 255
210 229 255
210 229 255
210 229 255
210 229 255
210 229 255
209 229 255
209 229 255
209 229 255
209 229 255
209 229 255
209 229 255
209 229 255
209 229 255
209 229 255
209 229 255
209 229 255
209 229 255
209 229 255
209 229 255
209 229 255
209 229 255
209 229 255
209 229 255
209 229 255
209 229 255
209 229 255
209 229 255
209 229 255
209 229 255
209 228 255
209 228 255
208 228 255
208 228 255
208 228 255
208 228 255
208 228 255
208 228 255
208 228 255
200 220 248
116 141 196
62 98 172
62 98 170
62 99 173
62 98 170
62 99 170
62 99 169
62 98 167
62 99 172
62 98 165
62 99 171
61 98 161
62 98 167
62 99 169
62 98 167
63 99 173
62 98 166
62 99 169
62 99 172
61 97 163
62 98 168
63 99 171
61 98 160
62 98 167
63 99 167
63 99 167
63 99 172
63 99 165
62 98 162
62 98 167
64 100 173
62 98 167
62 98 162
61 98 169
62 98 168
62 98 166
61 98 164
62 98 169
62 98 162
62 98 166
60 96 162
62 98 169
62 98 170
62 98 169
62 98 166
62 98 167
62 98 168
62 98 170
61 97 167
62 98 168
62 98 169
62 98 171
62 98 165
62 98 170
62 98 170
62 98 172
61 97 162
62 98 173
61 97 169
98 126 188
197 217 246
208 228 255
208 228 255
208 228 255
208 228 255
208 228 255
208 228 255
208 228 255
209 228 255
209 228 255
209 229 255
209 229 255
209 229 255
209 229 255
209 229 255
209 229 255
209 229 255
209 229 255
209 229 255
209 229 255
209 229 255
209 229 255
209 229 255
209 229 255
209 229 255
209 229 255
209 229 255
209 229 255
209 229 255
209 229 255
209 229 255
209 229 255
209 229 255
209 229 255
210 229 255
210 229 255
210 229 255
210 229 255
210 229 255
210 229 255
210 229 255
210 229 255
210 229 255
206 225 251
173 183 185
135 132 87
129 127 83
131 130 87
136 134 89
131 129 86
148 146 98
141 140 94
136 135 90
145 144 97
143 142 96
153 151 101
149 148 99
141 140 95
135 135 91
151 149 100
155 153 102
143 142 96
138 137 93
153 152 103
152 150 101
150 149 100
154 153 103
153 151 102
155 155 104
148 146 98
156 154 103
157 155 103
150 148 99
152 150 101
150 147 98
158 157 105
161 158 105
153 150 100
152 151 101
158 156 104
159 156 104
149 147 98
158 156 105
158 155 103
161 158 105
156 154 103
160 157 104
160 158 106
162 158 105
160 158 106
161 158 104
164 161 107
166 162 108
160 157 103
165 161 107
157 154 102
162 160 106
156 152 100
153 150 99
163 160 106
157 153 100
169 165 109
156 152 100
164 160 106
164 159 104
164 160 104
163 159 104
164 160 104
159 156 103
157 154 101
162 158 103
163 160 105
162 157 101
162 159 104
163 159 104
160 156 101
159 156 101
161 156 102
159 155 101
160 156 103
160 157 103
155 151 97
164 160 105
159 156 103
159 155 101
157 154 99
171 167 108
161 158 103
163 159 103
165 160 104
162 158 104
161 157 99
158 154 98
161 157 101
151 148 95
162 157 100
161 157 101
154 150 95
163 159 102
153 149 95
154 150 95
167 162 104
157 154 98
151 148 95
158 153 97
155 150 96
164 159 99
157 152 97
154 149 92
150 146 93
147 144 91
163 159 100
152 147 93
157 153 99
144 139 87
146 143 92
146 142 90
152 148 93
143 139 90
148 144 89
150 145 91
148 144 93
157 153 99
149 145 91
153 149 95
159 154 95
155 150 94
155 152 94
142 138 84
152 146 90
206 227 255
205 227 255
205 226 255
204 226 255
204 226 255
203 226 255
203 225 255
203 225 255
202 225 255
202 225 255
201 225 255
201 224 255
201 224 255
200 224 255
200 224 255
200 224 255
199 223 255
199 223 255
199 223 255
198 223 255
198 223 255
198 223 255
197 222 255
197 222 255
196 222 255
197 222 255
200 224 254
202 225 254
201 224 252
201 224 249
202 224 249
201 224 248
201 224 246
202 224 248
200 223 242
202 225 250
201 223 248
202 224 248
200 223 246
202 224 249
205 226 252
201 223 245
204 226 253
203 225 253
201 223 246
199 222 242
199 222 240
198 221 237
199 223 244
198 221 236
199 222 238
198 221 237
198 222 241
200 223 242
198 221 240
198 221 241
200 223 242
198 222 244
198 222 241
198 221 237
198 221 240
200 223 244
199 222 242
201 223 248
198 221 238
198 222 240
199 222 244
198 221 238
199 222 244
199 223 245
197 221 240
198 222 245
200 223 250
198 222 244
198 221 238
197 221 240
198 221 241
199 223 246
197 221 246
197 221 238
197 220 237
196 220 238
198 222 244
196 220 241
196 220 237
196 220 242
198 222 248
195 220 238
196 220 240
196 220 237
194 219 236
196 220 242
195 220 241
194 220 244
194 219 238
195 220 241
198 222 246
197 222 250
197 221 246
196 222 253
196 220 244
198 222 248
196 221 253
195 221 250
193 219 248
190 218 252
187 217 253
186 216 255
187 217 255
187 217 255
188 218 255
189 218 255
190 218 255
191 219 255
191 219 255
193 220 255
194 220 255
196 222 255
197 222 255
198 223 255
200 224 255
201 224 255
203 225 255
205 226 254
205 227 253
207 227 249
209 228 252
210 229 255
210 229 255
210 229 255
210 229 255
210 229 255
210 229 255
210 229 255
210 229 255
210 229 255
210 229 255
210 229 255
210 229 255
210 229 255
210 229 255
210 229 255
209 229 255
209 229 255
209 229 255
209 229 255
209 229 255
209 229 255
209 229 255
209 229 255
209 229 255
209 229 255
209 229 255
209 229 255
209 229 255
209 229 255
209 229 255
209 229 255
209 229 255
209 229 255
209 229 255
209 229 255
209 229 255
209 229 255
209 229 255
209 229 255
209 229 255
209 229 255
164 186 226
79 111 180
63 99 175
62 99 174
62 99 171
62 99 170
63 99 169
62 98 166
62 98 169
62 99 169
63 99 171
62 99 165
62 98 170
62 98 167
61 98 169
63 99 170
61 97 166
61 97 163
62 98 168
62 99 170
62 98 165
63 99 168
62 98 169
62 99 165
62 99 168
62 98 163
62 98 168
62 98 166
62 98 166
63 99 169
62 99 171
62 98 163
62 99 167
62 98 163
62 99 169
62 99 167
61 98 168
61 97 156
61 97 163
62 98 165
62 98 164
63 99 169
61 97 162
62 98 163
61 97 162
62 98 167
62 98 166
63 98 166
61 97 161
62 98 169
62 98 166
61 97 165
61 97 160
61 98 169
61 96 162
62 98 171
62 98 170
61 96 165
61 97 168
61 97 164
60 97 170
62 97 168
78 109 169
171 192 231
209 229 255
209 229 255
209 229 255
209 229 255
209 229 255
209 229 255
209 229 255
209 229 255
209 229 255
209 229 255
209 229 255
209 229 255
209 229 255
209 229 255
209 229 255
209 229 255
209 229 255
209 229 255
209 229 255
209 229 255
209 229 255
209 229 255
209 229 255
209 229 255
209 229 255
209 229 255
210 229 255
210 229 255
210 229 255
210 229 255
210 229 255
210 229 255
210 229 255
210 229 255
210 229 255
210 229 255
210 229 255
210 229 255
210 229 255
210 229 255
202 219 239
141 144 125
135 132 87
139 137 91
134 132 88
146 143 95
145 143 96
141 138 92
146 144 96
140 140 95
136 135 90
145 144 97
144 143 97
140 140 95
138 137 92
146 145 98
143 141 95
151 149 100
155 153 102
150 149 100
154 152 102
151 150 102
147 146 99
151 149 100
156 154 104
152 150 101
165 162 108
151 149 99
151 150 101
163 161 108
162 160 107
157 154 103
158 155 103
158 156 105
163 160 107
154 153 104
161 159 106
153 151 102
158 155 103
163 161 107
160 158 105
158 155 103
161 158 105
162 158 105
157 153 102
163 160 107
159 157 104
161 158 104
161 158 105
168 165 109
164 160 105
167 162 107
160 156 104
164 161 106
163 160 106
159 155 103
160 157 104
162 158 104
158 155 103
166 162 108
163 160 106
162 158 104
162 159 105
163 160 105
162 158 104
165 162 107
163 159 104
169 165 108
166 162 106
157 155 102
165 161 104
161 157 101
161 157 103
161 157 103
163 159 103
168 165 108
167 163 105
157 154 101
165 160 105
165 161 105
162 158 103
158 154 100
156 154 99
162 158 100
159 154 100
156 153 100
164 160 101
159 155 100
163 158 103
158 153 100
162 158 102
162 158 103
167 162 103
159 154 100
158 153 98
164 160 105
156 152 96
156 152 97
160 155 97
162 158 99
157 153 98
146 142 89
150 147 90
152 148 95
154 150 94
156 152 96
151 148 95
162 156 99
159 153 99
153 149 93
157 152 95
154 149 92
150 146 92
151 146 90
156 152 97
150 146 93
149 144 86
151 147 90
156 151 96
155 150 95
143 139 88
153 147 93
147 143 90
153 147 90
146 143 90
145 140 87
152 148 91
151 147 91
205 227 255
205 226 255
204 226 255
204 226 255
204 226 255
203 226 255
203 225 255
203 225 255
202 225 255
202 225 255
202 225 255
201 224 255
201 224 255
200 224 255
200 224 255
200 224 255
199 224 255
199 223 255
199 223 255
198 223 255
198 223 255
198 223 255
197 222 255
199 223 255
200 223 253
201 224 249
204 225 250
203 225 248
203 225 249
202 225 250
203 225 252
203 225 248
202 224 246
201 224 249
200 223 244
203 225 249
204 225 252
203 225 248
203 225 248
202 225 252
204 225 248
201 224 246
199 222 240
200 223 244
199 222 240
199 222 241
197 219 223
199 222 236
200 223 242
199 222 241
200 223 244
201 223 245
200 223 245
201 224 248
200 223 241
199 222 240
200 223 242
198 221 234
200 223 245
200 223 244
200 222 244
200 222 240
200 222 238
200 223 246
199 222 240
201 224 246
200 223 242
198 221 241
201 224 246
200 223 248
201 224 248
201 223 246
199 222 244
199 222 245
199 222 245
199 222 244
199 222 245
200 223 249
200 223 248
198 221 237
199 222 242
199 222 245
198 222 240
199 222 246
198 221 241
199 222 241
197 221 242
199 223 249
197 221 242
197 221 245
198 222 245
197 221 244
198 222 248
197 221 245
196 221 244
193 218 231
196 221 244
195 220 241
196 221 246
195 220 245
197 222 248
200 223 250
196 221 245
195 220 249
195 220 246
196 221 241
195 220 249
193 220 250
189 218 253
186 217 255
187 217 255
188 218 255
189 218 255
190 218 255
191 219 255
191 219 255
193 220 255
194 221 255
196 221 255
197 222 255
198 223 255
199 223 254
201 224 255
203 226 255
204 226 255
206 227 255
208 228 253
211 230 255
210 230 255
210 229 255
210 229 255
210 229 255
210 229 255
210 229 255
210 229 255
210 229 255
210 229 255
210 229 255
210 229 255
210 229 255
210 229 255
210 229 255
210 229 255
210 229 255
210 229 255
210 229 255
210 229 255
210 229 255
210 229 255
209 229 255
209 229 255
209 229 255
209 229 255
209 229 255
209 229 255
209 229 255
209 229 255
209 229 255
209 229 255
209 229 255
209 229 255
209 229 255
209 229 255
209 229 255
209 229 255
209 229 255
207 227 254
153 175 220
62 98 174
63 99 175
62 98 170
62 99 171
62 98 167
62 99 166
62 98 171
63 99 170
63 99 169
62 99 168
62 99 173
62 98 167
62 99 168
62 99 169
61 98 160
63 99 167
62 98 169
63 99 169
62 98 163
62 98 163
62 98 165
62 98 160
63 99 173
61 98 163
62 99 172
62 99 167
63 99 169
64 100 169
61 97 161
62 98 167
62 98 162
63 99 165
61 98 166
62 98 163
62 98 164
61 98 166
61 97 159
63 99 170
62 98 166
62 98 171
62 98 167
62 98 169
62 98 159
62 98 165
62 99 172
61 97 155
61 97 164
63 99 171
61 98 167
62 98 165
61 97 163
62 97 160
62 98 164
61 97 165
62 98 166
62 98 169
61 97 168
62 97 164
62 98 167
61 96 166
61 97 166
61 96 164
61 97 169
61 95 162
153 175 214
209 229 255
209 229 255
209 229 255
209 229 255
209 229 255
209 229 255
209 229 255
209 229 255
209 229 255
209 229 255
209 229 255
209 229 255
209 229 255
209 229 255
209 229 255
209 229 255
209 229 255
209 229 255
210 229 255
210 229 255
210 229 255
210 229 255
210 229 255
210 229 255
210 229 255
210 229 255
210 229 255
210 229 255
210 229 255
210 229 255
210 229 255
210 229 255
210 229 255
210 229 255
210 229 255
210 229 255
210 229 255
210 229 255
194 209 227
132 133 103
135 132 86
131 129 87
144 142 96
138 135 90
141 140 94
135 134 90
143 142 96
148 146 99
139 139 94
148 146 99
144 143 96
147 146 99
147 146 99
143 142 96
146 145 97
145 144 97
149 147 99
149 148 100
152 150 101
154 152 102
158 156 105
152 151 101
153 151 101
152 150 100
156 154 103
154 152 102
158 156 104
160 159 107
164 161 108
156 154 103
161 157 104
158 155 103
156 154 103
158 155 104
159 156 104
163 160 106
155 153 102
156 154 103
159 156 103
157 155 103
161 158 104
166 162 108
161 158 104
165 161 107
158 154 102
166 163 106
162 159 106
166 162 108
157 154 102
160 156 103
161 159 105
168 164 108
170 165 110
162 158 103
168 164 108
157 154 101
164 160 106
164 160 104
160 157 103
172 168 110
167 164 109
161 158 104
161 158 102
162 157 101
161 156 101
160 156 101
162 158 104
167 164 106
164 160 104
162 159 104
162 158 103
163 159 103
156 152 99
163 159 101
161 157 101
161 156 101
164 160 103
164 161 104
163 157 102
163 159 104
158 155 99
159 154 99
164 160 103
164 160 106
162 158 99
156 153 100
172 166 108
164 160 103
160 156 101
165 160 103
164 160 102
162 157 101
160 156 98
149 146 93
159 154 99
167 161 103
161 156 100
145 142 93
152 148 95
156 151 99
159 155 96
157 153 97
156 151 94
159 154 96
159 155 99
161 157 99
161 157 99
157 153 95
161 156 95
157 154 94
149 143 87
147 142 90
154 150 93
154 149 94
157 152 94
148 145 91
150 145 90
149 145 92
160 156 97
156 152 96
157 153 93
160 155 98
151 146 87
151 146 90
154 150 94
157 151 93
145 142 86
205 227 255
205 227 255
205 226 255
204 226 255
204 226 255
204 226 255
203 226 255
203 225 255
202 225 255
202 225 255
202 225 255
201 224 255
201 224 255
200 224 255
200 224 255
200 224 255
200 224 255
199 223 255
199 223 255
199 223 255
198 223 255
199 223 253
202 224 252
202 224 249
204 226 250
204 226 253
204 226 253
205 226 252
204 226 252
203 225 246
203 225 250
204 225 250
204 225 249
202 224 248
204 225 248
204 226 250
203 225 246
202 224 245
203 225 245
202 224 246
198 220 233
198 221 237
199 221 233
200 222 238
200 223 240
198 221 230
200 223 245
202 224 248
200 222 240
200 222 240
200 222 241
200 223 244
201 224 245
200 222 242
200 223 245
201 223 246
199 222 244
201 224 248
202 224 246
200 222 241
201 223 242
199 221 242
199 222 242
199 222 242
201 223 245
200 222 238
200 223 244
201 224 246
201 224 250
200 223 242
199 222 242
199 222 242
202 225 252
200 223 245
201 223 248
198 221 240
200 223 245
202 224 250
199 222 237
198 222 246
199 222 241
199 222 242
199 222 240
198 221 238
197 220 234
200 223 244
197 221 240
199 223 248
198 222 245
197 221 244
197 221 241
199 223 248
198 222 245
197 220 240
197 221 241
197 221 244
196 221 244
196 221 242
194 219 237
196 220 241
194 219 236
196 220 236
198 222 248
198 222 249
198 223 254
195 221 246
194 219 244
195 221 249
196 221 252
192 218 246
189 218 255
187 217 255
188 217 255
189 218 255
190 218 255
190 219 255
191 219 255
192 220 255
193 220 255
195 221 255
196 222 255
198 223 255
200 224 255
202 225 255
202 225 255
204 226 255
208 228 255
208 228 255
210 229 254
211 230 255
210 230 255
210 230 255
210 230 255
210 229 255
210 229 255
210 229 255
210 229 255
210 229 255
210 229 255
210 229 255
210 229 255
210 229 255
210 229 255
210 229 255
210 229 255
210 229 255
210 229 255
210 229 255
210 229 255
210 229 255
210 229 255
210 229 255
210 229 255
210 229 255
210 229 255
210 229 255
210 229 255
210 229 255
209 229 255
209 229 255
209 229 255
209 229 255
209 229 255
209 229 255
209 229 255
206 226 253
132 156 202
63 99 175
63 99 171
62 98 165
63 100 175
62 98 169
62 98 167
62 99 165
61 98 168
62 98 161
62 98 166
62 98 167
61 97 156
61 98 168
63 99 172
62 98 165
61 97 161
62 98 166
62 98 164
63 99 169
62 98 163
62 98 163
63 99 165
62 98 164
62 99 170
62 98 164
62 99 171
62 98 168
62 98 167
62 98 160
62 99 166
61 97 159
62 98 161
62 99 167
62 98 164
62 98 166
61 97 160
62 98 166
62 98 167
62 99 165
62 99 170
61 98 165
62 98 164
62 98 166
63 98 166
61 97 160
62 98 169
61 97 158
62 98 165
62 98 168
61 97 160
62 97 163
61 97 163
62 97 166
62 97 163
62 97 163
61 97 163
62 97 165
61 97 165
61 96 158
62 97 168
60 96 159
61 96 166
61 97 168
60 95 163
62 97 166
61 95 163
127 151 202
207 227 254
209 229 255
209 229 255
209 229 255
209 229 255
209 229 255
209 229 255
209 229 255
209 229 255
210 229 255
210 229 255
210 229 255
210 229 255
210 229 255
210 229 255
210 229 255
210 229 255
210 229 255
210 229 255
210 229 255
210 229 255
210 229 255
210 229 255
210 229 255
210 229 255
210 229 255
210 229 255
210 229 255
210 229 255
210 229 255
210 229 255
210 229 255
210 229 255
210 230 255
210 230 255
211 230 255
185 198 209
133 131 95
129 127 84
137 135 88
135 133 90
130 129 86
145 144 98
142 141 95
135 133 89
143 142 96
141 140 95
145 144 97
143 141 95
145 144 97
138 138 95
144 143 97
150 149 101
150 149 100
140 139 94
150 149 100
147 145 97
151 149 100
150 149 101
145 143 96
142 142 97
157 155 104
148 147 99
153 151 102
156 153 103
158 156 105
155 153 103
157 154 103
162 160 107
163 160 107
161 159 107
165 163 109
159 156 104
157 155 103
155 153 102
161 157 104
158 156 104
165 161 107
169 165 108
166 162 107
164 161 107
166 162 107
165 161 105
166 164 108
164 161 107
163 160 106
164 161 106
164 161 107
167 162 105
167 163 107
164 161 107
169 164 106
164 161 103
162 158 103
164 161 106
168 164 108
163 159 104
172 167 110
164 160 104
167 162 106
166 163 106
166 162 106
159 156 103
167 163 107
163 160 104
166 161 105
170 165 106
165 161 105
165 161 105
158 154 100
161 157 99
159 154 99
170 166 108
161 158 102
164 160 104
158 154 99
168 163 103
164 160 101
162 157 101
166 162 107
162 157 102
158 154 98
164 161 104
152 148 93
159 154 99
155 152 95
159 155 100
157 153 95
162 158 103
164 159 103
154 151 96
161 157 101
156 153 97
160 155 97
155 150 96
157 154 97
154 150 96
160 155 97
158 153 97
155 151 95
153 149 94
159 154 98
155 151 94
160 154 95
154 149 92
161 156 96
157 153 95
162 158 102
155 150 95
160 156 97
152 148 91
152 147 95
154 149 93
156 151 92
148 144 92
159 154 94
159 154 95
148 144 90
153 147 91
147 141 84
149 145 88
148 144 87
148 144 89
152 147 92
154 149 93
143 139 84
205 227 255
205 226 255
204 226 255
204 226 255
204 226 255
204 226 255
203 225 255
203 225 255
202 225 255
202 225 255
202 225 255
202 225 255
201 224 255
201 224 255
200 224 255
200 224 255
199 224 255
199 223 255
199 223 255
199 224 255
203 225 253
203 225 250
204 226 253
203 225 252
203 225 250
204 225 250
203 225 249
201 224 245
205 226 254
205 226 250
204 226 250
204 225 249
203 225 246
204 225 248
204 225 245
203 224 246
202 223 244
200 223 242
199 221 234
200 223 241
200 222 237
200 222 237
201 222 237
201 223 242
202 225 249
202 224 246
201 223 241
203 225 249
202 224 248
201 223 241
201 223 238
202 224 246
203 225 249
201 224 244
202 224 244
202 224 250
202 224 246
200 223 238
203 225 249
202 224 245
202 224 249
202 224 253
201 223 244
201 223 241
202 224 248
201 224 248
202 224 245
202 224 245
201 223 244
200 222 248
202 225 252
202 224 245
200 222 240
201 224 245
202 224 249
201 223 242
200 223 246
202 224 245
199 222 241
200 222 244
202 224 249
202 224 246
200 223 249
200 223 248
199 222 244
201 224 250
200 223 244
197 220 242
199 222 245
196 220 238
199 222 244
198 221 240
199 222 241
197 221 241
198 222 244
198 222 242
196 221 240
198 222 245
196 220 242
198 222 244
195 220 241
197 221 244
195 220 242
195 220 240
196 221 246
200 223 248
198 222 248
198 222 248
197 222 248
198 222 248
197 222 252
193 220 250
190 218 255
188 217 255
189 218 255
190 218 255
190 219 255
191 219 255
193 220 255
194 220 255
195 221 255
197 222 255
198 223 255
199 223 255
201 224 255
202 225 254
204 226 254
205 227 255
208 228 253
208 228 252
210 229 254
211 230 255
211 230 255
211 230 255
211 230 255
211 230 255
211 230 255
210 230 255
210 230 255
210 230 255
210 229 255
210 229 255
210 229 255
210 229 255
210 229 255
210 229 255
210 229 255
210 229 255
210 229 255
210 229 255
210 229 255
210 229 255
210 229 255
210 229 255
210 229 255
210 229 255
210 229 255
210 229 255
210 229 255
210 229 255
210 229 255
210 229 255
210 229 255
210 229 255
204 223 250
112 138 190
61 98 168
62 98 166
62 98 169
62 98 167
61 97 161
61 97 162
62 98 167
62 99 165
63 99 170
63 99 171
62 98 160
63 99 167
63 99 167
63 99 167
62 98 167
62 99 163
62 98 166
62 98 165
62 99 166
62 98 165
62 98 157
62 98 167
63 99 168
62 98 164
62 99 164
62 98 164
62 98 161
61 97 156
62 98 164
62 99 171
61 97 160
62 98 161
62 98 160
62 98 164
62 98 166
62 99 171
62 98 164
61 97 158
62 99 165
61 98 163
61 97 163
63 99 170
61 97 158
62 99 167
62 99 169
62 98 164
61 97 160
62 98 167
61 96 162
62 98 162
61 98 162
61 97 164
61 97 160
63 98 166
61 97 160
62 98 166
62 98 168
62 98 169
62 98 166
62 97 161
61 97 167
61 96 162
62 98 168
62 97 168
61 96 164
60 95 160
60 95 165
60 95 163
113 137 185
201 220 248
210 229 255
210 229 255
210 229 255
210 229 255
210 229 255
210 229 255
210 229 255
210 229 255
210 229 255
210 229 255
210 229 255
210 229 255
210 229 255
210 229 255
210 229 255
210 229 255
210 229 255
210 229 255
210 229 255
210 229 255
210 229 255
210 229 255
210 229 255
210 229 255
210 230 255
210 230 255
210 230 255
211 230 255
211 230 255
211 230 255
211 230 255
211 230 255
211 230 255
177 188 194
131 128 84
124 121 80
134 132 89
139 137 92
136 134 90
137 136 92
130 129 87
134 133 90
146 144 97
141 140 94
146 145 97
139 138 93
139 138 93
151 150 101
153 152 102
142 141 96
144 143 97
142 141 95
152 151 102
148 147 100
142 141 95
155 153 103
150 148 100
155 154 104
153 152 103
157 155 104
152 151 102
163 161 108
152 150 101
163 160 108
158 156 104
157 155 103
158 156 103
158 156 103
162 159 106
164 162 108
159 157 104
157 154 103
162 159 107
156 154 101
154 151 100
160 156 103
162 159 105
164 162 108
164 162 106
164 161 107
164 161 106
170 166 109
166 163 107
163 160 106
162 158 103
161 158 104
169 165 108
159 155 103
162 158 105
163 160 106
168 165 108
170 166 110
163 160 104
169 165 107
168 164 108
164 160 104
166 160 103
168 164 108
167 164 108
166 162 106
170 166 108
164 160 103
164 160 103
155 151 95
162 157 99
162 158 102
163 159 103
161 157 102
168 164 105
166 162 104
167 163 103
162 159 103
165 162 104
169 164 106
171 167 107
165 160 102
168 163 106
156 152 96
166 161 104
156 152 97
159 155 95
165 159 101
162 157 99
165 160 103
163 159 99
163 158 101
162 156 99
163 158 98
161 156 99
156 151 97
159 155 97
160 155 98
161 156 99
162 157 101
168 162 102
163 158 100
157 153 96
156 152 96
151 148 95
155 151 96
158 154 95
160 155 98
155 150 93
161 156 97
151 146 90
163 157 99
159 155 96
155 150 94
158 153 93
159 154 95
155 151 93
162 157 98
151 148 89
150 146 90
154 150 90
157 152 95
158 153 96
156 151 94
159 154 95
157 152 93
153 149 89
156 151 93
157 151 92
148 144 90
205 227 255
205 226 255
205 226 255
205 226 255
204 226 255
204 226 255
203 226 255
203 225 255
202 225 255
202 225 255
202 225 255
201 225 255
201 225 255
201 224 255
200 224 255
200 224 255
200 224 255
199 223 254
201 224 250
204 226 252
204 226 250
205 226 254
205 226 253
203 224 246
204 225 246
205 226 252
203 224 244
205 226 248
206 226 250
204 225 244
203 225 248
204 226 252
205 226 249
203 224 246
202 224 242
201 223 240
202 224 241
201 223 242
201 223 245
203 224 244
200 222 231
200 221 234
202 223 240
202 223 241
203 224 246
199 221 241
204 226 250
202 224 246
202 224 245
201 223 240
202 224 240
202 224 245
201 223 241
202 223 241
203 225 245
203 225 248
203 225 249
202 224 245
202 224 242
200 222 241
204 225 249
202 223 244
202 224 244
201 222 240
202 224 242
202 224 245
203 225 248
200 222 236
202 223 244
203 225 245
200 223 242
202 224 245
202 224 245
201 224 245
202 224 242
202 224 245
201 224 245
200 222 242
202 224 246
200 222 242
199 222 240
202 224 248
201 223 241
203 225 250
200 222 244
202 224 252
201 223 245
200 223 248
200 223 245
201 224 249
198 221 248
200 223 248
200 223 244
200 223 246
200 223 248
199 222 244
198 221 242
198 222 244
196 220 238
197 221 240
198 221 244
196 221 244
197 221 242
197 222 249
193 218 228
195 219 236
198 222 245
199 223 250
197 221 246
197 221 244
195 221 253
197 222 252
196 221 246
194 220 253
190 218 255
189 218 255
190 218 255
190 219 255
191 219 255
192 220 255
194 220 255
195 221 255
196 222 255
198 223 255
199 224 255
201 225 255
203 225 255
204 226 255
206 227 255
207 228 253
210 229 255
211 230 254
211 230 255
211 230 255
211 230 255
211 230 255
211 230 255
211 230 255
211 230 255
211 230 255
211 230 255
211 230 255
211 230 255
211 230 255
210 230 255
210 230 255
210 230 255
210 229 255
210 229 255
210 229 255
210 229 255
210 229 255
210 229 255
210 229 255
210 229 255
210 229 255
210 229 255
210 229 255
210 229 255
210 229 255
210 229 255
210 229 255
210 229 255
200 220 248
109 135 192
61 97 163
62 98 166
62 98 170
63 99 171
62 98 164
63 99 171
61 97 162
61 97 161
62 98 164
62 98 166
62 99 170
62 99 169
61 97 163
61 97 153
62 98 163
62 98 162
62 98 165
62 98 165
61 97 155
62 98 162
62 98 164
62 99 170
63 99 164
63 99 169
62 98 160
62 98 162
62 98 164
63 99 165
63 99 165
62 98 158
62 98 158
62 98 167
63 99 170
61 97 161
61 97 157
63 98 159
62 98 167
62 98 162
62 98 166
62 98 164
62 98 165
62 98 168
62 98 159
61 97 166
61 96 156
62 98 162
62 98 168
61 97 156
62 99 170
62 97 163
62 98 169
62 97 155
62 98 159
61 97 161
61 97 163
61 97 163
62 98 164
62 98 166
62 98 160
61 97 161
61 97 166
63 99 167
61 96 163
62 98 162
61 97 165
60 95 157
60 95 158
62 97 167
60 95 163
60 95 167
106 132 185
203 222 250
210 229 255
210 229 255
210 229 255
210 229 255
210 229 255
210 229 255
210 229 255
210 229 255
210 229 255
210 229 255
210 229 255
210 229 255
210 229 255
210 229 255
210 229 255
210 229 255
210 230 255
210 230 255
210 230 255
211 230 255
211 230 255
211 230 255
211 230 255
211 230 255
211 230 255
211 230 255
211 230 255
211 230 255
211 230 255
211 230 255
210 229 254
172 182 184
126 123 78
132 130 84
135 131 87
137 135 90
139 137 92
137 135 91
138 137 93
139 138 94
148 147 100
145 144 97
136 136 92
144 143 96
134 135 93
155 153 103
147 145 97
138 136 93
149 147 99
151 149 100
150 149 100
146 145 97
157 155 104
149 147 98
150 150 103
152 150 101
148 147 99
156 154 104
152 150 99
153 150 100
153 151 102
161 158 106
159 156 104
158 157 104
158 156 103
161 158 106
152 149 100
153 153 102
155 152 102
156 154 103
162 159 105
166 163 108
160 157 104
162 159 104
160 157 103
165 160 104
165 161 107
158 155 103
163 159 104
161 158 106
166 163 108
168 164 106
164 159 104
168 163 107
166 163 108
163 160 104
167 163 108
166 162 106
162 158 104
167 164 107
165 160 105
164 159 103
166 163 106
169 165 107
167 163 107
162 158 102
163 160 103
164 160 104
169 164 106
168 163 103
167 162 104
165 161 104
168 163 105
169 164 105
160 156 99
163 159 102
170 166 108
171 167 108
169 164 107
162 159 103
163 158 101
164 160 102
165 160 105
167 162 105
164 159 103
159 155 98
162 158 101
158 155 99
161 157 101
160 156 98
161 157 101
165 159 101
161 157 98
166 162 105
164 159 103
166 161 102
157 153 96
161 156 98
153 149 94
158 154 97
159 154 95
163 158 99
162 158 99
160 155 98
152 148 97
162 157 99
154 151 94
158 153 95
161 156 96
156 152 97
149 144 90
153 148 93
160 155 97
157 153 93
155 149 95
163 158 99
159 154 97
160 155 97
154 150 95
147 143 87
161 157 99
151 146 88
154 149 93
159 154 94
150 145 90
155 149 95
154 149 90
153 148 91
147 143 85
151 148 90
147 143 89
141 137 84
151 146 90
205 227 255
205 226 255
205 226 255
204 226 255
204 226 255
204 226 255
203 226 255
203 225 255
203 225 255
202 225 255
202 225 255
202 225 255
201 225 255
201 224 255
201 224 255
200 224 255
202 225 254
203 225 248
203 225 246
204 226 249
204 226 248
204 225 244
204 225 246
204 225 249
206 226 248
206 227 253
203 224 244
206 226 252
205 226 250
206 227 250
207 227 252
205 227 253
202 224 237
200 222 233
201 223 240
202 224 245
201 222 236
203 224 244
204 225 246
203 224 244
202 224 242
203 225 245
202 224 240
203 225 246
202 223 237
201 223 240
203 225 248
203 224 242
203 224 248
204 225 248
204 225 245
202 224 240
203 224 242
203 224 244
205 226 246
203 225 246
205 226 250
204 225 249
205 226 250
201 223 244
201 222 240
201 222 244
202 224 242
201 223 242
204 225 248
203 224 245
203 225 246
203 224 244
203 224 244
201 224 245
202 223 241
203 224 244
200 222 246
204 226 252
204 226 253
202 223 244
203 225 250
202 223 242
203 225 248
203 225 245
201 222 244
203 225 250
204 225 250
202 224 248
203 225 252
201 224 245
201 223 240
202 224 249
200 223 250
202 224 246
201 223 244
200 223 244
200 223 245
201 224 245
200 223 244
198 221 241
200 223 248
200 224 250
197 221 237
199 222 244
200 223 245
198 221 241
198 221 241
198 222 245
197 221 241
197 221 244
196 220 233
195 220 236
197 221 242
198 222 244
198 222 246
195 221 246
199 223 252
199 222 248
196 221 252
192 220 253
189 218 255
190 218 255
191 219 255
192 220 255
193 220 255
194 221 255
195 221 255
196 222 255
198 223 255
199 223 255
201 224 255
203 225 254
205 226 255
207 227 255
208 228 254
209 229 253
212 230 255
211 230 255
211 230 255
211 230 255
211 230 255
211 230 255
211 230 255
211 230 255
211 230 255
211 230 255
211 230 255
211 230 255
211 230 255
211 230 255
211 230 255
211 230 255
211 230 255
211 230 255
211 230 255
211 230 255
211 230 255
210 230 255
210 230 255
210 230 255
210 229 255
210 229 255
210 229 255
210 229 255
210 229 255
210 229 255
201 221 249
95 124 183
61 98 169
62 98 168
63 100 173
62 98 165
61 97 159
63 99 167
62 98 166
62 98 165
62 98 160
63 99 171
61 97 154
62 98 162
62 98 159
62 98 161
63 99 164
63 99 165
63 99 171
63 99 165
62 98 161
62 98 164
61 97 159
61 98 166
62 99 165
62 98 156
61 96 158
62 98 161
61 98 168
62 98 165
61 97 152
62 98 167
62 98 165
62 98 166
62 98 162
62 98 160
63 99 170
62 99 165
62 98 163
62 98 161
61 97 161
61 98 162
62 98 164
62 98 164
62 98 166
62 98 169
61 97 163
62 99 169
62 98 167
62 97 159
62 98 161
63 98 160
62 98 164
62 97 159
61 97 161
62 98 168
61 98 165
62 98 165
61 97 165
63 99 172
62 98 165
62 98 157
62 98 168
61 97 163
62 97 159
60 95 154
62 97 165
62 98 163
61 96 160
60 94 157
60 95 156
60 94 155
61 97 166
60 95 167
98 123 175
202 222 250
210 229 255
210 229 255
210 229 255
210 229 255
210 229 255
210 229 255
210 230 255
210 230 255
210 230 255
210 230 255
211 230 255
211 230 255
211 230 255
211 230 255
211 230 255
211 230 255
211 230 255
211 230 255
211 230 255
211 230 255
211 230 255
211 230 255
211 230 255
211 230 255
211 230 255
211 230 255
211 230 255
211 230 255
211 230 255
158 165 161
136 133 87
128 125 84
132 129 86
147 145 97
125 123 84
139 137 93
138 137 94
140 139 94
140 139 94
143 142 97
137 136 93
130 130 90
138 137 93
140 139 94
136 135 92
143 142 96
144 143 98
148 147 99
142 142 97
153 152 104
150 149 100
155 152 101
153 150 99
154 152 101
151 149 99
150 149 98
150 148 99
160 157 106
159 157 105
150 148 100
150 149 100
161 158 105
158 156 105
157 155 103
161 158 105
153 151 99
152 150 98
169 166 108
159 156 103
158 155 102
164 161 108
161 158 105
162 159 105
167 164 108
167 163 106
165 161 106
162 159 105
164 160 105
161 158 104
166 162 105
161 158 103
170 165 108
165 161 105
171 167 108
167 163 105
164 161 105
166 162 105
170 166 108
171 167 109
168 164 107
167 162 104
170 165 107
166 163 106
170 166 109
160 157 101
168 163 106
167 163 104
166 162 106
165 160 103
165 160 103
165 161 103
163 159 101
167 162 104
163 158 99
166 161 103
168 164 107
167 162 105
169 164 104
167 162 101
163 159 102
164 159 101
170 165 105
170 166 106
167 162 103
157 155 99
166 161 104
165 161 101
160 157 98
165 160 102
166 161 103
165 160 103
163 158 98
164 160 101
165 160 101
156 152 97
166 161 103
167 162 101
160 156 99
164 159 101
161 157 99
155 151 93
163 158 99
160 155 99
162 157 101
156 151 95
158 153 96
167 162 101
161 156 94
163 157 99
161 157 97
168 163 104
155 150 95
157 153 93
155 151 97
159 155 93
154 148 93
152 147 90
155 150 92
158 154 94
149 145 92
160 155 97
159 154 96
150 147 90
146 142 88
149 144 87
144 141 86
149 144 90
152 147 90
151 147 92
148 144 84
152 147 91
151 147 88
205 227 255
205 227 255
205 226 255
204 226 255
204 226 255
204 226 255
203 226 255
203 225 255
203 225 255
202 225 255
202 225 255
202 225 255
201 225 255
201 225 255
201 224 255
204 226 253
204 225 248
205 226 249
205 226 250
204 225 248
205 226 249
204 225 244
205 225 246
205 226 249
206 227 252
206 227 253
206 227 252
206 226 248
207 227 250
206 226 244
202 224 237
202 224 242
202 224 241
201 223 236
201 223 238
201 222 233
202 224 244
203 224 241
204 225 245
204 226 250
203 224 241
203 224 241
202 224 241
202 223 237
204 225 245
205 226 248
203 224 241
203 224 242
204 225 246
205 226 249
204 225 245
205 226 248
204 226 248
204 225 245
204 225 245
203 225 246
204 225 250
202 224 244
205 226 246
205 226 252
203 224 242
203 225 248
204 225 249
204 225 245
203 224 248
203 224 246
203 225 249
202 224 242
203 224 244
204 225 249
204 225 248
204 225 248
202 224 244
201 223 240
202 224 244
203 224 245
202 224 242
205 226 252
201 223 248
202 224 245
205 226 250
200 222 240
203 224 244
203 225 249
204 225 252
202 224 240
202 224 246
202 225 250
203 225 250
201 223 248
201 223 248
201 223 245
202 224 241
202 225 250
201 224 246
201 224 249
202 224 248
200 223 245
200 223 241
199 222 241
198 222 242
200 223 246
200 223 246
199 223 249
198 222 244
197 221 240
197 221 241
199 222 246
196 219 233
196 220 240
198 222 246
199 222 248
198 222 248
198 222 250
197 222 246
197 221 246
194 220 248
191 219 255
190 218 255
191 219 255
192 220 255
193 220 255
194 221 255
195 221 255
197 222 255
198 223 255
199 223 255
201 225 255
202 225 254
206 227 255
207 227 255
208 228 255
210 229 252
211 230 255
211 230 255
211 230 255
211 230 255
211 230 255
211 230 255
211 230 255
211 230 255
211 230 255
211 230 255
211 230 255
211 230 255
211 230 255
211 230 255
211 230 255
211 230 255
211 230 255
211 230 255
211 230 255
211 230 255
211 230 255
211 230 255
211 230 255
211 230 255
211 230 255
211 230 255
211 230 255
211 230 255
207 226 253
118 142 191
62 98 161
62 98 164
62 99 164
62 98 165
63 99 160
63 99 168
62 98 163
62 99 170
61 97 157
61 97 164
62 98 160
61 97 155
62 98 168
63 100 168
62 98 166
63 99 163
61 98 166
61 96 159
62 99 166
62 98 162
62 98 159
61 97 153
62 98 163
63 99 167
61 97 158
62 98 159
62 98 162
62 99 165
61 97 163
62 97 161
61 97 156
62 98 164
62 98 159
62 98 161
63 99 167
62 98 163
62 98 160
63 99 159
63 99 166
62 98 165
62 98 160
62 98 165
62 98 160
62 98 165
61 97 156
62 98 161
62 97 151
62 98 165
62 98 159
63 99 169
62 98 160
62 97 158
61 96 153
61 97 158
61 96 157
61 96 161
60 95 156
61 96 159
62 98 162
62 97 158
62 98 169
62 97 163
61 96 159
60 96 159
62 97 167
61 97 164
60 94 152
61 96 163
59 94 156
62 97 169
61 95 159
61 97 166
62 98 168
61 96 165
101 125 173
208 227 253
211 230 255
211 230 255
211 230 255
211 230 255
211 230 255
211 230 255
211 230 255
211 230 255
211 230 255
211 230 255
211 230 255
211 230 255
211 230 255
211 230 255
211 230 255
211 230 255
211 230 255
211 230 255
211 230 255
211 230 255
211 230 255
211 230 255
211 230 255
211 230 255
211 230 255
211 230 255
211 230 254
170 178 177
122 120 79
131 129 85
129 126 85
144 141 95
130 129 87
141 140 94
135 135 92
134 133 90
143 142 95
133 133 91
132 132 90
133 132 90
139 138 94
143 143 98
141 141 97
149 148 101
138 137 92
143 143 97
154 152 102
149 148 100
141 140 94
149 148 100
154 153 102
155 153 103
156 153 102
155 153 102
146 144 96
156 155 103
154 153 103
161 159 107
161 158 104
162 160 107
157 153 102
161 158 103
158 155 103
160 157 103
163 160 105
163 160 106
160 158 104
161 158 103
160 157 103
161 159 105
165 162 107
164 161 107
166 162 107
170 166 109
163 158 104
161 158 104
171 167 109
161 157 103
163 159 104
163 159 103
163 160 106
173 168 110
161 157 101
167 164 108
162 157 103
162 159 104
166 162 106
171 165 106
171 167 106
168 163 106
172 167 109
167 162 105
172 167 109
172 168 109
162 158 103
173 167 107
163 159 103
164 159 103
164 160 104
167 162 106
170 165 106
167 162 105
167 162 104
162 159 101
167 161 103
164 160 99
172 167 108
168 163 105
168 164 104
171 166 106
162 159 102
164 161 101
171 166 105
157 153 97
165 161 103
167 163 104
158 154 99
163 158 100
164 160 100
164 159 99
164 159 100
172 165 106
169 164 103
158 153 97
158 154 98
162 158 98
166 161 100
155 151 97
171 165 104
163 159 99
158 152 94
154 149 95
168 161 103
156 151 93
165 160 99
164 159 97
162 157 98
158 152 94
165 160 95
154 148 93
164 159 100
157 152 92
157 151 95
159 154 94
163 158 99
158 153 98
161 156 95
142 138 84
155 150 93
159 154 96
159 154 97
156 151 93
157 151 93
154 150 93
155 151 85
150 145 85
160 156 95
157 152 97
152 147 87
159 154 95
154 149 92
206 227 255
205 227 255
205 226 255
204 226 255
204 226 255
204 226 255
204 226 255
203 226 255
203 225 255
203 225 255
202 225 255
202 225 255
202 225 255
203 226 255
205 226 250
205 226 248
206 227 250
207 227 253
206 227 252
205 226 249
205 226 249
206 227 253
206 226 249
207 227 249
207 227 253
206 227 252
206 226 248
205 226 250
205 226 245
203 224 240
202 223 237
203 224 241
202 223 240
203 224 245
204 225 245
202 224 238
203 224 238
203 224 241
203 224 240
204 225 245
204 225 245
203 224 242
206 226 249
203 225 242
206 226 249
205 226 249
205 226 249
204 225 246
203 223 241
204 224 246
203 223 241
205 226 249
205 226 246
202 223 245
204 225 248
204 225 248
205 226 249
206 226 246
205 226 250
204 225 244
205 225 248
204 225 245
204 225 242
203 224 240
203 225 245
205 225 249
205 226 252
202 223 241
203 224 246
204 225 242
205 226 249
203 224 248
205 226 248
202 224 244
205 226 250
203 224 244
203 224 241
203 224 245
204 225 246
203 225 250
204 225 250
201 223 245
203 224 241
202 224 245
204 225 248
203 225 246
204 225 249
204 225 250
202 224 246
201 223 248
202 224 246
203 224 246
203 224 245
201 223 245
202 224 244
200 223 244
201 223 244
201 224 249
202 224 248
201 224 250
200 222 240
198 220 237
199 222 244
200 223 249
199 222 242
197 221 234
200 223 246
200 223 246
199 223 249
197 221 238
197 221 242
197 221 240
198 222 245
199 223 248
200 223 249
198 222 246
199 222 244
198 222 249
192 220 255
191 219 255
191 219 255
192 220 255
193 220 255
194 221 255
196 221 255
197 222 255
198 223 255
200 224 255
201 224 255
203 226 255
206 227 255
207 227 255
208 228 254
210 229 253
211 230 254
212 230 255
212 230 255
212 230 255
212 230 255
211 230 255
211 230 255
211 230 255
211 230 255
211 230 255
211 230 255
211 230 255
211 230 255
211 230 255
211 230 255
211 230 255
211 230 255
211 230 255
211 230 255
211 230 255
211 230 255
211 230 255
211 230 255
211 230 255
211 230 255
211 230 255
207 226 253
125 149 197
62 98 165
63 100 171
62 98 167
61 97 160
61 97 157
63 99 167
62 99 170
61 97 157
62 98 163
62 98 163
62 98 158
61 97 157
62 98 167
61 98 161
62 98 163
61 97 163
61 97 157
62 99 166
62 98 167
62 99 164
61 98 161
62 98 161
62 98 162
62 98 165
61 97 161
61 97 154
62 98 160
61 97 151
61 97 157
61 97 156
62 98 164
62 98 163
63 99 166
62 97 158
63 99 168
62 98 165
62 98 165
61 97 158
62 98 163
61 97 159
63 98 160
62 97 161
62 98 162
62 98 161
61 97 156
61 97 164
62 98 159
62 98 163
61 98 161
62 98 163
61 97 159
62 97 161
61 97 163
61 97 156
62 97 158
62 98 166
63 98 170
61 96 162
61 95 151
61 97 163
61 96 160
61 97 161
61 96 156
61 97 157
61 96 156
62 97 160
62 97 159
61 96 162
61 96 156
62 98 167
61 94 152
61 95 161
59 93 159
61 96 165
61 96 165
60 95 156
119 141 186
209 228 254
211 230 255
211 230 255
211 230 255
211 230 255
211 230 255
211 230 255
211 230 255
211 230 255
211 230 255
211 230 255
211 230 255
211 230 255
211 230 255
211 230 255
211 230 255
211 230 255
211 230 255
211 230 255
211 230 255
211 230 255
211 230 255
212 230 255
212 230 255
212 230 255
212 230 255
163 171 169
127 125 84
143 138 90
138 135 88
133 131 89
133 131 88
124 123 84
125 124 85
145 143 97
127 126 87
135 134 91
142 140 95
148 147 100
141 140 95
144 143 97
143 143 98
140 140 95
137 136 92
152 151 103
150 147 98
141 140 95
151 149 100
149 147 99
149 147 99
145 142 95
152 149 99
151 149 100
157 155 104
154 152 102
145 143 94
158 156 103
157 154 103
152 150 100
159 156 103
161 159 105
158 155 102
160 157 102
159 157 104
161 158 105
161 158 105
164 161 107
169 165 108
165 161 106
165 162 106
163 160 104
167 163 105
160 156 101
163 159 105
166 162 105
163 160 103
167 163 106
169 164 107
168 164 107
172 167 109
163 160 103
169 164 107
166 163 106
169 166 108
164 160 104
170 165 107
169 164 105
168 163 103
164 160 103
167 163 105
170 166 107
167 162 106
169 164 105
168 164 106
169 164 105
171 166 107
168 164 105
172 168 108
164 159 101
158 155 101
162 158 101
169 163 105
166 162 103
168 163 105
167 161 103
170 165 105
170 165 104
168 164 101
161 157 99
174 168 106
166 162 104
167 162 104
165 160 101
164 159 100
171 165 103
162 158 98
165 160 101
164 160 101
158 154 97
157 153 97
165 159 99
168 163 104
162 158 99
167 162 102
165 161 97
159 155 98
162 157 98
157 151 97
168 163 102
166 161 100
164 159 99
163 159 101
165 159 100
164 160 97
162 156 98
161 157 99
163 158 97
163 157 98
157 152 95
160 155 97
165 159 101
161 155 96
161 156 97
154 150 91
156 152 90
156 151 94
161 156 98
152 147 93
158 153 90
153 149 91
156 151 90
157 152 94
153 148 90
152 148 91
158 153 92
152 146 88
149 145 88
158 152 93
161 156 95
155 150 92
158 152 94
206 227 255
205 227 255
205 227 255
205 226 255
204 226 255
204 226 255
204 226 255
204 226 255
203 226 255
203 225 255
203 225 255
202 225 255
204 225 250
204 226 250
205 226 250
205 226 249
208 228 254
207 228 252
205 225 248
205 226 246
207 227 252
206 227 249
207 227 250
207 227 250
206 227 248
206 227 249
206 227 250
204 225 242
201 222 237
203 224 241
204 225 244
204 225 242
205 226 250
202 223 236
203 223 234
204 225 244
204 225 244
204 225 245
204 225 242
204 225 241
205 225 249
205 226 246
204 224 241
205 226 245
205 226 248
204 224 242
203 224 241
207 227 249
203 224 237
203 224 241
204 225 249
205 226 248
207 228 254
204 225 242
205 226 246
204 224 240
206 227 249
205 225 244
205 226 248
204 225 245
204 224 242
203 224 244
206 226 246
204 225 246
201 222 234
204 225 245
206 226 248
202 223 242
206 226 249
204 225 248
204 225 248
204 224 245
205 225 246
205 226 246
206 226 249
204 225 248
204 224 244
205 226 250
204 226 250
202 224 244
203 224 249
204 224 241
203 225 248
203 224 240
202 223 237
204 225 242
204 225 246
203 224 245
203 225 245
204 225 248
203 225 248
202 224 245
204 225 250
203 225 245
203 224 244
204 226 250
204 225 246
202 224 248
200 222 240
199 222 240
202 224 245
201 223 241
200 222 240
202 224 245
201 223 246
201 224 245
201 223 242
199 222 244
198 222 242
198 221 234
198 222 241
199 222 246
198 221 240
198 221 241
202 225 253
200 223 249
199 222 241
198 222 249
198 222 245
196 221 252
192 220 255
192 219 255
193 220 255
194 221 255
195 221 255
196 222 255
197 222 255
198 223 255
200 224 255
202 225 255
204 226 255
205 227 255
208 228 255
210 229 255
210 229 254
212 230 255
212 230 255
212 230 255
212 230 255
212 230 255
212 230 255
212 230 255
212 230 255
212 230 255
212 230 255
212 230 255
212 230 255
211 230 255
211 230 255
211 230 255
211 230 255
211 230 255
211 230 255
211 230 255
211 230 255
211 230 255
211 230 255
211 230 255
211 230 255
211 230 255
136 159 203
62 98 167
62 98 160
62 98 167
63 99 169
63 99 171
62 98 163
61 98 163
61 97 157
61 97 161
61 97 161
62 98 162
62 98 166
62 98 166
62 98 164
61 97 157
62 98 162
61 97 155
62 98 155
61 97 159
62 98 163
62 98 160
63 99 165
62 98 164
63 99 164
62 98 158
62 98 164
62 98 163
61 97 156
62 98 159
61 97 152
63 99 163
62 98 160
62 98 161
62 98 158
62 98 161
61 97 156
61 97 157
62 98 159
62 98 157
61 97 156
61 97 160
62 98 162
62 98 159
62 98 156
61 98 160
62 98 163
62 97 156
61 96 151
62 97 155
63 99 164
60 96 155
62 99 167
61 97 153
62 98 162
61 97 160
62 98 166
61 97 152
62 97 160
61 97 163
62 97 161
61 96 156
62 97 162
61 96 160
62 98 168
62 97 160
61 97 161
62 97 161
61 96 158
61 97 159
61 96 163
61 96 156
61 96 162
61 96 161
60 95 162
60 94 160
58 91 148
62 97 168
59 93 159
124 147 194
211 230 255
211 230 255
211 230 255
211 230 255
211 230 255
211 230 255
211 230 255
211 230 255
211 230 255
211 230 255
211 230 255
211 230 255
212 230 255
212 230 255
212 230 255
212 230 255
212 230 255
212 230 255
212 230 255
212 230 255
212 230 255
212 230 255
212 230 255
212 230 255
186 198 207
121 118 78
130 128 85
128 127 86
136 133 89
127 125 84
130 129 87
130 128 86
133 133 92
120 120 83
136 135 92
135 134 91
144 142 97
133 132 91
130 129 89
140 139 94
146 145 98
150 148 100
145 144 98
138 138 94
150 148 100
137 136 94
143 141 96
149 148 99
158 156 104
146 146 99
154 152 101
158 156 104
159 156 103
154 151 101
157 154 101
155 152 100
160 157 103
154 151 100
162 158 105
163 160 106
163 159 105
162 157 102
162 158 104
164 161 106
166 162 107
163 159 104
162 159 106
165 161 105
166 162 106
162 159 104
167 163 107
166 162 106
164 161 106
164 159 103
172 168 110
169 164 108
170 167 110
167 163 105
158 155 99
167 162 104
169 165 107
164 160 103
165 161 102
170 165 106
166 162 105
165 162 103
169 165 105
167 163 103
167 163 105
166 162 104
169 164 106
168 163 105
166 161 103
171 166 109
163 159 101
167 162 104
167 161 101
170 165 105
161 157 100
169 164 104
169 164 106
169 164 104
164 160 101
166 161 103
171 166 107
162 157 100
162 158 99
162 157 99
166 161 102
165 160 100
162 157 98
163 159 100
161 157 97
164 159 97
166 162 101
169 164 102
161 157 99
165 160 102
171 166 106
158 154 97
165 161 102
164 159 101
163 158 99
165 160 100
162 157 100
165 159 102
162 156 94
163 158 99
164 161 103
164 160 99
162 157 99
155 149 93
161 156 95
160 154 93
163 158 97
163 157 98
158 153 96
162 156 99
163 158 99
157 152 96
160 155 93
159 154 99
161 156 95
158 152 93
156 151 95
150 145 93
158 152 97
162 157 98
156 151 92
149 145 87
155 150 92
159 154 95
154 150 92
153 149 89
148 144 84
156 152 91
156 150 91
152 147 88
146 143 88
151 146 89
206 227 255
206 227 255
205 227 255
205 227 255
205 226 255
204 226 255
204 226 255
204 226 255
204 226 255
203 225 255
204 226 254
206 227 252
207 227 254
206 227 253
206 226 246
207 228 253
208 228 252
204 224 240
205 226 244
208 228 249
204 224 242
207 227 252
209 228 252
206 226 249
206 227 248
205 226 242
202 223 236
203 224 234
205 226 246
206 226 248
204 225 240
205 226 245
205 226 246
205 226 244
205 225 246
205 226 245
205 225 246
204 225 244
205 225 248
202 224 238
204 225 242
205 225 242
204 225 244
205 226 248
204 224 242
204 225 240
206 226 249
207 227 249
205 225 245
206 226 245
204 225 246
204 225 240
205 226 245
204 224 248
202 223 242
202 223 241
205 225 242
205 226 246
205 226 248
206 227 248
203 224 244
207 227 250
207 227 248
205 225 244
205 226 250
204 225 245
206 226 248
203 224 242
205 225 245
204 224 244
203 224 245
205 225 244
205 226 249
205 225 248
204 225 246
206 227 249
204 224 241
204 225 244
206 226 248
206 226 245
205 225 248
206 227 250
204 224 240
205 226 246
205 226 246
205 226 246
204 225 246
206 227 253
204 225 245
203 225 244
203 224 249
204 225 245
205 226 249
202 223 238
205 226 253
202 224 249
203 224 242
204 225 248
203 225 248
204 225 250
203 224 245
202 224 246
201 223 238
201 223 240
202 224 245
201 223 249
202 224 242
200 223 241
200 223 245
200 223 245
199 221 236
199 222 242
198 222 242
198 221 240
198 221 240
200 223 245
201 224 253
201 223 246
198 222 248
198 222 249
198 223 252
194 220 253
192 220 255
194 220 255
194 221 255
195 221 255
196 222 255
198 223 255
199 224 255
201 224 255
202 225 255
204 226 255
205 227 255
207 228 255
210 229 254
212 230 254
211 230 254
212 230 255
212 230 255
212 230 255
212 230 255
212 230 255
212 230 255
212 230 255
212 230 255
212 230 255
212 230 255
212 230 255
212 230 255
212 230 255
212 230 255
212 230 255
212 230 255
212 230 255
212 230 255
212 230 255
212 230 255
211 230 255
211 230 255
171 191 226
62 98 167
62 98 165
62 98 162
62 98 162
62 98 164
62 98 161
62 98 158
62 99 169
61 97 157
62 98 161
62 98 160
62 98 160
62 98 159
62 98 161
62 98 162
61 97 160
62 98 161
61 97 159
62 98 168
62 98 162
62 97 157
62 98 160
61 98 161
62 98 168
61 97 155
63 99 165
62 98 158
62 98 162
61 97 154
62 98 159
61 97 159
62 98 164
62 98 162
62 98 156
62 98 157
61 97 157
62 98 158
61 97 158
62 99 163
62 98 159
62 98 161
61 97 156
62 98 154
61 97 158
61 96 149
62 98 161
61 97 161
62 97 158
61 97 154
62 98 160
62 98 159
62 98 161
62 98 164
61 97 160
61 97 157
62 98 161
60 96 156
61 97 156
62 97 162
62 98 164
62 97 155
61 97 160
61 95 158
61 96 155
62 97 161
60 95 150
62 97 161
61 97 156
61 97 159
62 99 170
59 94 156
61 97 160
60 95 156
61 96 162
60 95 157
60 95 161
60 95 157
60 95 163
60 93 156
59 93 158
161 181 217
211 230 255
211 230 255
212 230 255
212 230 255
212 230 255
212 230 255
212 230 255
212 230 255
212 230 255
212 230 255
212 230 255
212 230 255
212 230 255
212 230 255
212 230 255
212 230 255
212 230 255
212 230 255
212 230 255
212 230 255
212 230 255
212 230 255
190 205 219
130 127 83
138 136 91
133 131 88
135 134 90
129 127 86
130 129 88
133 132 90
140 138 92
137 136 92
138 137 93
137 136 92
137 136 93
137 137 93
129 129 88
142 141 97
135 134 92
136 135 93
150 149 102
144 143 98
149 148 100
147 145 97
145 144 98
155 153 103
146 146 98
161 158 105
152 150 100
151 149 100
159 155 102
150 149 102
153 151 102
157 155 103
145 144 97
160 158 105
164 161 107
160 157 103
160 158 105
155 153 102
163 159 105
164 160 105
165 161 107
165 162 105
162 159 105
161 158 103
164 160 103
169 165 107
168 163 107
173 167 109
169 165 109
166 162 107
163 159 102
164 160 104
163 159 102
169 164 107
169 165 105
165 161 104
165 161 104
175 169 109
169 163 104
162 158 101
171 166 107
169 165 105
172 167 108
168 163 104
167 162 105
170 165 107
171 166 108
170 166 103
170 165 103
168 163 103
164 158 101
169 164 103
171 166 105
166 161 104
170 166 107
171 167 106
171 167 104
172 166 106
165 160 101
173 168 106
170 166 106
170 166 106
172 167 106
165 160 98
169 163 103
166 162 99
166 162 103
170 164 105
164 160 102
165 160 101
168 163 103
169 164 101
169 165 105
165 160 99
168 163 101
160 156 98
165 161 98
168 162 104
154 151 93
166 160 102
164 158 100
159 154 92
165 160 99
162 157 97
161 156 96
156 152 95
160 155 97
156 152 94
165 160 101
164 159 97
162 155 93
164 159 101
166 161 98
161 156 95
161 155 97
151 146 88
165 159 99
156 151 92
155 151 92
164 160 94
163 158 99
164 159 97
153 148 91
155 150 92
160 154 93
150 145 87
153 148 90
157 152 90
148 143 83
159 154 95
154 150 93
153 148 90
151 146 91
152 147 87
158 153 93
156 151 90
155 150 90
206 227 255
206 227 255
205 227 255
205 227 255
205 226 255
205 226 255
204 226 255
204 226 255
204 226 255
205 226 253
206 227 249
207 227 252
206 227 250
208 228 249
207 227 252
207 227 249
206 226 245
208 228 252
206 226 245
206 227 246
208 227 250
207 227 248
208 227 248
207 227 249
203 223 236
203 224 236
204 224 241
205 225 242
204 225 241
206 226 248
205 226 245
203 224 237
203 223 244
204 224 241
207 227 248
206 226 249
204 224 238
206 226 246
206 226 248
206 226 245
207 227 249
207 227 248
207 227 248
206 226 246
204 224 244
205 225 246
205 226 242
205 225 245
205 225 244
207 227 249
205 225 248
207 227 249
205 225 242
203 224 242
206 226 244
204 224 240
206 226 249
204 225 245
203 223 244
207 227 250
206 226 246
208 228 252
206 226 248
204 225 245
204 225 244
204 224 244
207 227 250
206 226 246
205 226 248
205 226 248
206 227 249
204 224 245
206 227 248
205 225 245
205 226 246
206 227 248
203 224 245
206 227 248
206 226 248
206 226 249
206 227 250
204 225 241
205 226 245
204 225 246
205 226 245
205 226 245
204 224 241
203 223 242
204 225 242
203 224 244
202 224 240
204 225 242
204 225 246
206 226 249
205 226 246
205 226 252
203 224 244
204 225 245
202 224 242
204 225 246
201 223 238
204 226 249
205 226 250
203 225 246
204 225 246
203 225 245
204 225 249
201 223 244
201 223 246
201 224 250
201 223 241
200 223 245
201 224 248
198 221 233
197 220 230
198 221 237
200 222 240
199 223 246
200 223 248
200 223 246
199 222 242
200 224 252
195 221 253
193 220 255
194 220 255
195 221 255
196 222 255
197 222 255
198 223 255
199 224 255
201 224 255
203 225 255
204 226 255
206 227 254
208 228 255
211 229 254
212 230 254
212 231 255
212 231 255
212 231 255
212 231 255
212 231 255
212 231 255
212 230 255
212 230 255
212 230 255
212 230 255
212 230 255
212 230 255
212 230 255
212 230 255
212 230 255
212 230 255
212 230 255
212 230 255
212 230 255
212 230 255
212 230 255
185 204 235
74 107 172
62 98 165
62 98 165
62 98 162
61 97 160
62 97 155
63 99 167
61 98 161
61 96 152
62 98 163
62 98 162
62 98 162
63 99 163
61 97 157
61 97 153
62 98 158
61 97 160
62 99 164
62 98 164
63 99 164
62 98 156
62 98 159
63 99 165
62 98 159
62 98 160
62 98 162
63 100 167
61 97 156
61 96 153
62 98 153
62 98 164
62 98 160
61 97 154
62 98 161
63 99 161
62 97 154
61 97 157
61 96 151
61 97 156
62 98 161
63 98 154
61 97 156
61 97 157
61 97 157
61 97 159
62 97 153
61 97 155
60 96 159
62 98 165
62 97 155
61 97 154
61 97 160
62 98 165
62 97 158
60 96 158
62 97 160
61 96 154
61 97 154
61 97 159
61 97 158
60 95 158
60 96 157
60 96 154
63 98 163
61 97 157
61 96 154
62 97 164
62 97 165
61 95 160
61 96 158
61 95 156
60 95 156
61 96 156
60 94 153
61 95 153
61 95 156
60 96 159
61 95 153
60 94 158
60 94 154
59 92 152
70 101 160
179 198 227
212 230 255
212 230 255
212 230 255
212 230 255
212 230 255
212 230 255
212 230 255
212 230 255
212 230 255
212 230 255
212 230 255
212 230 255
212 230 255
212 230 255
212 230 255
212 231 255
212 231 255
212 231 255
212 231 255
212 231 255
201 217 236
137 136 101
127 125 82
120 120 82
133 132 89
133 133 90
126 125 85
125 124 84
132 131 89
128 128 88
138 137 94
132 132 89
136 137 94
133 133 92
142 141 95
144 143 97
141 141 96
135 135 93
141 140 96
136 136 94
149 147 100
148 146 99
145 143 95
146 146 99
152 149 99
154 152 101
152 150 100
154 151 101
157 155 103
157 154 102
153 152 102
153 151 101
152 150 100
152 150 100
157 154 102
161 157 105
162 159 106
166 162 107
155 152 101
160 157 102
163 160 103
165 162 105
161 157 103
165 161 104
162 158 102
165 162 106
169 165 107
171 166 110
163 159 104
163 160 105
155 153 98
170 166 107
171 167 107
173 169 110
172 167 108
169 164 105
172 167 109
160 156 98
167 163 105
167 162 105
166 163 105
170 165 107
173 168 108
167 162 103
171 166 106
170 166 106
167 162 101
171 166 105
171 166 105
168 162 102
178 171 109
170 165 105
173 168 106
170 166 108
166 161 101
174 169 106
169 164 106
163 158 99
169 165 104
168 163 103
167 162 99
166 161 101
166 162 99
168 163 102
171 166 108
172 166 105
166 161 101
166 161 103
166 161 100
169 163 100
159 155 94
164 159 100
173 166 104
163 159 98
171 166 101
166 162 101
163 159 99
162 157 97
164 158 98
165 160 99
160 156 96
167 162 99
163 158 96
162 157 95
170 165 104
166 161 101
164 158 97
168 162 101
162 158 95
165 160 101
165 158 97
161 155 95
157 153 93
160 155 95
167 161 100
161 155 95
162 157 99
160 155 93
150 146 90
167 161 101
159 153 95
158 153 94
165 160 94
166 161 103
154 150 89
155 149 92
163 157 93
163 157 95
150 146 90
159 153 95
154 149 87
158 153 93
149 145 88
162 157 95
160 155 93
145 140 82
161 155 95
153 147 88
206 227 255
206 227 255
206 227 255
205 227 255
205 227 255
205 227 255
205 226 255
204 226 255
206 227 253
207 227 245
207 227 252
208 228 252
209 229 255
208 228 249
208 228 252
207 227 244
208 228 253
206 226 246
207 227 246
207 227 246
208 227 249
207 227 249
207 226 244
206 226 245
205 225 238
206 226 244
205 225 240
207 227 250
206 226 242
203 224 236
205 225 241
205 225 242
207 227 246
203 223 233
206 226 242
206 226 245
207 227 249
207 227 249
207 227 246
206 226 246
206 226 244
206 225 245
206 226 248
207 227 248
206 226 241
203 224 240
206 226 245
206 226 245
207 227 249
205 225 244
206 227 250
206 226 244
208 227 248
207 227 248
208 228 250
206 225 242
206 226 245
206 226 244
204 225 244
206 226 245
206 226 242
207 227 248
206 226 248
208 228 252
206 227 246
207 227 249
206 226 246
204 224 241
205 225 246
205 225 246
205 225 244
206 226 246
206 226 246
206 227 249
207 227 250
206 227 248
207 227 246
204 225 245
204 224 237
208 228 252
206 227 249
205 225 242
205 225 246
205 226 248
207 228 253
205 225 240
206 227 249
203 223 242
204 225 249
206 226 246
204 225 244
206 226 246
203 223 240
204 224 238
206 226 249
207 227 252
203 224 238
205 226 245
204 225 248
204 225 246
204 225 246
202 224 244
203 225 250
204 225 246
204 226 248
204 225 246
202 224 241
202 224 245
203 225 245
202 224 242
201 223 245
201 223 241
200 223 238
201 223 244
201 223 242
201 224 248
199 222 240
199 222 238
201 223 245
201 223 246
200 223 245
200 223 245
200 223 244
197 222 253
194 221 255
194 221 255
195 221 255
197 222 255
198 223 255
199 223 255
200 224 255
202 225 255
204 226 255
205 226 255
207 228 255
208 228 255
210 229 254
212 230 254
213 231 255
213 231 255
213 231 255
213 231 255
212 231 255
212 231 255
212 231 255
212 231 255
212 231 255
212 231 255
212 231 255
212 231 255
212 231 255
212 231 255
212 231 255
212 230 255
212 230 255
212 230 255
212 230 255
203 222 248
104 130 181
62 97 161
61 97 162
62 98 164
62 99 168
62 98 162
61 98 161
61 97 149
61 97 154
63 99 160
62 98 164
62 98 158
62 98 160
61 98 164
61 97 156
62 98 161
61 97 159
62 98 163
61 97 160
62 98 161
62 97 152
60 96 151
62 98 158
62 98 159
62 98 160
62 97 151
61 97 153
62 98 156
63 99 162
62 98 160
61 97 155
61 97 151
63 99 163
62 97 156
62 98 155
63 98 161
62 97 155
61 97 154
62 98 163
63 99 169
61 97 148
63 98 159
62 97 150
61 97 152
61 97 150
61 97 156
61 97 154
62 98 168
61 97 158
61 96 160
61 96 151
61 97 158
62 97 158
61 97 155
61 96 155
62 97 157
62 98 162
60 95 151
61 96 158
62 98 159
62 98 167
61 96 151
61 97 153
63 98 162
62 97 160
61 96 152
62 97 161
61 97 164
61 95 152
61 96 148
62 97 157
60 95 154
61 96 159
60 95 154
60 95 156
59 93 153
60 95 152
60 95 157
59 93 146
60 93 150
60 94 157
57 90 147
59 93 157
103 127 176
208 227 252
212 230 255
212 230 255
212 230 255
212 230 255
212 230 255
212 231 255
212 231 255
212 231 255
212 231 255
212 231 255
212 231 255
212 231 255
212 231 255
212 231 255
212 231 255
213 231 255
213 231 255
213 231 255
208 226 248
140 142 120
130 128 84
122 121 82
133 132 90
129 129 88
137 136 93
136 136 93
131 131 89
146 145 99
125 126 87
128 128 88
135 134 90
130 130 88
135 134 92
145 144 98
143 142 98
145 145 99
140 140 96
141 140 95
145 144 97
148 146 99
147 145 98
146 145 97
146 145 97
151 148 98
157 154 103
151 149 100
149 148 99
154 152 102
152 150 100
164 160 105
154 152 99
150 148 98
150 147 98
154 151 100
157 155 104
156 154 103
157 154 102
165 161 105
165 162 106
163 160 104
165 161 105
158 154 100
165 161 104
159 155 102
169 164 105
167 162 104
163 159 102
165 161 102
164 161 103
168 164 108
168 164 103
173 168 108
162 158 103
166 161 101
167 163 104
168 164 103
171 166 105
170 165 106
164 159 100
172 166 104
169 165 105
163 159 104
169 164 103
168 164 104
169 164 104
173 168 108
167 163 103
170 165 103
165 160 98
163 159 96
166 161 101
169 163 103
169 164 103
168 163 104
173 168 110
163 158 99
167 162 99
166 162 102
173 167 104
164 159 103
169 163 102
166 161 101
165 160 101
170 165 104
170 164 101
168 163 103
171 166 101
166 161 101
172 168 104
173 168 104
168 163 104
165 160 97
171 166 103
169 164 101
163 157 97
172 165 102
169 163 100
160 155 95
171 166 104
167 160 101
165 160 99
161 157 95
167 163 101
165 159 96
162 156 95
165 159 96
157 152 90
165 159 98
167 161 101
162 157 95
157 152 93
161 155 96
159 153 95
155 151 93
163 158 98
165 160 99
162 156 95
161 156 97
156 151 93
166 159 99
165 159 97
156 151 93
152 147 91
159 154 90
157 152 92
159 154 94
154 150 90
163 157 95
159 153 95
155 150 90
157 153 95
155 149 90
158 153 94
159 153 90
151 147 84
156 151 91
152 148 90
207 227 255
206 227 255
206 227 255
206 227 255
205 227 255
205 227 255
205 227 255
207 228 255
207 227 249
208 228 250
208 228 249
206 226 244
209 228 250
207 227 248
209 228 252
207 227 246
208 227 246
208 228 249
207 227 246
207 227 246
211 229 252
209 228 249
207 227 249
205 225 241
206 226 244
205 225 240
206 226 246
204 224 236
206 226 241
204 224 241
207 226 245
205 225 241
205 225 244
207 227 245
207 227 248
206 226 244
206 226 242
207 226 249
208 227 248
208 227 248
207 227 248
207 226 246
206 226 249
208 228 249
207 227 245
207 226 245
206 226 246
207 227 246
205 226 244
206 225 241
207 227 246
206 226 245
208 227 249
207 226 246
207 227 248
206 226 246
208 228 253
208 227 246
205 226 241
204 224 240
207 226 245
205 225 246
205 225 245
209 228 252
206 226 245
206 226 245
206 226 248
206 226 245
207 226 249
207 226 248
205 225 241
208 227 249
206 226 244
207 227 252
205 226 246
206 226 246
207 227 249
206 226 244
207 227 248
207 227 248
206 226 246
203 224 237
206 226 248
206 226 246
205 226 244
205 225 249
206 226 245
205 226 244
204 225 241
207 227 253
206 226 246
204 224 238
206 227 252
204 225 246
206 226 249
204 225 244
207 227 252
204 224 248
206 226 250
204 225 245
205 226 248
205 226 249
203 224 241
206 226 249
204 225 245
202 224 242
202 224 241
204 225 248
203 225 249
204 225 250
203 225 248
203 224 244
201 223 242
203 225 246
200 222 240
201 224 249
202 224 248
199 222 240
197 220 230
201 223 242
201 224 249
200 223 246
200 223 248
201 224 250
199 223 254
195 221 255
195 221 255
196 222 255
197 222 255
199 223 255
200 224 255
201 225 255
203 225 255
204 226 255
206 227 255
208 228 255
210 229 255
210 229 252
213 231 254
213 231 255
213 231 255
213 231 255
213 231 255
213 231 255
213 231 255
213 231 255
213 231 255
213 231 255
213 231 255
213 231 255
213 231 255
213 231 255
212 231 255
212 231 255
212 231 255
212 231 255
212 231 255
138 160 203
62 99 172
63 99 167
62 99 167
62 98 161
62 98 156
62 98 163
62 98 161
61 97 156
62 98 164
63 98 159
61 97 154
61 97 162
60 96 152
61 97 157
61 97 155
61 97 151
62 98 164
62 97 156
62 98 159
62 98 160
62 97 152
63 98 157
61 97 160
63 98 164
62 98 153
62 97 154
60 96 151
62 98 161
62 98 157
62 97 156
61 97 151
61 97 158
63 99 162
63 98 158
61 97 156
63 99 163
61 97 161
62 98 157
61 97 159
61 97 154
62 98 161
61 97 157
62 98 159
62 98 163
62 98 161
61 96 150
62 97 156
62 98 166
61 97 157
61 97 159
62 98 157
61 96 155
62 98 162
61 97 152
61 97 157
61 97 152
62 98 158
61 97 157
61 97 155
62 97 164
60 95 150
61 97 156
61 97 154
60 95 151
61 97 154
60 95 151
61 97 157
62 97 159
61 96 155
60 95 152
60 94 150
59 94 138
61 96 154
61 96 153
61 96 158
60 95 154
59 93 148
61 95 159
62 97 162
60 95 156
60 94 154
59 92 152
59 93 158
59 92 155
147 167 203
212 231 255
212 231 255
212 231 255
212 231 255
213 231 255
213 231 255
213 231 255
213 231 255
213 231 255
213 231 255
213 231 255
213 231 255
213 231 255
213 231 255
213 231 255
213 231 255
213 231 255
210 228 252
153 157 142
122 120 78
129 127 86
127 125 85
126 124 85
116 117 82
131 131 90
129 128 88
129 128 88
135 135 92
131 132 91
124 125 87
133 133 91
137 136 93
130 130 90
131 132 92
142 140 95
151 150 102
139 139 95
154 152 103
149 148 99
138 137 94
146 146 99
148 146 98
144 143 98
149 149 98
151 149 101
154 153 103
157 154 102
156 154 102
161 157 104
154 151 97
158 155 101
156 152 100
154 151 97
162 159 105
164 161 103
161 158 104
159 156 101
164 162 106
150 147 99
162 158 103
161 157 101
160 156 103
165 161 101
161 158 102
163 160 104
166 162 106
166 162 106
163 160 105
166 161 103
162 158 101
166 162 103
170 165 106
167 163 103
169 165 107
169 165 106
161 158 102
169 165 107
167 163 103
167 163 104
166 161 101
175 168 106
166 162 102
167 163 102
170 166 104
170 165 107
175 169 109
165 161 101
173 167 106
172 167 106
171 166 103
166 162 98
168 164 104
166 162 99
173 167 102
171 166 104
170 164 101
171 165 104
168 163 100
170 165 103
164 159 97
168 163 102
173 167 106
168 164 102
169 162 100
168 162 104
162 157 97
170 164 100
170 165 104
169 164 101
174 168 108
170 165 101
164 159 99
159 155 97
164 159 99
163 159 95
161 157 93
164 159 98
162 156 97
167 162 100
163 157 97
166 160 96
163 158 100
168 163 98
162 156 95
159 153 95
165 160 97
167 161 100
166 161 99
161 157 95
165 160 97
163 157 93
166 161 98
170 163 101
163 158 97
158 153 93
156 152 92
169 163 99
165 160 99
157 151 92
157 152 90
157 152 93
154 149 88
160 154 98
167 160 99
151 146 88
155 149 87
163 158 95
157 152 91
160 154 95
151 147 86
166 160 95
155 150 92
159 153 91
156 151 93
163 156 95
156 150 89
156 151 92
207 228 255
207 227 255
206 227 255
206 227 255
206 227 255
206 227 255
207 228 254
207 227 246
208 227 252
209 228 252
208 227 248
208 227 246
208 227 248
209 228 250
210 229 250
210 229 252
210 229 253
209 228 249
208 227 246
209 228 250
209 228 250
205 224 241
206 226 245
205 225 238
207 227 244
206 226 242
206 225 242
207 227 246
205 225 238
209 228 249
207 227 244
206 225 240
206 226 241
208 227 245
207 226 244
206 226 242
205 224 241
206 226 242
208 228 248
208 227 246
206 226 245
209 228 252
205 225 241
204 224 240
208 227 249
208 227 249
208 227 245
208 227 249
208 227 245
209 228 250
207 226 246
207 227 250
208 227 245
209 228 249
207 226 246
208 228 252
208 228 249
208 227 245
206 226 246
208 227 245
209 228 249
206 226 248
206 226 242
208 227 248
207 226 242
205 225 245
206 226 246
206 225 245
208 228 248
204 224 245
207 227 244
207 227 246
206 227 252
208 228 248
207 227 248
206 226 242
206 226 246
204 224 241
206 225 244
206 226 248
203 223 238
207 227 250
208 227 250
207 226 246
207 226 246
205 225 242
207 226 249
206 226 245
209 228 252
207 227 250
207 227 248
204 224 248
205 225 245
208 228 252
206 226 248
205 225 242
206 226 248
207 227 250
204 225 240
204 225 242
204 225 242
206 227 249
205 226 245
205 225 242
204 225 248
206 227 253
205 226 246
204 225 249
203 224 240
204 225 242
204 226 252
203 224 245
204 225 245
204 226 249
203 224 242
202 223 246
203 225 246
199 221 233
200 222 237
201 223 245
201 223 242
202 224 246
200 223 248
203 225 249
202 224 253
198 222 250
195 221 254
196 222 255
197 222 255
198 223 255
199 223 255
201 224 255
202 225 255
203 226 255
205 226 255
207 227 255
208 228 255
210 230 255
211 229 252
212 230 253
213 231 255
213 231 255
213 231 255
213 231 255
213 231 255
213 231 255
213 231 255
213 231 255
213 231 255
213 231 255
213 231 255
213 231 255
213 231 255
213 231 255
213 231 255
213 231 255
181 201 233
61 97 161
63 99 165
61 97 158
62 98 165
62 98 160
62 98 158
62 98 165
61 97 155
61 97 157
62 98 163
61 97 159
61 97 158
62 98 159
61 97 159
62 98 160
62 98 155
62 98 157
61 97 154
61 97 159
61 97 157
63 99 164
62 98 160
61 97 152
62 98 154
63 99 159
63 99 165
62 97 156
62 98 158
61 97 158
61 97 157
62 98 164
63 99 162
61 97 152
61 97 157
62 98 161
62 98 158
61 97 153
62 98 159
62 98 160
62 98 163
62 98 157
61 97 161
62 98 160
61 97 156
61 96 145
62 98 163
62 97 158
62 98 159
62 98 161
61 97 158
61 97 154
62 97 154
61 97 155
61 97 151
61 97 151
61 97 154
63 99 161
61 96 156
62 97 158
61 96 157
63 99 163
61 97 160
61 96 159
61 97 158
61 97 154
63 98 162
62 97 158
61 96 154
60 95 146
60 95 149
60 94 153
61 95 159
61 96 156
61 95 150
59 93 149
60 95 157
58 92 146
61 95 159
61 95 153
61 95 162
61 94 144
57 89 140
58 92 150
60 94 158
59 92 149
59 91 147
181 199 226
213 231 255
213 231 255
213 231 255
213 231 255
213 231 255
213 231 255
213 231 255
213 231 255
213 231 255
213 231 255
213 231 255
213 231 255
213 231 255
213 231 255
213 231 255
213 231 255
171 181 186
128 126 81
122 120 81
119 119 82
122 122 83
119 118 81
125 124 85
128 129 90
128 127 87
115 115 80
130 130 90
137 137 94
132 132 92
130 130 90
122 122 85
137 137 93
136 136 93
149 147 98
131 131 88
130 129 88
144 144 99
145 143 97
144 143 95
143 142 94
148 147 100
150 149 100
152 151 100
153 151 99
149 146 97
151 149 100
155 153 102
156 154 103
155 154 101
154 151 98
153 150 98
152 151 99
158 156 102
162 158 104
161 158 104
165 161 106
156 154 100
161 158 102
163 160 104
165 162 106
162 158 104
167 164 107
170 165 103
167 164 108
166 161 104
163 159 103
167 163 105
164 160 103
168 163 106
168 164 104
170 165 107
167 163 105
159 155 98
172 167 108
168 164 105
164 161 104
168 164 103
169 165 104
168 164 105
162 157 99
168 163 102
170 164 103
168 163 104
173 167 105
170 165 99
170 164 103
170 165 105
167 163 103
171 166 106
170 166 105
169 164 103
171 165 101
173 168 106
168 163 99
169 164 102
169 164 101
168 162 99
175 169 109
170 165 101
173 167 104
170 165 103
171 167 104
172 166 104
164 159 98
173 167 103
172 166 104
171 166 101
169 163 101
165 161 97
164 160 97
168 162 100
168 164 101
164 159 100
169 163 101
167 162 98
169 164 100
164 158 99
168 163 99
161 157 95
168 164 100
162 157 94
165 160 98
168 162 97
166 160 97
159 154 95
159 154 96
157 152 91
166 160 95
166 160 95
162 157 95
164 159 98
165 159 95
161 155 93
159 153 93
162 157 95
163 158 95
165 159 99
161 156 95
162 155 95
161 156 94
158 153 95
154 149 87
162 157 96
157 152 90
163 158 96
159 154 89
164 159 95
158 152 91
165 159 100
158 153 91
157 151 90
158 153 90
156 151 90
155 150 90
164 158 95
151 144 85
207 228 255
207 228 255
207 228 255
206 227 255
206 227 255
208 228 252
208 228 248
210 229 252
208 228 248
209 229 250
210 229 250
208 227 246
210 229 254
209 229 252
208 228 248
209 228 249
209 228 250
210 229 253
209 228 248
210 229 249
205 225 238
207 226 242
204 224 234
206 226 241
207 227 245
207 226 241
207 227 242
207 227 244
206 225 240
205 225 238
207 226 246
207 226 241
207 226 245
209 228 249
206 226 244
207 226 244
207 225 245
208 227 245
207 227 246
209 228 249
208 227 245
207 227 245
204 223 238
205 225 237
206 226 245
209 228 252
207 227 244
209 228 249
207 227 246
209 228 249
207 227 248
210 229 254
207 227 248
208 227 250
208 227 242
209 228 249
208 227 246
207 226 248
208 227 249
208 227 249
204 224 240
207 227 248
208 227 244
205 224 241
209 228 250
207 226 245
208 227 248
207 226 246
207 227 249
208 227 249
208 228 248
208 227 250
206 225 244
208 227 248
206 226 245
207 227 245
206 226 242
207 227 249
205 225 248
206 226 248
207 226 246
207 227 246
210 229 253
206 226 245
208 227 246
207 227 245
207 227 249
207 227 248
207 227 250
207 227 248
208 228 249
208 227 246
206 226 242
207 226 249
207 227 246
206 225 244
204 224 240
205 226 244
206 226 244
208 227 249
205 226 246
206 226 242
205 225 242
205 225 248
204 225 242
207 227 249
206 227 250
205 226 245
203 224 241
204 225 246
205 226 252
204 225 245
204 225 245
205 226 250
204 225 250
203 224 242
203 225 246
202 224 244
201 222 238
201 223 241
201 224 245
203 225 248
203 225 249
201 223 242
202 224 246
200 223 242
199 223 253
197 222 254
197 222 255
198 223 255
199 223 255
200 224 255
201 225 255
203 225 255
204 226 255
206 227 255
207 228 255
210 229 254
211 230 255
212 230 252
213 231 255
213 231 255
213 231 255
213 231 255
213 231 255
213 231 255
213 231 255
213 231 255
213 231 255
213 231 255
213 231 255
213 231 255
213 231 255
213 231 255
213 231 255
208 226 250
100 127 175
62 98 162
62 98 159
61 97 163
62 98 160
62 98 158
62 98 160
62 98 158
61 97 154
62 97 150
61 96 150
62 98 163
62 98 166
61 97 163
61 98 158
61 97 158
61 97 158
62 97 158
61 97 152
62 98 159
62 98 158
62 98 163
61 97 149
62 98 159
62 98 159
62 98 159
61 96 149
62 98 168
63 99 161
62 98 159
62 98 160
61 97 147
61 97 160
63 99 167
62 98 157
62 98 158
62 98 155
61 96 144
62 98 160
61 97 161
62 98 160
61 96 152
62 98 158
61 97 152
62 98 157
61 97 150
61 96 151
62 97 150
62 98 160
61 96 153
61 96 145
61 96 151
62 97 153
61 97 155
61 96 153
61 96 152
61 97 152
61 96 155
61 97 152
60 96 151
61 97 155
62 97 158
61 96 150
61 96 155
62 97 156
61 96 156
60 95 152
61 96 155
61 96 155
61 96 156
61 97 158
61 96 152
61 95 156
61 96 155
61 96 152
61 95 151
60 94 150
60 94 152
60 94 155
59 92 142
61 95 154
59 93 151
61 96 161
59 93 151
59 93 154
59 91 149
59 91 146
85 111 165
207 225 251
213 231 255
213 231 255
213 231 255
213 231 255
213 231 255
213 231 255
213 231 255
213 231 255
213 231 255
213 231 255
213 231 255
213 231 255
213 231 255
213 231 255
199 214 232
119 117 76
123 122 81
114 114 78
125 124 84
131 130 88
129 129 89
123 123 84
131 132 92
121 120 82
122 123 86
123 124 86
124 125 87
125 125 87
136 135 92
132 132 91
139 138 94
135 135 91
136 136 91
141 140 95
140 139 93
150 148 99
152 150 99
154 152 101
150 149 98
152 150 100
152 150 100
154 152 101
150 148 99
154 151 100
150 148 96
152 150 99
154 152 99
154 152 100
159 156 101
157 154 103
155 152 96
156 155 103
162 159 104
162 158 101
167 162 102
162 159 102
162 158 101
164 161 105
156 154 98
170 165 107
160 157 100
167 164 106
164 160 105
170 165 104
157 154 96
168 162 102
163 159 99
162 159 101
166 161 102
171 166 106
167 163 104
167 162 103
170 165 105
168 164 103
172 167 107
168 165 105
171 167 104
170 165 104
171 166 105
168 163 101
171 166 104
170 164 103
174 168 104
174 168 106
171 166 106
171 165 103
169 164 102
168 163 102
169 164 104
174 168 106
167 162 100
170 165 100
168 162 101
166 161 101
170 166 105
170 165 103
167 162 98
173 168 104
169 164 103
167 162 95
169 164 102
170 166 103
163 158 96
171 165 103
167 162 98
167 162 101
170 164 101
169 163 99
166 161 97
170 164 101
168 163 101
169 163 99
166 160 97
170 163 97
172 167 103
171 166 104
172 166 105
168 163 99
165 160 98
166 161 101
161 157 93
165 160 99
169 163 96
163 157 93
163 158 93
163 157 95
166 160 98
163 158 95
163 158 96
162 157 90
162 157 95
160 155 95
157 152 86
161 156 90
160 155 93
163 158 95
157 151 94
165 160 95
160 154 93
165 159 95
160 154 89
157 152 86
164 158 93
165 160 93
159 153 92
153 148 85
160 155 93
162 157 91
152 148 87
146 141 85
148 143 79
159 153 94
154 149 90
162 156 90
153 149 88
208 228 255
207 228 255
207 228 255
207 228 255
207 227 252
210 229 253
211 230 254
210 228 248
210 229 250
210 228 248
209 228 248
209 228 248
210 229 252
212 230 253
210 229 250
208 228 248
211 229 249
210 229 252
208 227 245
205 225 234
207 226 242
205 225 242
208 227 248
208 227 246
208 227 244
208 227 244
209 228 248
209 228 248
207 225 241
208 227 248
208 228 246
207 226 241
207 227 245
206 225 238
207 226 240
208 227 246
207 226 242
208 227 248
207 227 242
208 227 244
208 227 245
209 228 246
210 229 253
209 228 250
208 227 248
210 229 252
207 226 240
207 226 241
208 227 249
208 227 246
207 226 242
209 228 249
210 229 250
206 225 245
208 228 250
207 226 245
207 226 244
210 229 250
209 228 248
208 227 242
207 226 242
208 227 248
209 228 248
207 226 242
208 227 246
201 220 231
206 225 237
208 227 249
205 225 246
208 227 248
208 227 246
208 227 248
207 226 246
209 228 249
208 227 249
208 228 252
206 225 244
207 227 245
208 228 249
208 227 246
206 226 245
208 227 249
204 223 240
209 228 252
209 228 249
208 227 246
208 227 248
208 227 244
209 228 249
207 226 244
207 227 245
207 227 245
207 227 246
208 228 249
208 227 248
207 226 246
206 226 246
209 228 248
205 225 244
206 226 244
206 226 245
205 225 244
205 225 245
206 226 244
204 225 245
206 227 248
206 227 250
205 225 245
206 226 249
205 226 249
206 227 250
204 225 244
205 226 245
205 226 249
205 226 249
204 225 245
204 226 249
202 224 240
201 222 236
201 222 237
202 223 241
201 223 241
201 223 240
204 225 249
205 226 252
203 225 253
202 225 250
199 222 248
197 222 255
198 223 255
199 223 255
200 224 255
201 224 255
203 225 255
204 226 255
205 227 255
207 228 255
208 228 255
210 229 255
213 231 255
213 231 253
214 231 255
214 231 255
214 231 255
214 231 255
214 231 255
214 231 255
214 231 255
213 231 255
213 231 255
213 231 255
213 231 255
213 231 255
213 231 255
213 231 255
157 177 213
61 97 162
61 97 158
61 98 160
61 97 159
62 98 166
62 98 160
62 98 160
62 98 167
61 97 153
63 99 163
62 98 165
62 98 158
62 98 162
59 94 142
61 97 152
62 98 161
62 98 158
61 97 153
62 97 156
62 98 159
62 98 159
63 99 162
62 97 155
62 98 160
61 97 153
62 98 159
62 98 154
61 97 150
62 98 160
62 98 164
61 96 148
62 97 153
61 96 145
62 97 153
61 97 158
61 97 148
62 98 154
62 98 156
62 98 158
61 97 150
62 97 151
62 98 159
62 98 156
62 98 162
61 97 152
62 98 157
62 98 160
62 97 156
62 98 159
62 97 154
62 98 158
61 97 154
62 97 159
62 98 158
62 97 155
61 96 154
63 99 162
61 97 153
62 97 157
61 96 147
60 95 148
62 97 161
61 96 154
61 96 153
61 97 159
62 97 159
60 94 146
60 95 151
63 98 161
61 96 153
60 95 152
61 96 158
60 95 148
60 95 150
61 96 153
61 95 150
61 97 161
61 96 156
60 94 151
61 96 155
61 96 156
60 94 154
59 93 147
60 94 150
59 93 153
57 90 145
57 89 143
58 90 146
163 182 214
213 231 255
213 231 255
213 231 255
213 231 255
213 231 255
213 231 255
213 231 255
213 231 255
214 231 255
214 231 255
214 231 255
214 231 255
214 231 255
210 227 250
123 123 97
129 127 82
118 117 80
125 124 85
124 124 85
113 115 83
121 120 83
120 121 85
130 129 88
119 119 82
130 130 90
120 121 86
136 136 93
138 137 93
132 132 90
136 136 92
129 129 89
135 135 92
133 133 92
145 144 98
144 143 97
139 140 95
144 144 98
143 143 97
147 145 97
140 139 92
154 152 101
144 143 95
150 149 100
149 146 97
151 149 98
157 154 100
152 150 98
162 159 104
149 148 100
158 155 103
153 151 100
158 155 103
161 158 104
161 158 103
164 160 104
166 162 105
164 160 102
172 167 107
163 160 104
162 159 102
161 156 99
168 164 107
169 164 105
166 162 104
163 159 102
168 163 103
165 160 98
163 158 101
168 163 103
168 163 100
171 167 106
168 164 104
168 164 103
172 166 105
168 163 100
171 166 104
165 161 102
169 164 106
172 166 104
170 165 104
172 166 103
171 164 103
173 167 107
169 164 104
174 168 107
169 164 100
174 168 104
170 165 102
172 168 104
176 169 108
172 166 103
164 159 95
168 162 102
167 162 100
169 164 102
166 161 99
165 160 98
166 161 95
163 158 97
173 167 103
168 163 101
166 161 99
168 161 100
166 161 100
167 162 96
171 164 101
169 164 102
169 164 103
169 164 99
170 165 99
164 159 97
169 163 102
171 165 103
173 167 105
171 165 98
162 157 94
169 163 101
168 162 99
167 161 99
162 158 97
163 157 95
165 160 98
162 157 97
167 162 100
168 162 95
162 157 94
163 158 97
161 156 95
162 158 96
162 157 95
164 158 91
158 153 90
162 156 95
160 156 95
157 152 88
160 155 89
160 155 87
158 154 91
153 148 84
158 152 90
157 152 87
164 158 97
156 152 88
151 146 85
169 163 95
158 152 95
163 157 92
157 152 90
155 148 86
160 155 93
154 149 86
155 150 87
162 156 95
153 148 86
154 148 84
208 228 255
208 228 255
208 228 255
209 229 255
209 228 249
211 230 255
210 229 252
210 228 249
211 230 255
208 227 245
209 228 246
211 230 253
211 230 254
210 229 250
209 228 249
210 229 249
210 229 252
210 229 250
207 226 240
206 225 236
203 223 230
208 227 244
207 226 240
205 224 234
208 227 245
208 227 245
208 227 245
208 228 245
209 228 249
209 228 248
210 229 249
208 227 244
208 226 242
206 225 236
209 227 250
204 224 240
208 227 244
209 227 246
208 227 245
209 228 248
208 227 244
206 225 240
210 229 250
209 228 248
207 226 242
209 228 249
208 226 246
210 229 250
207 225 241
207 226 244
209 227 248
211 230 253
210 229 249
210 229 250
210 229 252
207 226 244
209 228 248
210 229 249
208 227 250
210 229 250
208 227 245
205 224 241
207 226 244
209 227 246
208 227 249
208 227 248
210 229 250
207 226 245
207 227 241
209 228 249
206 226 244
208 227 245
210 229 254
208 227 249
210 229 253
208 227 245
209 228 250
209 228 249
208 227 245
209 228 249
209 228 249
205 224 238
208 228 252
208 227 249
206 226 248
208 227 246
208 227 248
207 227 249
209 228 252
209 228 250
208 227 246
208 227 246
206 225 241
208 227 252
206 225 242
206 226 242
207 227 249
207 227 248
208 227 246
206 226 244
207 226 245
208 228 249
207 226 245
207 227 250
208 228 252
206 226 244
206 226 241
207 227 246
206 226 245
206 226 248
207 227 248
205 225 244
202 223 237
204 225 244
205 226 248
204 225 244
205 226 246
205 226 248
205 226 248
202 224 240
204 225 244
202 224 238
202 224 241
204 225 246
204 225 248
204 225 250
203 224 246
204 226 253
200 224 254
198 223 255
199 223 255
200 224 255
201 224 255
202 225 255
203 226 255
205 226 255
207 227 255
208 228 255
209 229 255
212 230 255
212 230 253
214 232 255
214 231 255
214 231 255
214 231 255
214 231 255
214 231 255
214 231 255
214 231 255
214 231 255
214 231 255
214 231 255
214 231 255
214 231 255
203 221 246
64 98 150
61 98 167
60 96 155
61 97 155
62 98 159
62 98 163
62 98 161
61 97 157
62 98 158
62 97 155
62 98 159
61 97 155
61 97 150
62 98 151
62 98 159
62 97 156
62 98 160
61 97 155
62 98 156
62 98 163
61 97 153
61 96 143
61 96 151
62 97 155
61 96 153
61 97 155
62 98 159
61 97 158
62 98 156
61 97 155
61 97 156
61 97 156
62 98 155
61 97 144
62 98 157
61 97 142
62 98 159
61 97 154
61 97 152
62 97 153
60 96 151
62 98 157
61 96 152
61 97 147
61 97 155
61 97 150
62 97 156
62 98 158
61 96 152
61 96 157
60 95 142
61 96 150
61 96 147
62 98 155
61 96 147
61 97 153
61 97 156
62 98 160
62 97 153
61 95 145
61 96 145
60 94 144
61 96 148
62 97 160
61 97 155
61 96 154
59 94 144
62 97 161
60 94 147
61 95 149
61 96 156
60 95 140
61 96 154
60 95 141
61 96 153
60 94 147
60 94 151
59 93 145
60 95 150
59 94 149
61 95 155
61 95 152
61 95 156
61 95 158
60 94 151
59 92 149
59 92 151
58 91 144
59 93 153
69 100 160
203 221 245
214 231 255
214 231 255
214 231 255
214 231 255
214 231 255
214 231 255
214 231 255
214 231 255
214 231 255
214 231 255
214 231 255
214 231 255
174 183 186
125 122 80
112 112 76
123 122 82
117 117 81
112 113 78
109 110 77
112 113 79
126 127 88
117 118 83
130 131 90
130 130 91
119 120 83
132 132 90
126 126 87
126 126 86
132 133 93
135 135 94
132 133 92
140 140 96
135 135 93
135 136 93
144 143 96
141 139 92
136 136 93
149 147 98
153 150 98
147 146 97
155 152 98
153 151 99
149 147 96
153 151 101
153 151 98
152 150 97
154 152 101
162 159 103
152 149 98
159 157 102
162 159 103
156 153 100
157 153 99
166 162 104
159 155 100
163 159 102
164 160 102
163 159 100
161 158 102
170 165 105
165 161 105
167 163 103
170 165 103
169 165 106
168 163 104
164 161 102
168 163 103
163 159 100
170 165 103
170 165 105
170 165 105
172 167 105
169 164 100
170 165 106
170 166 103
166 160 102
171 165 101
171 167 106
172 167 105
175 168 103
173 168 106
171 166 104
172 168 104
171 166 103
170 165 104
172 167 101
167 162 100
165 161 98
167 162 98
168 163 97
171 166 106
173 167 106
169 164 103
173 167 104
169 164 101
176 170 106
174 168 104
173 168 104
173 168 102
169 164 99
168 162 100
165 160 95
168 162 97
169 163 100
165 159 97
165 160 97
172 166 101
159 153 95
171 164 100
166 162 101
170 164 101
170 165 101
166 161 96
169 162 97
169 164 102
171 164 96
170 165 98
170 164 100
168 162 96
173 167 103
161 155 93
164 159 97
162 156 94
169 163 99
156 152 90
160 155 93
167 161 93
164 158 97
163 157 89
171 165 99
165 160 95
164 159 97
163 158 91
163 157 93
161 156 94
164 157 93
166 159 100
154 149 87
161 155 95
163 157 92
159 154 93
161 155 95
164 158 97
163 157 91
159 154 95
151 147 85
160 155 87
165 159 96
148 142 84
162 157 94
161 155 93
159 153 89
145 140 80
162 158 95
208 228 255
208 228 255
209 228 253
211 229 253
211 229 252
210 229 252
211 230 252
211 230 253
210 229 250
208 227 248
212 230 252
213 231 255
210 228 246
210 229 252
208 227 244
210 228 246
211 229 250
209 228 245
209 228 245
206 226 236
209 228 248
208 227 241
208 227 242
208 227 244
209 228 245
211 229 252
209 228 246
208 227 248
209 228 248
209 228 244
210 229 248
207 226 241
208 226 248
209 228 248
209 228 245
210 229 248
210 229 249
210 228 250
210 229 248
210 229 248
208 227 241
209 227 242
210 228 246
211 230 253
208 227 245
208 226 246
209 228 245
207 226 242
211 229 252
209 228 248
209 228 248
210 229 248
209 227 246
208 227 245
208 227 245
209 228 246
208 227 248
207 226 244
207 226 241
210 229 252
209 228 248
207 226 242
209 228 248
208 227 245
207 226 242
209 227 246
208 227 248
209 228 250
209 228 246
209 228 250
209 228 246
207 226 248
208 228 250
209 228 249
209 227 250
211 229 250
209 228 250
209 228 249
206 225 246
209 228 248
209 227 248
207 227 244
209 228 246
209 228 249
207 226 242
208 227 249
208 227 250
207 227 248
208 227 246
209 228 250
208 227 245
208 227 245
208 227 246
209 228 250
208 227 250
208 227 245
208 228 250
208 227 245
207 226 245
207 227 246
208 227 246
208 227 250
206 226 244
209 228 249
208 227 245
207 227 248
205 225 242
205 225 242
207 227 248
207 227 248
205 225 242
205 225 241
207 227 250
206 226 248
204 224 244
206 227 248
205 226 250
206 227 248
208 228 254
205 226 248
205 226 248
204 225 244
203 224 241
203 225 245
203 224 242
206 227 250
204 225 248
203 225 249
202 224 242
200 224 254
199 223 255
200 224 255
201 224 255
202 225 255
203 225 255
205 226 255
206 227 255
207 227 255
209 229 255
211 230 255
212 230 255
214 231 254
214 232 255
214 232 255
214 232 255
214 232 255
214 232 255
214 232 255
214 232 255
214 232 255
214 231 255
214 231 255
214 231 255
214 231 255
145 166 207
62 97 161
62 98 163
61 97 151
62 98 158
62 98 167
62 98 159
61 96 153
61 96 150
62 98 157
62 98 161
63 99 164
61 97 155
61 97 154
62 98 154
62 98 159
61 97 155
63 99 160
63 99 167
61 97 155
63 99 162
62 98 157
62 98 155
62 98 160
61 96 145
62 98 161
62 97 159
62 98 156
62 97 153
61 96 145
61 96 149
61 97 152
61 96 152
61 97 147
61 96 150
62 97 160
62 98 157
61 96 150
62 98 156
62 98 159
62 97 152
61 97 149
61 96 151
62 98 155
61 97 154
61 96 150
62 97 149
60 96 143
61 97 155
62 98 155
60 96 145
61 97 152
62 97 149
62 97 149
62 97 153
61 97 151
61 96 150
62 98 155
62 97 156
61 96 150
61 96 152
61 97 157
61 96 153
61 96 143
60 95 151
61 97 155
62 98 163
61 97 160
61 96 151
61 96 155
59 93 151
60 95 149
61 96 160
61 96 150
60 95 143
60 96 150
61 95 145
61 95 152
61 96 158
60 94 150
60 95 151
60 95 156
59 93 157
60 93 147
59 93 149
59 92 150
58 90 140
58 90 142
59 92 151
60 92 148
58 91 147
136 155 190
214 231 255
214 231 255
214 231 255
214 231 255
214 232 255
214 232 255
214 232 255
214 232 255
214 232 255
214 232 255
214 232 255
196 210 225
133 130 88
115 114 77
113 113 78
122 121 82
122 122 84
121 122 85
122 123 86
125 125 87
116 117 81
121 121 84
130 130 90
116 119 85
124 124 86
128 129 90
140 139 95
131 132 92
129 128 89
138 138 94
140 139 94
124 124 86
128 128 87
138 138 93
139 138 93
140 139 93
151 150 100
145 145 96
134 134 91
137 136 93
145 143 92
156 154 103
151 149 98
153 150 99
152 151 98
157 156 103
159 156 103
154 153 99
157 155 100
161 157 98
158 155 99
160 156 100
161 157 101
164 161 103
159 155 98
160 158 104
160 155 97
167 163 104
160 157 100
164 159 100
162 158 97
165 161 100
170 165 104
167 162 103
171 166 106
163 159 100
167 163 106
170 165 102
170 164 101
165 160 99
172 167 104
166 161 100
168 163 99
170 164 101
169 165 105
170 165 99
167 163 100
169 165 104
169 164 98
170 163 101
169 164 102
173 167 102
171 166 103
173 167 101
175 168 101
172 166 102
170 164 99
170 165 99
170 165 102
170 164 101
171 166 103
170 165 100
171 166 101
166 162 99
170 165 101
173 168 104
171 165 101
168 162 99
164 160 97
169 164 98
173 167 103
166 161 97
169 164 99
166 161 95
169 164 99
160 156 94
170 164 100
169 163 101
166 161 95
167 161 99
168 162 97
167 161 100
168 163 97
168 163 98
170 164 103
167 161 101
172 166 102
164 158 90
164 159 93
163 158 97
165 160 93
165 159 95
164 159 94
165 160 97
163 158 95
169 163 99
164 159 92
165 159 95
168 162 96
171 165 101
162 157 90
166 160 97
157 152 89
162 156 91
157 152 89
157 153 89
158 153 91
162 156 90
161 156 91
159 154 93
163 156 93
158 152 87
162 157 99
163 157 93
160 154 90
160 154 92
157 152 92
163 157 91
157 152 85
158 153 87
161 156 91
154 148 87
148 143 85
157 152 84
209 229 255
209 228 253
210 229 249
211 230 253
211 229 249
211 229 252
211 229 250
212 230 252
210 229 248
211 229 250
211 229 248
210 229 250
210 228 245
209 227 245
211 230 253
211 229 253
210 228 246
206 226 236
207 226 238
209 228 245
211 229 249
207 226 238
208 227 242
210 228 246
209 228 245
210 229 250
208 227 241
209 228 245
208 227 241
208 227 244
210 228 249
209 228 245
208 227 247
210 229 250
209 228 250
211 229 249
210 229 249
211 229 249
205 224 236
210 228 246
210 229 248
209 228 244
210 229 249
211 229 252
210 228 244
209 228 242
207 226 240
208 227 249
208 227 245
208 227 244
210 228 245
209 228 249
211 229 253
209 227 245
208 227 242
209 227 246
209 227 245
208 226 245
207 226 244
209 228 249
209 228 249
211 230 253
210 228 250
210 229 249
208 227 246
206 225 241
207 226 245
210 228 248
210 229 248
208 226 238
207 226 244
209 227 245
208 227 246
209 228 248
209 228 250
211 229 252
211 229 246
209 228 246
209 227 246
210 229 252
208 227 252
208 227 245
210 228 249
207 226 244
209 227 245
211 229 252
209 228 248
207 226 238
209 228 246
208 227 245
209 227 244
208 227 245
208 227 248
207 226 241
208 228 249
208 227 244
209 228 249
209 228 245
208 228 252
206 226 242
208 227 245
207 227 245
208 228 248
204 224 242
209 228 252
208 228 252
209 228 248
208 228 249
208 228 248
207 227 249
207 227 246
208 228 249
208 228 249
207 227 245
206 226 245
206 226 246
206 226 241
208 228 254
206 227 248
206 226 248
204 224 240
202 223 234
204 225 244
205 226 248
202 223 237
205 226 248
205 226 246
206 226 250
205 226 248
203 225 248
201 224 253
200 224 255
201 224 255
202 225 255
203 225 255
204 226 255
206 227 255
207 228 255
209 229 255
210 229 255
211 230 255
213 231 253
212 230 249
214 232 255
214 232 255
214 232 255
214 232 255
214 232 255
214 232 255
214 232 255
214 232 255
214 232 255
214 232 255
198 216 243
66 101 167
62 98 158
61 97 156
60 96 147
62 97 156
61 96 148
62 98 157
61 97 155
62 98 161
61 97 154
61 97 152
61 97 156
61 96 142
61 96 147
60 95 141
61 97 155
61 97 159
61 97 159
61 97 153
61 96 152
62 97 155
61 97 153
63 99 164
62 98 158
61 96 149
61 96 147
61 96 145
61 97 149
61 96 147
62 98 156
62 97 151
61 97 154
62 98 157
62 97 153
61 97 152
62 97 151
61 97 157
61 97 155
62 98 157
61 97 158
62 98 159
61 97 157
63 99 163
62 97 152
61 97 150
63 98 159
61 96 150
62 97 156
61 96 148
60 95 143
59 95 141
62 98 153
60 96 151
62 97 158
61 96 146
61 96 152
61 97 154
62 97 155
62 97 153
61 96 151
61 96 156
61 95 151
60 95 153
60 95 150
61 95 149
61 96 149
60 96 149
61 97 155
60 95 147
61 96 151
60 95 147
61 96 156
61 96 151
61 96 156
61 96 154
61 96 149
61 95 153
61 95 155
60 95 154
61 95 152
60 94 146
60 94 149
61 95 150
58 92 145
60 94 145
59 93 146
60 94 154
60 94 155
58 91 151
58 91 147
58 89 141
56 86 139
198 216 243
214 232 255
214 232 255
214 232 255
214 232 255
214 232 255
214 232 255
214 232 255
214 232 255
214 232 255
214 232 255
127 130 111
114 112 73
110 108 73
120 119 81
130 131 90
111 112 77
118 119 82
120 121 85
106 108 78
118 120 85
125 126 89
112 114 81
121 122 84
123 125 88
114 116 82
129 129 88
130 131 91
128 127 88
133 132 90
139 138 94
139 138 94
129 130 90
152 151 100
135 135 91
141 140 94
147 144 93
150 149 99
139 139 91
145 143 93
149 148 98
157 154 100
148 146 97
155 152 98
157 154 101
164 160 105
153 149 95
155 153 101
156 153 94
162 159 103
160 156 99
162 159 103
164 160 104
161 158 102
159 156 97
163 161 103
164 160 101
163 160 102
159 156 96
174 169 108
169 165 104
165 161 104
165 162 103
168 163 100
168 164 103
170 165 103
175 169 103
169 165 101
168 163 101
167 162 103
170 165 103
168 163 102
168 164 101
171 166 103
170 164 96
165 161 99
169 165 104
169 163 101
171 165 104
171 165 102
175 170 104
172 166 102
171 166 101
172 166 101
175 169 104
169 164 99
171 166 98
171 166 101
171 166 101
171 165 98
173 167 104
172 167 103
166 161 96
168 162 98
173 167 101
171 165 99
169 164 101
171 165 97
168 162 98
170 164 99
168 162 101
171 165 101
174 167 101
167 162 98
175 168 104
170 165 100
168 163 97
166 161 95
166 161 96
168 163 97
168 162 101
163 157 97
166 160 95
161 157 95
171 165 102
166 161 94
170 163 103
166 161 93
166 161 95
167 162 100
164 158 90
161 156 92
163 157 90
168 162 98
166 160 96
162 157 94
163 157 93
161 156 93
163 158 94
168 161 98
162 157 93
164 158 93
162 156 93
164 157 93
167 161 97
160 155 90
163 157 88
166 160 95
160 155 90
165 159 93
161 156 94
162 157 93
164 159 97
161 156 95
156 151 87
155 149 87
160 154 93
163 157 93
158 153 90
161 156 97
162 156 92
154 149 82
148 144 83
153 148 86
208 227 253
211 230 253
213 231 254
211 230 250
211 229 248
211 229 249
211 230 252
212 230 252
211 229 249
213 231 255
212 230 254
210 229 246
208 227 242
213 231 254
211 229 249
208 226 241
207 226 240
208 227 240
209 228 242
210 228 246
209 228 246
211 229 248
205 223 233
209 227 242
210 228 245
208 227 242
209 228 245
210 228 250
209 227 242
209 228 246
210 229 249
211 229 249
208 227 246
210 229 246
210 228 248
208 226 243
210 228 248
211 229 250
210 228 245
210 228 244
210 228 248
211 229 248
209 227 245
209 227 246
207 226 242
210 228 246
210 228 249
210 228 248
209 227 248
209 227 244
210 228 245
207 225 236
212 230 252
211 229 248
209 227 248
211 229 248
211 229 249
212 230 252
211 229 249
211 229 250
212 230 253
210 228 244
210 228 249
211 229 249
209 228 248
209 228 246
212 230 250
208 227 245
209 228 249
210 228 249
208 226 242
210 228 253
210 229 249
209 227 250
210 228 250
210 228 246
210 228 249
210 229 250
211 229 253
208 226 242
208 227 246
210 228 245
208 227 244
208 227 246
207 226 246
210 229 250
209 227 245
210 229 250
208 226 244
206 226 242
207 226 244
209 228 245
209 228 249
209 228 246
211 230 253
209 228 249
209 228 248
209 228 248
209 228 252
209 228 253
209 228 249
209 228 249
209 228 248
209 228 248
209 228 248
208 227 248
208 227 246
208 227 248
210 229 250
205 225 242
208 228 249
208 227 246
209 228 250
206 226 246
208 228 250
207 227 246
207 227 248
208 227 248
207 227 246
207 227 250
206 227 248
206 226 248
204 225 238
204 225 241
204 225 244
203 224 238
205 226 248
204 225 248
204 225 246
206 226 249
204 226 252
201 224 254
201 224 255
202 225 255
203 225 255
204 226 255
205 227 255
206 227 255
208 228 255
209 229 255
210 230 255
213 231 255
214 231 254
215 232 254
215 232 255
215 232 255
215 232 255
215 232 255
215 232 255
215 232 255
215 232 255
215 232 255
215 232 255
133 154 190
62 98 161
61 97 156
62 98 161
62 97 154
61 96 154
62 98 162
62 97 156
62 98 154
61 96 152
61 97 153
61 97 154
62 98 159
62 98 159
61 96 150
62 98 157
61 96 153
61 97 152
61 97 153
61 96 152
61 96 149
62 97 155
61 97 151
62 97 153
62 97 154
61 97 156
61 97 151
61 97 156
61 96 150
61 97 151
60 96 144
61 97 153
61 97 151
62 98 159
60 95 140
61 97 151
61 96 152
61 97 156
60 96 145
61 97 154
62 97 153
61 96 151
61 96 150
60 95 140
62 97 159
62 97 156
63 98 159
60 95 144
61 97 156
62 97 157
61 97 149
61 96 151
61 97 149
61 96 151
61 97 152
61 97 152
61 96 147
59 94 145
62 97 156
62 97 156
62 97 150
61 97 151
61 96 153
61 96 151
62 97 159
61 97 159
61 96 149
61 96 152
61 96 154
60 95 144
61 95 146
61 96 149
60 94 146
61 96 156
60 95 142
62 96 155
60 94 147
61 97 157
60 95 150
61 95 149
60 95 148
60 94 152
60 93 148
60 94 153
59 93 140
61 95 155
58 89 136
59 93 151
58 90 144
56 88 135
56 88 137
56 87 135
58 90 142
139 157 188
215 232 255
215 232 255
215 232 255
215 232 255
215 232 255
215 232 255
215 232 255
215 232 255
215 232 255
196 210 227
100 99 64
114 114 78
107 108 74
115 114 79
122 121 81
112 113 79
113 114 79
108 110 78
122 122 84
113 115 80
130 130 88
116 118 84
132 133 93
124 125 87
134 134 91
133 132 88
130 130 88
123 124 84
124 125 85
130 131 90
138 138 93
129 130 88
137 137 91
144 142 95
146 143 94
141 139 93
146 145 97
145 143 94
137 136 90
148 147 97
153 150 100
153 151 98
153 150 98
153 151 95
152 150 98
157 154 99
154 152 98
155 153 99
165 161 104
160 156 100
164 161 101
154 152 97
160 156 100
167 163 105
165 160 101
163 160 105
160 157 101
169 164 104
168 162 100
164 160 100
170 166 105
171 166 105
164 159 99
173 168 104
167 162 101
170 165 103
172 166 103
172 167 102
169 164 101
168 163 103
168 164 99
172 166 104
172 167 103
168 163 103
174 167 101
170 165 104
165 161 102
174 168 104
171 165 104
174 169 102
167 162 98
171 166 102
175 168 101
172 167 102
169 164 96
172 166 97
171 165 101
170 165 100
172 166 103
174 167 101
179 172 108
168 163 99
171 166 101
168 163 99
171 166 102
171 165 99
170 165 99
169 163 100
172 166 101
169 164 97
170 164 97
176 169 105
168 162 98
167 162 99
171 166 102
171 165 101
168 162 99
171 165 100
167 162 93
162 156 89
164 158 90
166 160 98
167 162 95
170 165 100
168 163 98
164 159 96
168 164 99
165 160 98
164 159 93
161 155 92
164 159 97
166 161 97
165 161 95
162 157 91
164 159 95
157 152 90
166 160 93
162 157 97
167 161 90
163 158 93
164 158 95
161 155 90
163 157 94
166 160 97
160 155 90
163 157 93
164 159 97
164 157 93
161 156 93
161 155 91
163 158 93
159 154 90
163 157 91
151 146 83
159 152 87
158 152 90
157 151 89
158 152 89
160 155 93
156 151 91
152 147 82
159 154 95
158 152 90
211 230 255
211 229 248
213 231 254
211 229 246
212 230 252
211 229 250
210 228 248
212 230 250
213 230 253
212 230 249
211 229 248
212 230 250
213 230 252
211 229 249
213 231 254
212 230 249
208 226 240
208 227 237
210 228 244
210 228 242
211 229 249
211 229 249
209 227 244
209 228 242
210 228 245
211 229 248
210 229 245
206 225 233
209 227 244
210 228 247
210 228 244
209 228 246
209 227 247
208 226 240
211 229 250
210 228 246
210 228 248
211 229 250
210 228 244
212 230 249
212 230 249
212 230 249
213 230 253
210 228 245
207 226 242
209 227 246
212 230 252
210 228 246
210 229 250
210 228 245
209 227 244
211 229 252
210 228 249
212 230 250
210 228 245
209 227 246
211 229 248
211 229 253
210 228 248
211 229 250
211 228 250
211 229 249
209 227 246
210 228 246
209 227 245
209 227 246
210 228 245
210 229 252
210 228 249
210 229 248
209 227 249
211 229 246
210 229 252
209 228 246
211 230 253
209 228 248
211 229 249
210 229 248
209 227 249
211 229 250
209 228 249
208 227 246
209 228 249
209 228 248
208 226 246
208 227 244
208 227 241
208 227 246
210 229 249
207 226 242
206 225 238
208 227 242
209 228 249
211 229 248
212 230 253
209 227 248
209 228 245
208 228 248
209 228 245
209 228 246
210 229 250
210 229 250
210 229 252
208 227 244
207 226 244
210 228 249
209 227 244
210 228 249
210 229 250
209 228 248
208 227 248
208 227 245
207 227 244
208 227 248
206 226 241
208 227 248
209 228 249
209 228 249
207 227 244
207 227 246
207 227 248
206 226 244
207 227 248
205 225 241
205 225 241
205 226 245
206 226 245
204 225 238
206 226 248
204 225 250
204 225 246
205 226 254
200 224 254
202 225 255
203 226 255
204 226 255
205 227 255
207 227 255
207 228 255
209 229 255
210 230 255
212 230 255
214 231 255
214 232 255
215 232 255
215 232 255
215 232 255
215 232 255
215 232 255
215 232 255
215 232 255
215 232 255
209 226 252
70 103 158
61 97 159
61 96 149
62 97 154
61 96 149
60 96 148
61 97 155
62 98 157
61 97 155
61 97 155
61 97 153
60 95 143
61 96 149
60 96 149
61 96 147
62 98 154
61 97 149
61 97 153
62 97 156
62 98 153
61 96 152
61 97 154
61 97 149
61 97 150
61 97 153
61 96 145
62 98 156
60 95 148
61 97 147
61 97 149
62 98 155
61 96 148
62 97 155
61 96 151
61 97 151
61 96 148
61 96 149
62 97 151
61 97 147
61 97 155
61 97 152
62 97 150
62 98 159
60 95 139
62 97 151
61 96 152
62 97 151
61 96 152
62 97 154
61 96 148
60 96 143
61 96 142
61 96 148
61 97 147
61 97 148
61 97 150
61 97 152
62 98 160
60 95 144
62 97 158
59 94 140
60 95 145
61 96 151
62 97 155
61 96 153
60 95 147
61 97 155
61 95 148
61 97 151
62 96 152
61 96 154
60 95 147
59 92 140
62 97 161
58 92 144
60 95 153
60 94 144
62 96 152
59 93 141
61 96 151
60 94 150
59 92 142
61 95 154
58 92 145
59 93 143
57 90 140
58 91 141
59 92 141
58 91 149
60 95 156
59 91 137
59 91 146
58 90 149
60 90 142
202 219 244
215 232 255
215 232 255
215 232 255
215 232 255
215 232 255
215 232 255
215 232 255
214 230 253
138 139 113
118 117 78
108 108 74
117 116 78
104 105 73
129 127 86
116 116 80
100 102 72
105 106 73
116 118 82
109 111 79
118 120 84
116 118 82
129 129 87
113 116 81
128 129 89
128 129 88
127 128 87
124 125 86
125 126 89
141 139 94
138 139 94
130 130 87
146 145 96
138 138 94
142 140 95
143 142 96
148 146 93
150 149 97
155 153 97
144 142 93
148 146 95
146 145 96
159 157 102
153 151 96
158 155 101
158 155 100
161 157 101
161 157 98
162 158 104
162 158 102
163 160 103
160 157 101
164 161 102
158 154 95
165 161 102
162 159 98
159 155 99
168 163 103
166 161 98
163 159 97
161 157 99
167 162 99
165 160 100
169 163 99
167 162 102
161 157 96
169 165 102
170 165 101
169 165 103
172 167 100
168 164 98
169 165 104
168 163 99
168 162 97
170 164 102
175 169 102
172 166 100
171 166 100
172 166 102
171 166 103
175 168 105
170 165 99
174 167 100
169 164 98
169 164 102
173 167 99
171 166 99
173 168 102
175 168 103
175 168 101
169 164 98
172 167 98
170 165 98
172 166 103
171 167 102
173 167 100
169 163 97
165 160 93
167 162 96
174 168 104
169 163 99
168 163 101
169 163 100
171 165 102
166 160 93
167 162 95
169 162 96
167 163 99
164 159 95
173 167 101
163 157 91
162 158 93
163 158 95
164 159 88
168 163 99
166 159 95
166 161 97
165 159 93
168 162 97
166 161 94
163 158 94
163 158 91
164 158 95
167 161 95
164 159 94
170 163 95
168 162 99
172 165 97
160 155 84
167 161 96
155 150 86
163 157 95
162 155 92
164 157 93
156 151 90
167 159 95
162 157 89
156 150 87
159 153 89
165 159 93
165 159 93
159 153 91
164 159 91
165 159 95
157 152 85
158 153 88
157 152 84
160 154 86
161 155 90
169 163 95
157 151 88
163 158 90
159 153 87
213 230 252
211 229 248
212 230 250
212 230 252
212 230 250
212 230 252
212 230 249
213 231 252
212 230 252
211 229 246
213 230 252
213 230 250
210 228 244
211 229 248
213 231 252
209 228 241
209 228 242
211 229 246
208 226 236
205 224 228
212 230 250
209 227 244
209 227 240
211 229 245
212 230 248
210 228 242
207 225 236
212 230 250
211 229 246
211 229 250
210 228 247
210 228 241
212 230 249
211 229 248
208 227 236
210 228 248
211 228 246
210 228 246
209 226 241
211 229 244
212 230 253
210 228 244
212 230 248
211 229 245
211 229 246
212 230 252
212 230 249
210 228 244
211 229 248
210 228 244
211 229 248
211 230 249
210 228 244
212 230 253
212 230 250
212 230 248
212 229 250
209 227 245
208 226 240
210 228 246
211 228 248
211 229 252
207 224 245
206 224 238
210 228 250
209 227 244
209 227 248
212 230 249
207 224 245
210 228 248
210 229 250
208 227 245
210 227 248
211 229 250
211 229 253
209 227 245
210 228 250
210 229 246
209 227 248
208 226 238
207 225 238
210 228 242
208 227 241
211 229 248
211 229 249
210 229 249
210 229 250
209 228 246
210 228 245
209 227 245
211 229 249
206 225 238
210 229 252
208 227 244
209 227 245
210 229 250
210 229 248
209 228 245
210 229 248
208 227 242
210 229 248
209 227 246
209 228 245
210 228 245
210 228 246
209 228 245
210 229 252
210 228 245
210 229 250
208 227 244
209 228 249
209 228 245
208 227 242
209 228 246
208 228 248
209 228 249
209 228 250
208 227 245
208 228 249
206 225 237
208 228 248
207 227 248
207 227 245
207 226 242
205 225 241
204 225 238
205 225 241
202 222 242
202 223 244
206 225 243
203 223 250
201 222 244
196 218 250
200 223 254
200 222 252
200 222 252
203 224 254
206 227 255
207 228 255
209 228 255
210 230 255
211 230 254
212 231 255
214 231 253
215 232 255
215 232 255
215 232 255
215 232 255
215 232 255
215 232 255
215 232 255
215 232 255
169 188 222
61 97 159
61 97 154
62 98 156
61 97 156
61 97 154
61 97 154
61 96 150
61 97 152
62 98 157
61 97 148
62 97 150
61 96 151
61 97 154
62 98 156
61 96 143
62 98 161
61 96 148
62 97 156
61 96 150
61 96 151
62 97 154
62 98 154
62 98 162
62 97 158
63 98 156
61 96 142
61 96 151
61 97 150
62 98 151
62 98 155
62 97 154
61 96 147
62 97 153
61 96 149
61 97 151
62 97 154
62 98 154
61 97 153
63 98 157
63 98 158
61 96 149
62 98 151
61 96 148
62 97 155
61 97 151
62 97 150
60 95 142
60 95 140
61 96 143
61 97 148
61 97 150
62 98 155
61 96 149
62 98 152
61 96 151
61 96 149
62 97 150
62 97 153
62 97 153
60 95 141
62 97 152
61 96 149
61 96 157
61 96 150
62 98 160
61 96 151
61 96 147
61 96 147
60 95 146
61 96 151
62 97 156
61 95 143
60 94 139
60 94 147
60 95 149
60 95 152
62 96 152
61 95 145
60 94 144
62 96 153
60 95 142
60 95 144
60 94 148
59 92 148
57 90 131
59 93 138
60 94 148
59 92 144
58 91 139
59 91 139
58 90 140
59 92 150
56 87 138
54 84 136
136 154 186
215 232 255
215 232 255
215 232 255
215 232 255
215 232 255
215 232 255
215 232 255
189 202 213
107 106 71
114 112 74
105 106 72
101 102 71
114 113 78
104 106 75
102 104 73
116 118 84
113 114 80
109 111 79
121 122 86
114 117 83
114 115 81
116 118 82
120 121 85
124 125 88
123 125 87
123 124 84
130 131 88
137 136 88
138 138 95
136 135 88
140 139 92
132 131 87
136 134 88
143 142 95
136 136 91
144 141 95
146 144 91
144 142 92
142 141 89
155 152 98
146 144 94
148 146 95
152 150 98
149 148 97
154 151 97
147 145 93
154 151 96
163 159 101
165 161 102
161 158 101
155 152 97
164 160 101
157 153 90
168 164 104
159 155 96
165 160 103
163 160 99
166 160 100
161 157 97
162 157 95
165 161 97
169 163 99
166 162 100
168 163 100
166 161 98
168 164 101
168 164 100
169 164 102
171 166 102
169 165 102
170 166 101
169 165 101
176 171 105
174 167 103
175 168 102
172 166 103
167 162 96
177 170 104
170 165 98
178 171 105
173 167 101
175 167 101
171 166 101
173 168 104
173 167 104
171 166 101
171 166 99
172 166 98
164 159 96
170 165 99
172 167 99
175 169 101
172 166 101
175 169 103
171 165 98
162 158 91
168 162 97
171 165 100
173 167 100
170 165 103
170 164 99
167 161 97
168 163 97
168 163 97
166 160 95
171 165 97
167 162 95
171 164 95
162 157 92
164 158 90
170 164 99
168 162 93
166 161 95
158 153 87
167 161 97
168 162 96
170 163 99
163 157 90
169 163 98
167 160 92
164 159 93
166 161 95
165 159 91
164 159 97
166 160 93
158 153 89
161 156 89
166 161 95
165 158 94
165 159 93
165 158 90
171 164 97
161 155 88
159 153 89
162 157 92
163 158 87
163 156 88
171 164 91
164 158 93
159 153 90
159 154 84
162 156 90
163 157 94
163 156 93
159 153 90
163 157 90
163 157 93
161 155 84
153 147 87
157 150 86
150 144 84
149 144 84
214 231 255
211 229 246
212 230 252
212 230 248
212 229 248
212 229 248
211 229 249
212 229 248
213 231 252
213 231 252
212 229 246
213 230 250
213 231 252
214 231 252
211 229 246
211 229 244
208 227 240
210 228 244
210 228 240
209 227 241
210 228 242
211 229 246
209 227 238
211 229 248
212 230 250
209 227 242
212 230 250
210 229 244
210 228 244
212 230 249
211 229 249
211 229 248
209 227 244
210 228 246
212 230 249
211 229 244
212 229 248
213 230 250
210 228 246
211 229 242
213 231 253
209 227 245
211 229 248
211 228 244
210 228 245
209 227 238
211 229 246
209 227 244
213 231 252
212 229 248
212 230 250
214 231 253
212 230 253
212 229 249
210 228 246
209 226 245
211 229 248
209 228 241
211 228 250
212 229 249
211 228 249
209 226 246
210 228 249
209 226 242
210 227 246
209 226 245
210 228 248
210 228 242
212 230 249
210 228 248
210 229 250
208 226 242
214 231 253
212 229 249
211 228 249
209 227 246
211 229 248
211 229 248
209 227 244
212 230 249
211 229 249
212 229 250
212 230 250
210 228 248
211 228 248
211 229 249
210 228 248
211 229 245
209 227 242
210 228 245
210 229 248
212 230 253
211 229 249
210 229 250
212 230 250
211 230 250
210 228 245
210 228 248
209 227 244
209 227 242
209 228 248
209 227 244
209 228 246
210 228 245
208 227 244
210 228 245
210 229 248
210 229 248
207 226 244
210 229 246
210 229 249
209 228 248
209 228 245
209 228 248
210 229 249
210 228 249
208 228 246
208 227 248
208 227 242
209 228 250
208 227 248
209 228 248
209 228 252
208 227 248
206 225 244
203 223 242
200 221 236
202 222 245
200 220 238
203 223 245
205 225 248
204 224 248
202 223 246
201 223 252
194 217 249
196 218 249
205 226 255
198 219 250
208 228 255
208 228 255
210 229 255
211 230 255
213 231 255
215 232 255
214 231 252
215 232 254
216 232 255
216 232 255
216 232 255
216 232 255
215 232 255
214 231 255
79 109 163
61 96 154
60 95 147
61 97 158
61 97 153
62 97 153
60 96 141
62 98 149
61 96 152
60 95 152
62 98 161
61 97 148
62 97 152
62 98 157
62 98 160
62 98 158
62 97 152
61 97 152
61 96 145
62 97 157
62 98 159
61 97 151
61 97 145
61 96 149
62 98 157
61 96 148
62 97 154
60 96 149
60 96 139
60 95 141
62 97 152
62 98 156
61 96 143
62 98 158
62 97 154
60 95 147
60 95 147
61 96 148
61 96 149
60 95 141
60 96 145
62 97 152
62 97 153
62 97 149
60 96 144
61 96 147
61 97 150
61 96 145
62 97 153
62 98 155
61 96 148
61 96 158
60 94 142
61 97 153
62 97 150
62 97 148
62 97 149
61 96 147
62 97 148
60 95 143
61 96 144
62 97 149
61 95 146
62 98 157
61 96 154
61 96 151
60 94 137
60 95 146
62 98 160
61 96 144
60 95 142
61 97 153
60 94 145
61 95 143
61 95 151
60 95 143
60 94 147
61 95 149
60 95 147
60 94 142
61 95 151
59 94 155
59 93 138
60 94 149
58 92 143
60 93 140
58 91 131
57 89 141
59 91 140
57 89 138
58 90 137
58 89 142
57 89 141
58 90 145
57 88 132
86 109 148
214 231 255
215 232 255
215 232 255
216 232 255
216 232 255
216 232 255
213 229 252
126 126 103
103 101 68
106 106 74
108 108 75
108 108 74
106 108 75
99 103 75
100 103 74
102 104 75
106 109 78
104 107 76
100 104 73
119 121 85
121 122 84
117 119 83
110 112 79
113 115 82
118 120 83
132 132 90
127 128 85
130 131 90
124 125 86
129 130 88
145 144 96
136 135 90
126 126 83
141 140 92
140 139 90
146 145 96
146 145 93
142 140 89
153 150 95
150 149 96
148 146 95
148 145 91
146 144 93
156 152 93
148 147 91
151 149 96
156 154 97
160 156 100
152 149 95
161 158 98
161 157 97
159 156 99
168 164 104
171 165 99
163 159 98
165 160 99
164 160 100
168 162 101
170 164 101
163 160 98
171 166 103
169 164 98
169 163 102
171 166 102
173 168 99
167 163 101
173 168 103
172 166 101
171 166 100
172 167 103
175 168 104
174 168 103
169 164 96
168 162 96
168 164 98
174 167 100
175 169 106
171 166 99
172 166 100
174 169 102
175 170 103
175 169 103
168 162 93
172 167 101
173 168 101
172 166 100
173 167 100
172 167 99
175 169 101
176 169 101
173 166 102
169 163 97
174 168 103
170 164 101
168 162 95
168 163 95
169 164 98
167 162 94
167 162 97
174 168 102
166 161 97
170 165 98
166 160 93
165 160 95
167 161 97
172 166 97
170 164 97
170 164 95
165 161 95
170 165 100
169 164 93
166 160 94
163 159 88
169 163 95
172 166 97
170 164 100
169 163 95
168 162 96
170 164 98
167 162 93
167 160 96
170 164 95
165 160 94
168 161 94
164 158 92
160 154 90
162 157 98
161 157 88
160 154 90
160 155 90
166 160 97
166 160 94
159 153 85
161 155 87
170 163 95
160 154 87
159 151 93
160 155 89
160 155 90
158 153 87
162 157 90
156 151 88
166 160 97
162 157 94
162 157 88
160 154 92
167 161 97
158 153 87
157 152 83
162 156 96
159 153 87
159 153 86
212 230 252
213 230 250
213 230 249
213 231 253
214 231 252
214 231 253
213 231 252
215 232 254
214 231 252
214 231 253
213 230 249
213 230 250
212 229 245
214 231 253
212 230 249
212 230 249
211 229 248
212 230 248
211 229 245
209 227 238
211 229 248
211 229 242
211 229 245
212 230 246
211 229 245
212 229 246
212 229 248
210 228 243
214 231 253
210 227 243
210 228 246
212 229 244
211 229 246
210 227 247
212 230 249
212 229 245
214 231 254
210 228 241
212 230 248
213 230 253
211 229 244
211 228 244
213 231 252
213 230 252
212 229 248
212 230 249
209 227 242
212 229 249
209 227 244
211 229 246
209 227 242
210 228 244
211 229 245
210 228 246
210 228 245
211 228 250
210 228 248
209 227 245
211 229 245
212 229 248
213 230 250
212 229 248
211 228 249
210 227 248
210 228 242
213 231 253
209 227 244
211 228 245
210 228 248
209 227 245
211 228 246
212 229 249
210 228 248
213 230 252
213 230 250
212 230 249
210 228 248
213 230 252
211 228 246
210 228 246
208 226 241
210 228 245
211 229 249
210 228 248
210 228 248
210 228 241
208 227 248
211 229 245
209 227 244
210 228 248
209 227 244
210 228 248
211 229 246
210 229 246
207 226 240
211 229 248
209 227 245
211 229 246
210 228 249
210 228 246
209 228 241
211 229 246
209 227 240
211 230 253
211 229 249
210 228 242
210 228 246
210 229 249
210 228 244
209 228 245
209 227 241
211 229 249
210 228 245
209 228 246
211 230 252
209 228 246
209 228 246
209 228 248
210 228 246
210 229 250
209 228 248
207 227 244
206 226 243
206 225 241
204 224 242
201 220 240
199 219 229
200 220 232
200 220 234
206 226 250
202 222 243
203 223 246
202 222 247
199 220 246
202 223 254
201 223 253
201 222 252
200 221 250
206 226 254
203 223 250
210 229 255
211 230 255
212 231 255
214 231 255
215 232 254
216 232 254
216 233 255
216 233 255
216 232 255
216 232 255
216 232 255
180 199 230
61 97 150
60 95 145
62 97 155
61 97 156
61 97 153
60 96 147
61 97 149
61 97 148
61 96 150
61 97 153
62 98 156
61 96 149
62 98 152
60 96 142
61 96 148
61 97 155
62 97 150
61 96 142
60 96 152
60 96 142
62 97 149
62 98 158
62 97 151
60 95 142
61 96 150
62 98 151
60 96 143
62 97 154
61 97 147
60 95 144
62 97 154
61 97 152
60 95 139
62 97 147
62 97 150
60 95 136
61 97 147
59 95 141
63 98 157
60 96 149
61 97 153
62 97 158
61 96 148
60 94 137
62 97 152
62 97 154
61 96 151
61 96 139
62 98 157
61 97 154
61 97 148
62 97 158
62 98 156
61 97 151
62 97 151
60 94 139
61 96 144
60 95 135
62 97 157
60 95 145
61 96 150
60 95 148
61 96 151
61 96 149
61 95 142
61 96 151
61 96 152
61 95 149
61 96 152
60 95 141
61 96 150
60 95 144
61 95 150
60 95 145
62 97 153
61 96 144
59 93 140
60 95 144
59 92 142
61 95 150
61 95 145
60 94 153
60 94 149
60 93 142
59 93 134
59 92 136
60 95 147
58 91 128
60 93 144
59 92 142
58 91 137
58 89 136
59 92 147
56 87 138
55 85 132
54 84 138
191 208 235
216 232 255
216 232 255
216 233 255
216 233 255
216 233 255
187 200 212
120 118 77
117 115 71
106 105 70
110 110 75
88 91 66
101 102 73
90 93 67
98 101 73
104 107 76
112 115 82
101 104 76
107 108 75
121 123 84
122 122 83
118 119 81
121 123 85
118 118 81
122 122 84
132 132 89
129 130 88
131 130 87
129 128 84
127 128 87
133 132 88
135 135 88
144 142 94
148 146 96
147 145 95
144 143 89
147 145 94
147 144 92
144 143 93
152 149 98
143 141 93
152 149 96
146 144 92
156 152 97
154 151 96
154 151 91
161 158 101
160 156 95
165 160 100
158 155 97
159 156 99
166 161 100
165 160 103
151 148 92
165 161 99
168 162 100
164 160 99
165 161 97
164 160 99
170 166 104
166 161 100
170 165 102
170 165 102
171 165 100
167 162 94
167 162 100
169 164 100
173 166 100
162 158 95
171 166 101
169 164 97
167 163 98
171 165 96
175 169 103
171 166 103
172 166 101
171 165 97
176 170 104
172 167 99
177 171 103
171 166 96
168 162 95
169 164 97
172 166 101
173 167 104
172 167 101
173 167 96
172 167 101
169 163 95
176 169 103
174 168 97
168 162 92
168 162 93
168 163 93
174 167 97
170 164 100
171 165 99
174 168 100
169 164 95
171 165 97
170 164 96
169 163 98
169 164 99
169 163 97
167 161 92
165 160 95
170 164 100
168 162 95
166 160 94
168 162 94
164 158 92
168 162 96
171 165 97
159 153 89
168 162 95
163 157 88
170 163 94
167 162 94
168 162 93
162 157 91
170 164 98
166 159 94
168 163 100
166 160 95
165 160 87
161 155 89
159 154 85
168 161 95
159 153 90
166 160 89
161 156 88
170 164 97
161 155 91
163 158 93
165 159 90
159 154 86
154 149 85
162 156 89
171 164 97
161 156 87
155 150 86
161 155 87
159 154 84
162 156 85
165 157 88
155 149 86
162 156 92
160 154 92
164 159 91
150 145 82
150 145 82
154 150 85
213 230 252
214 231 252
213 230 252
215 232 255
213 231 250
215 232 253
214 231 252
215 232 254
212 229 246
213 230 248
213 230 248
214 231 252
213 230 248
214 231 250
212 230 248
213 230 248
211 228 241
211 229 244
211 229 244
211 229 242
210 228 240
213 230 248
212 230 248
212 229 245
214 231 253
212 230 250
212 230 246
212 229 245
213 230 249
212 230 246
211 229 246
213 230 248
210 228 242
213 230 249
210 228 244
212 229 248
213 230 249
213 230 249
210 228 242
212 229 248
212 229 245
213 231 250
213 230 248
211 228 240
213 230 248
211 229 244
211 228 244
212 230 249
210 228 244
211 229 245
210 228 241
207 224 241
214 231 252
207 225 242
211 229 250
211 229 244
210 228 248
212 230 250
211 228 244
210 228 246
210 227 246
213 231 253
213 230 250
212 230 250
211 229 249
210 228 246
212 229 249
208 225 240
210 228 245
210 227 245
211 228 248
210 228 248
212 229 248
212 229 250
210 228 244
206 224 238
207 224 242
210 228 246
212 229 250
211 229 245
210 227 245
210 228 245
207 225 242
211 228 248
211 229 249
208 226 242
211 229 246
208 226 238
212 230 249
209 227 244
211 229 246
211 229 249
211 229 246
211 229 245
212 230 249
211 229 249
210 229 246
212 230 249
211 229 252
211 229 248
211 229 248
210 228 248
211 229 245
210 228 245
211 229 248
212 230 252
211 229 249
211 230 250
212 230 253
208 226 240
211 229 249
211 229 246
212 230 249
210 228 248
210 229 246
211 229 250
210 228 245
211 229 252
211 229 248
208 227 242
208 226 242
205 224 240
205 223 242
201 220 235
202 221 236
202 221 237
197 216 241
194 214 234
202 221 228
203 223 240
204 224 243
210 229 254
206 225 249
205 224 244
199 220 248
197 218 248
202 223 252
204 225 254
204 224 252
199 218 248
202 222 250
211 230 255
212 231 255
214 232 255
215 232 255
216 233 255
216 233 255
216 233 255
216 233 255
216 233 255
216 233 255
135 156 192
61 97 153
60 96 147
61 97 153
60 96 148
61 96 151
62 97 156
61 96 149
62 97 153
59 95 143
61 96 148
61 97 150
63 99 160
61 96 144
61 96 149
61 97 155
60 95 150
61 97 151
60 96 152
62 98 153
62 98 156
60 95 140
61 96 149
61 96 147
61 96 147
62 98 153
61 97 144
60 95 152
61 96 147
61 96 141
62 97 151
60 96 147
62 98 154
62 98 152
62 97 155
62 97 151
61 96 148
61 96 149
61 97 149
61 97 151
61 96 151
61 96 143
62 97 155
60 95 136
61 96 149
62 98 157
62 97 143
61 96 150
62 97 154
61 96 148
61 96 145
61 96 143
61 96 149
62 97 150
62 97 147
62 97 155
61 96 147
61 96 153
60 94 143
61 96 147
62 97 147
62 97 155
60 96 149
61 97 155
60 95 152
61 96 147
60 94 145
61 95 145
60 94 138
61 96 150
61 96 148
59 93 143
60 96 146
61 95 150
61 96 149
61 96 150
61 95 150
60 95 148
60 94 147
60 95 142
59 93 134
59 93 143
60 94 148
60 94 152
61 95 155
60 93 145
59 92 137
59 92 140
58 91 145
58 91 139
59 92 143
59 91 142
58 90 136
58 90 144
59 91 140
56 86 130
55 85 129
130 148 177
216 233 255
216 233 255
216 233 255
216 233 255
216 233 255
162 168 158
106 104 68
106 106 71
100 102 74
101 103 72
99 99 67
103 104 72
92 94 67
98 101 72
97 100 73
110 112 78
111 113 80
116 117 82
110 113 79
119 120 84
113 114 79
116 118 81
118 119 80
123 124 83
121 122 83
123 124 86
123 124 84
131 131 91
141 140 92
131 132 91
130 130 85
139 138 90
138 137 91
129 130 85
140 138 90
142 141 91
152 149 94
151 149 95
141 140 89
145 142 87
150 149 95
154 150 93
154 150 95
160 156 97
148 146 92
156 153 96
154 150 92
165 160 100
160 157 99
161 158 101
161 157 96
164 160 97
157 154 96
165 161 99
164 160 99
166 161 98
166 162 100
173 167 99
169 164 105
169 165 101
165 161 100
166 162 99
166 161 97
168 163 100
165 160 95
173 167 105
170 165 97
167 162 96
168 162 95
170 165 95
170 165 99
173 167 102
170 165 97
175 169 102
172 166 102
165 159 93
172 166 98
171 165 98
173 166 97
169 164 95
174 168 100
170 165 98
172 166 100
171 165 93
172 166 101
174 167 99
175 168 101
174 167 98
176 170 99
170 165 98
170 164 95
169 163 97
171 165 97
172 166 95
168 163 93
171 165 95
164 159 95
172 166 98
169 163 97
172 165 97
165 160 94
174 167 96
167 161 92
169 163 93
170 163 95
169 162 95
169 163 95
169 162 90
167 161 98
170 164 93
169 164 96
166 160 89
174 168 97
166 161 95
163 157 92
167 160 90
171 164 99
169 163 96
170 164 97
162 155 87
161 155 92
166 159 93
166 160 87
168 162 93
165 159 92
168 161 88
169 162 94
158 153 91
157 151 87
162 157 82
164 159 92
163 157 88
162 156 90
165 159 93
159 154 93
158 152 89
164 158 91
160 155 87
163 156 90
164 158 88
167 160 93
167 160 94
161 155 87
154 150 81
161 154 84
156 151 84
159 153 87
165 158 90
162 155 89
165 159 86
163 157 89
214 231 254
213 230 246
214 231 252
212 229 248
215 232 253
214 231 249
215 232 254
214 231 250
214 231 250
215 232 253
214 231 250
214 231 252
214 231 249
214 231 250
208 226 233
212 229 244
212 229 245
212 230 246
211 229 242
213 230 249
212 229 246
212 229 245
210 228 240
209 226 238
211 228 244
212 230 246
212 230 246
212 229 245
210 228 241
212 229 246
213 230 248
213 230 248
212 230 245
213 230 248
213 230 249
214 231 252
213 230 248
213 231 249
213 230 246
213 230 248
212 230 248
212 229 248
211 229 246
213 230 249
214 231 253
212 229 245
209 227 240
213 230 249
212 229 245
214 230 250
213 230 252
210 227 244
213 230 250
212 229 249
212 229 248
213 230 250
211 229 248
211 228 248
213 231 250
212 229 248
212 229 246
209 226 244
211 228 249
209 226 245
214 231 253
213 230 249
212 229 248
208 226 238
211 228 244
212 230 248
210 228 248
213 230 248
213 230 252
209 227 246
209 226 240
209 227 246
212 229 248
212 229 250
209 226 241
209 226 242
212 229 246
212 229 248
211 228 249
210 228 248
208 226 244
212 229 250
210 228 248
211 229 245
211 229 246
211 229 246
210 228 242
212 230 252
210 228 241
211 229 246
212 230 248
213 231 253
211 229 246
211 229 246
211 229 245
213 231 252
211 229 245
210 228 242
212 230 248
212 230 249
210 228 246
210 228 241
210 228 245
212 230 253
211 229 245
212 230 252
210 229 245
211 229 248
212 230 249
210 228 244
210 228 246
213 231 254
210 229 249
210 229 245
208 226 244
208 226 243
201 220 242
202 220 242
204 222 239
207 225 240
201 220 238
205 223 244
203 222 230
206 225 244
200 219 230
195 215 231
203 222 246
202 221 243
199 218 240
208 227 252
206 225 251
201 223 252
201 222 252
199 219 247
202 222 250
203 222 250
199 218 246
208 226 252
212 231 255
213 231 254
214 232 254
216 233 255
216 233 255
216 233 255
216 233 255
216 233 255
208 225 249
71 104 158
62 97 156
60 96 152
61 96 145
63 98 158
61 97 150
61 96 150
62 98 153
60 95 147
61 97 153
61 97 147
60 95 137
61 96 143
60 95 141
60 95 140
61 97 154
61 97 150
62 98 158
61 96 149
62 97 147
61 97 149
62 98 153
61 96 145
62 97 153
60 95 147
61 96 147
61 96 148
61 97 151
62 97 153
61 97 151
63 98 157
60 96 151
60 95 136
61 97 147
60 95 141
61 96 145
62 98 152
60 95 143
61 96 145
61 96 145
61 96 147
62 97 154
62 97 151
61 96 143
61 96 145
59 94 129
61 97 151
61 96 145
61 96 143
61 97 148
62 97 152
62 97 148
62 97 155
61 96 149
61 96 149
61 97 149
61 97 150
62 97 148
61 97 148
60 95 145
60 95 155
60 95 144
62 97 152
61 96 146
60 93 135
61 96 144
62 97 154
59 93 144
61 95 152
61 96 147
60 95 143
61 95 152
60 94 143
60 94 145
59 94 146
60 94 144
60 95 146
60 95 148
59 93 135
61 96 147
61 96 143
60 94 145
58 91 135
59 93 142
61 95 145
58 90 134
59 94 142
58 91 137
60 93 149
59 92 137
56 89 135
58 89 127
58 90 136
56 88 132
54 84 120
55 86 132
55 85 127
68 92 129
210 227 250
216 233 255
216 233 255
216 233 255
210 225 245
116 114 74
109 107 68
103 103 70
101 102 72
99 101 70
78 80 58
93 97 71
92 95 66
104 106 74
102 106 75
110 110 76
106 108 77
110 112 79
115 117 82
111 113 80
109 112 80
117 119 82
118 119 82
130 129 87
125 125 86
124 126 82
126 127 87
135 134 88
134 133 87
130 129 85
139 138 87
136 135 87
147 144 93
146 145 94
136 135 86
140 138 88
147 145 94
150 148 93
151 149 91
148 145 94
146 145 89
152 149 93
151 148 95
148 146 89
151 148 93
158 155 94
160 156 98
161 156 91
160 156 97
161 157 99
162 157 97
163 159 97
153 151 93
162 159 96
165 161 99
160 155 95
167 162 96
165 160 98
168 163 97
171 166 103
169 165 100
169 164 97
164 160 97
170 165 102
164 160 92
174 167 99
172 167 104
166 162 94
170 164 97
168 163 96
169 164 99
174 168 102
165 161 88
174 168 100
171 165 99
172 166 97
168 163 95
170 165 97
172 166 96
171 166 100
171 165 97
173 167 97
171 165 95
171 165 94
174 167 95
169 164 98
172 166 97
171 165 99
169 163 90
167 161 92
173 167 98
172 166 95
175 169 102
171 165 91
168 163 93
169 164 94
171 165 99
170 165 97
170 165 93
172 165 101
170 165 95
169 163 94
167 162 91
170 164 94
169 163 95
171 164 96
170 164 94
164 160 89
169 164 96
169 163 95
169 163 95
166 160 92
162 156 88
163 157 89
174 166 99
167 161 93
165 160 89
165 158 88
163 157 97
163 157 93
161 155 90
164 159 87
169 164 98
168 162 90
165 159 91
164 158 90
168 162 91
164 157 87
168 161 91
165 158 94
166 160 90
158 153 90
171 164 98
169 162 96
164 158 87
163 157 89
165 158 93
160 155 84
166 159 94
155 149 80
161 155 88
169 164 96
157 152 84
157 152 83
165 158 95
168 162 91
163 157 93
154 149 80
151 145 84
161 155 89
161 155 90
214 231 254
214 231 252
212 230 247
214 231 250
213 230 245
214 231 250
214 231 250
215 232 253
214 231 252
213 230 249
214 231 249
213 230 248
216 232 253
212 229 242
213 230 248
212 229 242
212 230 246
210 227 244
211 228 240
211 229 244
210 227 234
213 230 246
211 229 241
213 230 248
211 228 242
212 229 242
215 232 252
211 228 242
212 229 244
211 228 244
213 230 249
211 228 242
212 229 241
211 228 246
212 230 245
213 230 246
214 231 248
212 229 245
212 229 245
215 232 253
212 229 245
212 229 244
215 232 252
213 230 244
213 230 250
212 229 246
212 229 244
210 227 241
212 229 245
212 229 249
213 230 248
212 230 245
213 230 249
213 230 244
214 231 250
209 226 246
213 230 249
211 227 249
211 228 249
211 228 250
213 230 248
210 227 245
211 228 248
210 227 246
211 228 246
211 228 246
212 229 248
211 228 246
213 231 249
213 230 250
208 225 241
208 225 240
211 229 244
213 230 250
211 228 245
212 229 248
209 226 246
211 228 244
211 228 245
213 230 252
214 231 253
213 230 249
212 229 250
212 229 246
212 229 246
209 226 242
212 229 248
210 228 248
212 230 245
210 228 240
211 229 245
211 229 242
214 231 250
211 228 244
210 228 242
212 229 248
211 228 245
212 230 246
212 230 248
210 228 244
212 230 246
213 230 250
209 228 242
212 230 245
214 231 254
212 229 250
211 229 245
212 229 248
211 229 245
210 228 246
211 229 248
212 230 248
210 228 242
213 231 253
211 229 249
212 230 252
212 230 249
210 227 245
207 225 244
211 228 252
206 224 246
201 219 241
200 218 236
200 219 243
203 222 238
201 220 242
198 217 233
202 221 236
206 224 242
202 220 237
200 219 237
207 225 246
200 219 235
205 224 248
204 223 249
201 222 248
202 222 250
199 220 247
202 222 250
192 212 242
200 219 246
195 214 244
207 225 252
214 231 255
215 232 255
216 232 254
217 233 255
217 233 255
217 233 255
217 233 255
177 195 224
60 96 145
61 96 148
61 97 159
61 96 144
60 96 145
61 97 148
62 97 154
62 97 145
60 96 141
60 95 142
60 96 145
60 95 144
62 97 149
62 98 155
61 96 144
61 96 145
61 96 141
61 96 148
61 96 149
61 97 150
61 97 151
61 97 150
61 96 148
62 97 149
61 96 144
62 97 156
61 96 151
62 97 151
61 97 151
62 98 152
62 97 153
60 96 144
61 97 153
60 95 136
60 95 141
62 97 150
60 95 136
62 97 152
60 96 147
62 98 153
61 97 153
61 97 150
61 96 154
60 95 143
61 96 147
60 95 136
61 97 152
60 94 137
62 97 153
61 96 142
62 97 151
62 97 153
62 98 155
62 98 156
60 96 143
62 97 147
62 98 157
59 94 137
60 96 147
62 97 151
61 96 144
60 95 131
60 95 140
61 95 137
61 96 148
60 95 141
60 95 145
61 96 149
62 97 151
60 95 141
60 94 144
60 95 142
59 92 134
59 93 139
60 94 147
60 93 144
60 94 145
59 94 136
61 95 141
60 94 140
60 94 145
60 94 140
60 94 144
60 93 139
59 91 135
59 93 142
60 93 139
60 94 147
58 91 129
57 89 137
58 90 136
60 95 155
56 88 129
56 88 129
54 84 125
56 87 136
56 86 132
53 80 115
182 198 221
217 233 255
217 233 255
217 233 255
171 180 184
112 111 73
102 101 68
106 107 75
93 94 66
91 95 70
87 90 64
87 89 63
103 105 74
92 95 68
103 105 74
97 101 72
103 107 77
102 104 73
105 107 76
113 115 83
102 104 70
105 107 73
113 115 77
123 123 83
113 114 77
129 130 88
117 119 82
119 120 78
132 130 82
127 128 85
125 127 84
144 143 93
139 137 87
133 133 83
135 134 89
142 140 90
144 143 89
151 148 93
161 157 99
147 146 93
156 152 96
157 153 93
156 153 96
157 153 93
156 152 91
151 148 91
162 158 96
162 158 97
163 159 99
162 157 96
157 153 92
167 162 99
161 156 94
161 158 98
164 158 94
161 158 93
170 164 103
168 164 98
166 161 96
168 162 96
171 166 101
168 164 98
170 165 96
166 161 97
173 168 100
169 163 98
172 167 100
168 163 96
168 162 96
170 164 95
170 164 95
172 167 98
173 166 97
168 163 91
167 162 98
172 166 97
172 165 98
175 169 101
172 166 96
174 167 99
173 167 99
167 163 88
171 165 97
170 163 93
173 167 96
171 166 97
169 164 96
174 168 97
170 164 96
175 168 97
171 165 93
171 165 94
173 167 96
170 164 97
172 164 99
172 167 101
170 164 93
170 164 95
172 165 95
172 166 95
171 164 93
169 163 94
169 162 90
169 163 97
165 159 93
170 163 94
171 165 96
173 166 97
173 166 97
162 157 89
165 159 87
160 155 89
168 161 93
168 161 93
165 159 94
165 160 94
161 156 89
163 157 87
170 163 94
168 162 95
166 160 90
167 161 92
169 163 96
161 155 86
167 162 90
168 163 93
161 156 90
162 156 90
163 157 88
162 156 87
164 157 87
164 158 90
168 160 90
167 162 93
161 155 87
158 153 91
158 151 87
161 156 89
154 149 79
164 158 90
160 154 88
153 147 81
158 153 90
164 157 90
166 160 93
158 153 84
162 158 89
162 155 87
159 154 85
148 143 80
154 148 84
215 232 250
216 232 253
214 231 249
215 232 253
215 232 252
216 232 255
216 233 255
216 232 253
216 232 255
215 232 253
214 231 249
215 232 253
215 231 252
212 230 242
214 231 249
211 228 241
211 229 240
213 230 246
212 229 246
213 230 246
215 232 252
214 230 246
212 229 245
215 231 250
216 232 254
211 229 241
213 230 250
213 230 249
215 232 252
212 229 245
214 231 250
212 229 242
214 230 250
212 229 245
213 230 245
214 231 246
215 232 252
215 232 253
213 229 249
209 226 237
213 230 245
214 231 248
214 231 249
214 231 248
212 229 248
213 230 248
212 229 246
214 231 252
213 230 249
206 223 241
210 227 242
210 227 245
214 231 252
212 229 245
213 230 250
213 230 250
212 229 246
209 226 244
213 230 250
211 228 248
210 227 248
210 226 245
211 228 244
214 231 252
210 227 244
214 230 252
214 230 252
213 229 249
211 228 245
210 227 246
211 228 246
214 231 248
212 229 246
212 229 248
211 228 248
207 225 240
213 230 249
212 229 246
209 226 246
212 228 248
210 227 240
211 229 248
211 228 246
214 231 253
211 228 244
214 231 249
214 231 250
212 229 248
212 229 249
209 226 240
213 230 252
212 229 246
213 231 250
212 229 248
212 229 246
213 230 250
213 230 246
214 231 252
212 229 246
214 231 249
212 230 248
212 230 249
211 229 244
211 229 242
213 230 250
213 230 248
213 230 249
214 231 250
212 230 248
211 229 244
211 228 245
211 229 244
214 231 253
212 229 246
211 229 246
212 230 246
208 226 244
211 229 246
210 228 251
207 225 238
204 221 242
197 215 235
202 221 236
204 222 233
198 217 231
205 223 246
207 225 246
203 221 242
205 223 238
203 222 236
193 212 230
200 218 241
198 216 235
202 221 243
203 222 242
201 220 246
202 223 252
203 223 250
202 221 249
206 226 252
203 222 250
207 226 251
201 219 245
212 229 254
215 232 254
216 233 255
217 233 254
217 233 255
217 233 255
217 233 255
152 172 206
61 96 149
60 95 146
60 96 149
62 97 160
62 97 154
60 94 136
62 97 149
61 96 153
61 96 152
60 96 148
60 96 143
60 95 147
61 97 147
60 95 140
62 98 156
62 97 148
61 96 147
60 96 149
61 96 149
62 97 150
61 97 143
60 96 143
60 95 143
61 97 147
62 97 153
60 95 140
60 95 141
60 95 135
62 97 153
60 95 135
62 97 152
60 96 140
61 96 145
61 96 143
62 98 155
60 95 140
60 95 143
61 96 154
61 97 151
61 97 151
63 98 156
60 95 139
60 95 136
61 97 147
61 97 152
61 96 141
61 96 147
61 96 143
61 97 152
60 95 141
60 95 142
61 95 145
61 97 149
61 96 143
59 95 135
61 96 146
62 98 155
61 96 142
61 96 149
61 96 149
60 95 145
61 96 148
60 95 144
61 95 144
61 96 150
61 95 146
61 97 150
61 96 147
60 95 147
61 97 150
60 95 142
61 96 141
60 95 143
61 95 138
61 95 138
61 96 149
59 93 136
60 95 143
59 93 137
61 95 143
59 94 143
60 95 148
60 95 142
59 93 133
59 93 134
60 95 137
59 93 139
58 92 139
58 91 136
60 93 148
56 88 129
58 90 133
58 91 135
58 91 142
56 87 130
55 86 124
55 86 129
53 82 118
138 155 182
217 233 255
217 233 255
217 233 255
112 114 89
101 99 66
100 99 65
94 95 65
101 103 71
101 103 71
93 96 67
91 96 69
80 85 62
101 103 71
97 100 72
104 107 75
103 106 76
92 95 67
100 102 73
102 104 73
109 111 78
112 114 77
108 111 76
112 113 77
121 123 84
123 123 83
126 127 85
131 131 86
140 139 91
139 139 91
138 137 89
135 134 86
137 137 89
141 139 90
142 142 90
134 133 86
140 138 87
136 135 84
151 148 94
154 151 97
148 145 93
143 141 87
153 150 94
156 152 93
157 153 95
153 149 89
162 157 101
159 155 92
157 153 94
167 162 103
165 161 100
164 158 95
165 161 93
164 160 97
159 155 89
165 161 97
168 163 98
164 158 93
164 161 95
170 164 98
167 163 100
165 162 95
173 167 104
169 164 99
172 166 94
172 166 102
165 160 92
169 163 97
168 164 99
169 164 98
171 165 97
174 168 97
175 169 102
169 163 93
175 169 103
173 167 102
179 171 102
174 168 98
166 160 94
173 167 96
172 166 94
173 166 96
171 166 97
172 167 99
176 168 99
170 164 95
177 170 101
171 166 95
173 167 99
170 165 98
173 167 97
172 166 97
172 165 97
171 164 97
174 167 95
172 166 95
172 166 97
170 164 93
168 162 99
165 160 93
166 161 90
169 163 91
173 168 99
170 164 97
171 165 97
164 159 90
163 158 90
166 160 93
167 160 94
169 162 90
163 156 87
164 158 93
168 161 93
170 163 95
167 161 92
166 160 87
172 165 95
161 157 86
170 163 92
167 161 95
168 162 88
164 158 91
168 161 90
169 163 88
165 158 91
161 155 87
161 155 88
170 163 95
169 163 95
161 155 87
159 153 85
158 152 87
166 160 94
163 157 90
166 160 92
158 153 87
160 154 87
162 157 85
155 150 84
164 158 93
165 159 89
159 153 87
162 155 91
158 152 84
163 156 87
158 152 84
151 146 81
160 152 83
152 146 82
157 151 84
150 144 81
215 232 252
215 231 252
216 233 254
215 231 249
215 232 252
217 233 255
216 232 252
216 232 252
216 233 254
214 231 248
215 231 249
213 230 249
214 231 248
214 231 250
213 230 245
213 230 247
213 230 245
213 230 245
212 229 242
214 230 249
212 229 244
213 230 246
214 231 250
213 230 246
215 231 250
210 228 242
213 230 246
213 230 248
212 229 244
211 229 240
214 231 250
213 230 246
213 230 244
214 231 249
214 231 248
216 232 252
213 230 246
214 230 246
212 229 242
213 230 248
214 231 248
214 230 245
214 230 252
214 231 248
216 232 253
212 229 245
212 229 244
214 230 248
212 228 245
212 229 246
212 228 248
212 228 244
211 227 244
214 231 249
214 231 252
206 222 240
214 230 250
213 229 249
213 229 248
213 229 250
214 231 250
211 227 248
214 231 253
208 225 245
214 231 250
208 224 241
214 231 253
209 225 245
209 226 246
213 229 249
214 231 252
211 229 249
208 225 245
213 229 250
213 230 246
213 231 252
213 230 249
212 229 246
212 229 246
214 231 250
211 227 242
212 229 246
212 229 249
211 228 245
214 231 252
212 229 248
213 230 249
210 228 238
213 230 246
214 231 249
211 229 244
209 226 236
212 229 248
214 231 250
212 230 244
214 231 252
213 230 244
211 229 245
213 230 246
214 231 250
213 230 248
214 231 252
213 230 248
211 228 245
211 229 242
213 230 249
214 231 250
213 231 250
214 231 250
212 229 246
212 229 245
215 232 254
212 230 245
210 229 244
211 229 244
208 226 240
211 228 245
210 227 246
209 227 245
204 222 240
202 220 241
206 223 240
202 219 234
207 225 241
201 219 236
199 217 233
203 221 242
207 225 245
198 216 233
208 226 241
202 221 246
203 221 240
205 223 246
204 222 243
202 220 239
209 228 247
181 201 229
206 226 254
206 225 252
203 222 249
204 223 250
204 223 249
201 219 246
201 219 244
214 231 255
216 233 255
217 233 254
217 233 255
217 233 255
216 232 255
94 120 165
61 96 149
61 96 148
61 96 151
61 96 142
61 96 141
61 96 144
61 96 144
61 96 143
62 97 152
61 96 150
59 95 139
62 97 152
61 96 144
61 96 141
61 96 153
61 96 144
62 97 153
62 97 150
62 97 152
60 96 143
62 97 149
62 98 159
62 97 149
60 95 148
61 96 147
59 95 141
62 97 152
61 97 147
60 95 145
60 96 145
60 95 147
60 95 140
61 96 150
60 96 145
61 96 154
63 98 158
61 96 145
61 96 144
60 95 142
61 97 148
61 96 148
62 97 151
60 95 141
61 97 144
61 96 151
60 95 139
61 96 142
60 94 136
61 95 141
59 94 134
61 96 147
60 95 147
61 96 149
61 96 148
61 96 146
61 97 152
61 96 150
61 96 147
61 97 147
60 95 148
62 98 155
60 95 146
60 94 137
61 96 147
60 94 141
61 96 150
60 95 140
60 95 142
60 94 140
62 97 154
62 98 160
60 94 140
61 95 144
59 93 129
61 96 146
60 94 140
60 95 152
59 94 142
59 92 134
57 90 127
61 95 151
61 95 147
60 94 145
60 94 144
59 93 139
60 94 149
57 89 134
59 93 142
58 90 129
58 90 136
59 92 140
57 89 136
58 90 133
56 88 128
56 85 128
56 86 130
54 83 122
54 83 124
74 95 131
217 233 255
217 233 255
199 213 230
104 102 64
113 111 72
85 86 60
95 95 64
91 92 61
84 87 61
85 87 62
92 96 70
84 88 65
93 96 66
103 106 74
95 100 73
92 96 68
99 102 73
100 103 71
102 104 73
117 118 79
114 116 79
113 115 80
114 116 79
115 116 79
128 126 79
123 122 82
136 135 88
124 125 86
131 132 86
128 129 82
144 143 91
137 135 86
143 140 87
144 142 88
136 136 86
156 153 95
138 136 87
154 151 91
144 142 88
153 149 92
154 150 92
154 151 96
151 148 95
157 154 93
155 151 90
158 154 97
157 154 92
154 150 88
159 155 93
165 160 95
163 158 97
159 155 93
156 152 91
162 159 95
165 160 97
166 162 99
166 161 93
170 165 96
167 163 96
167 162 96
164 159 90
172 166 97
164 159 98
170 164 95
167 162 95
168 162 95
167 163 96
169 162 91
168 163 99
173 167 100
171 165 93
173 167 99
171 166 99
168 164 94
171 166 96
173 167 99
173 167 98
175 169 102
172 166 97
167 161 92
175 168 99
171 165 96
169 164 97
169 164 96
171 164 90
168 162 94
170 164 93
168 163 93
172 165 94
170 164 91
170 164 95
173 167 93
171 165 96
170 165 91
173 167 100
170 163 94
172 166 97
174 168 100
170 164 93
171 164 92
171 165 94
172 166 97
173 166 96
175 168 95
170 164 96
170 164 93
172 166 95
171 166 93
166 160 91
168 161 88
164 158 90
166 161 89
166 160 90
166 160 92
166 160 90
169 162 93
167 160 92
166 161 90
166 159 87
168 162 95
165 159 90
168 162 93
169 162 93
166 160 89
165 158 85
165 159 92
164 159 87
167 161 90
162 156 86
166 160 93
161 156 87
165 159 86
160 154 84
161 155 92
165 158 86
163 156 86
158 152 87
165 158 93
162 155 83
165 159 90
161 155 85
153 148 81
167 161 93
148 143 79
163 157 87
159 154 87
155 149 84
153 147 79
165 159 90
157 151 87
214 231 248
217 233 254
217 233 255
215 231 249
214 231 248
216 233 254
216 232 252
217 233 255
215 231 252
215 232 249
216 232 252
216 232 250
216 232 250
216 232 252
213 230 242
214 231 245
212 229 242
216 232 252
212 229 244
211 228 240
212 229 242
212 229 244
215 231 250
213 230 244
213 230 242
215 231 249
216 232 250
214 231 246
213 230 245
216 232 252
213 229 247
214 231 250
212 229 243
212 229 242
214 231 246
214 230 245
214 231 250
215 232 250
213 230 244
215 232 250
214 230 245
214 231 249
214 230 249
214 231 249
212 229 246
212 228 244
213 230 246
214 231 250
211 228 241
210 226 242
212 228 245
214 231 250
215 232 250
211 228 246
216 233 254
213 230 252
212 228 246
212 228 248
210 226 246
213 229 249
212 228 249
213 229 250
212 228 249
207 223 240
215 232 249
208 224 242
210 226 245
212 228 249
214 231 249
212 228 246
211 227 248
213 230 249
214 230 252
211 228 246
212 228 246
210 226 240
214 231 250
212 229 245
209 226 244
215 231 249
214 231 252
212 229 246
212 228 246
213 230 246
210 227 241
212 229 249
214 230 248
213 230 246
213 230 245
214 231 249
215 232 253
212 229 246
214 231 250
212 229 245
214 231 249
213 230 248
213 230 246
213 230 244
214 231 249
212 229 245
213 230 248
214 232 253
210 228 240
212 230 245
213 230 249
211 229 245
212 230 245
212 230 245
213 230 248
211 228 240
215 232 252
214 231 249
214 231 252
213 231 249
215 232 253
209 227 246
206 224 242
210 227 246
204 221 235
201 219 232
205 222 240
204 222 241
207 225 242
205 222 238
205 223 236
202 220 245
204 222 244
206 224 243
205 222 238
200 219 235
205 222 240
203 221 239
203 222 241
208 226 246
205 223 246
198 216 241
149 170 207
176 196 229
206 225 252
203 222 250
205 223 250
206 224 250
198 216 243
204 222 247
202 219 243
216 233 255
217 233 255
218 234 255
218 233 255
199 215 240
60 95 151
60 95 147
60 96 149
60 95 141
61 97 150
61 96 149
59 93 141
60 95 141
62 97 156
61 96 149
62 97 150
59 93 143
60 95 137
61 97 147
60 95 134
61 96 143
61 96 147
60 95 134
61 96 139
60 95 149
61 97 150
60 96 142
60 95 140
61 96 144
60 95 144
61 96 142
61 96 147
61 96 151
62 97 149
61 96 143
60 95 141
60 94 141
60 95 140
61 96 147
60 95 142
60 95 145
61 96 147
61 96 147
61 96 148
61 96 141
62 97 152
60 95 143
60 95 135
61 96 145
61 96 143
61 95 143
61 96 145
61 96 146
61 97 149
60 95 139
60 95 145
61 96 143
60 95 144
61 96 140
61 95 148
60 95 136
60 96 144
59 94 134
60 94 139
61 96 148
60 94 141
61 96 147
61 96 148
61 96 147
60 95 135
62 97 152
61 95 146
60 95 141
59 93 139
60 96 149
60 94 138
60 95 143
59 93 139
60 95 143
59 94 144
61 96 148
61 96 154
60 93 139
61 96 153
61 95 140
60 94 142
60 94 140
58 93 141
59 93 141
59 93 140
60 94 146
57 89 129
59 91 133
58 92 134
58 90 133
57 90 134
58 91 135
57 88 136
57 89 144
57 89 135
54 84 118
56 87 133
56 87 129
54 82 126
51 77 112
207 222 244
218 234 255
164 172 171
93 92 56
93 93 63
78 79 54
78 81 57
96 98 70
78 81 57
72 75 53
91 93 65
87 90 64
87 92 67
90 93 68
98 101 72
97 100 70
99 102 71
98 101 72
96 100 71
107 109 74
102 105 73
113 115 80
117 118 82
115 116 75
122 123 78
125 125 84
144 142 93
134 134 90
125 124 82
133 131 84
136 136 84
144 141 91
149 146 94
145 143 88
139 138 86
152 149 95
145 144 92
149 146 92
149 147 91
148 146 93
156 152 90
159 155 94
150 147 87
156 152 88
155 151 89
151 149 91
162 158 95
156 153 92
158 154 93
165 159 94
159 154 91
162 157 93
161 157 95
162 157 96
163 158 93
165 161 92
166 161 97
166 161 95
168 162 97
167 161 96
168 163 96
166 161 97
165 160 94
166 161 93
168 163 96
169 164 100
173 166 95
169 163 97
174 168 99
170 165 94
168 162 96
173 167 94
171 165 94
173 167 97
171 165 97
168 163 93
173 168 97
173 166 99
171 165 95
173 167 98
172 165 91
173 166 99
173 167 95
169 163 92
171 165 90
171 165 95
170 164 95
175 168 95
171 165 94
171 165 95
171 165 92
175 169 97
169 162 91
173 166 97
169 163 93
172 166 95
164 159 90
169 164 95
174 166 95
169 162 92
167 161 88
166 160 90
169 163 93
167 161 93
171 166 94
169 162 90
171 165 90
169 163 90
170 164 91
167 160 89
166 161 90
169 163 91
167 161 88
171 163 94
169 162 91
166 159 85
165 159 83
168 162 95
166 160 91
170 164 90
166 161 89
163 158 84
166 159 93
162 156 85
171 165 92
162 156 90
163 158 92
159 154 83
168 162 94
164 159 91
159 153 87
161 156 90
161 154 87
166 160 93
170 162 93
167 160 93
157 151 80
160 155 87
158 152 84
166 160 88
155 149 87
164 158 90
162 156 87
165 158 93
161 154 88
163 156 85
155 148 80
151 146 80
155 149 82
157 151 84
216 232 253
216 232 252
217 233 253
216 232 252
215 232 249
217 233 252
217 233 254
217 233 254
216 233 252
215 231 250
217 233 253
217 233 252
215 232 249
216 232 250
215 232 249
213 230 241
212 229 241
215 231 246
214 231 246
210 228 236
212 229 242
214 230 245
214 230 248
212 229 242
214 230 246
213 230 244
212 229 240
214 230 246
216 232 254
212 229 240
213 230 242
215 232 249
213 230 244
215 231 246
213 230 244
214 231 245
213 229 241
215 232 249
215 231 248
213 229 244
215 231 249
214 231 246
214 230 248
217 233 253
213 230 245
214 230 244
214 230 248
215 231 252
210 227 242
209 226 242
210 226 241
214 230 249
213 229 248
212 229 246
212 229 248
209 224 245
206 222 240
212 228 249
202 218 237
214 230 250
209 225 246
212 228 249
212 228 250
215 231 252
209 225 244
211 227 248
212 227 249
213 229 250
210 226 246
213 230 249
212 228 249
211 227 244
211 227 245
210 226 241
209 226 245
213 230 246
214 230 250
216 232 252
212 228 244
212 229 246
213 229 248
210 227 241
214 231 246
215 231 250
211 228 242
214 231 248
212 229 244
214 231 249
214 231 250
212 229 244
213 230 248
215 231 250
215 232 250
214 231 249
213 229 245
214 231 250
215 232 253
211 228 244
213 230 245
214 231 248
213 230 246
214 231 249
213 229 248
215 231 250
213 230 249
213 230 246
214 231 249
214 231 249
214 231 248
215 232 252
212 229 242
214 231 246
215 232 253
212 229 247
210 227 244
208 226 244
209 227 244
209 226 242
205 222 239
201 219 234
207 224 244
205 223 241
206 223 240
207 224 238
206 224 238
204 222 238
203 221 235
207 225 239
206 224 233
205 223 244
203 221 234
202 220 234
202 220 235
208 225 247
204 221 241
203 221 239
182 200 230
79 110 166
181 200 230
205 223 249
204 223 248
203 221 248
203 220 246
206 223 248
201 219 245
215 232 255
217 233 255
218 234 255
218 234 255
174 192 219
61 96 147
60 95 142
59 94 139
60 95 144
61 96 145
62 97 148
60 96 148
59 94 140
61 96 147
60 96 144
60 95 137
59 94 139
61 96 149
60 95 143
61 97 151
60 95 135
61 96 140
62 97 151
61 96 144
61 96 137
60 94 141
61 96 149
61 96 142
61 96 147
61 96 142
62 97 152
62 97 149
60 95 143
61 96 147
62 97 149
61 96 148
60 95 140
61 96 145
61 96 148
61 96 142
60 94 140
60 95 137
60 95 139
61 97 149
61 97 144
62 97 151
59 94 134
61 96 145
61 96 140
60 95 148
61 96 137
62 97 151
61 96 140
59 94 141
62 97 152
61 96 142
60 95 149
61 96 147
61 96 137
61 97 149
61 95 136
60 96 150
61 96 144
60 95 144
60 95 141
60 94 133
61 95 148
61 96 143
60 94 140
61 96 147
60 95 131
61 96 147
61 95 143
59 93 135
60 95 145
61 95 141
60 95 136
60 94 139
59 94 140
60 95 144
59 93 136
60 94 145
60 95 139
60 94 144
58 92 134
60 94 145
59 93 137
60 93 147
60 94 141
61 95 146
60 94 138
60 95 147
57 89 130
59 91 130
60 92 136
58 90 137
57 88 131
59 91 138
58 91 143
58 90 131
57 88 136
55 86 132
54 84 118
53 82 114
52 79 114
172 187 212
218 234 255
147 152 147
98 98 65
99 98 64
75 78 55
77 80 58
76 78 54
80 83 60
93 95 64
83 88 66
75 80 59
85 89 63
83 86 61
97 100 71
91 95 68
100 104 73
98 102 70
108 110 73
106 109 74
118 119 78
112 114 79
123 123 78
118 118 77
127 126 77
122 123 79
134 134 83
127 127 85
135 134 88
141 140 91
141 138 86
129 129 81
139 138 88
128 127 76
138 137 86
142 140 88
150 147 89
148 146 89
146 143 87
153 149 91
149 147 91
147 145 88
154 151 96
153 149 88
151 148 89
163 158 95
156 151 89
162 157 96
160 156 89
157 154 86
163 159 94
159 155 90
167 161 99
160 156 94
165 160 94
161 155 94
163 159 93
168 163 98
170 163 94
165 161 94
166 161 94
166 161 94
165 160 90
169 164 95
173 167 98
164 160 93
172 166 94
171 165 99
171 165 93
173 167 96
169 164 91
167 163 96
171 165 92
170 165 94
168 163 94
179 171 103
169 164 92
171 165 94
174 168 97
169 164 94
172 166 96
173 167 98
169 163 94
169 164 89
172 166 96
175 168 93
173 166 99
167 162 88
169 163 92
173 166 97
171 165 91
172 166 96
170 164 91
171 166 96
172 165 93
167 161 87
170 164 89
169 163 87
167 162 92
167 161 89
172 165 93
169 163 86
170 163 93
171 165 93
168 163 91
168 162 88
170 162 91
168 162 87
170 162 87
166 161 87
170 164 95
167 161 89
166 160 89
165 159 87
169 163 93
167 161 96
165 159 84
165 159 83
171 164 95
166 160 87
167 162 93
166 160 91
167 160 93
165 157 90
166 159 88
168 161 88
166 160 90
164 158 90
170 163 94
162 157 92
164 158 88
167 161 88
167 161 89
167 160 87
160 153 84
161 155 84
160 154 85
160 154 89
160 154 83
166 160 91
163 156 87
160 154 84
165 159 83
166 159 89
155 150 82
167 160 88
155 149 84
153 149 84
163 156 87
160 153 83
217 233 254
216 232 252
217 233 255
217 232 254
217 232 253
217 233 254
217 233 254
218 233 254
217 233 253
218 233 255
215 231 246
215 232 248
216 232 250
217 233 252
218 233 254
214 231 245
215 231 246
211 228 236
215 231 250
213 230 241
213 229 245
216 232 252
211 228 240
214 230 247
214 230 244
213 230 246
214 230 250
214 231 244
213 230 246
213 229 242
214 231 244
213 229 244
213 230 241
214 231 248
215 231 248
215 231 250
214 231 245
215 231 246
214 231 245
213 229 241
215 231 249
215 231 246
216 232 252
214 230 244
214 230 245
211 228 238
215 232 249
216 232 252
215 231 250
213 229 248
213 228 249
215 231 250
209 225 244
212 228 248
214 230 250
215 231 253
214 230 249
209 225 244
214 230 249
214 230 252
209 224 245
212 228 250
214 230 252
205 221 241
212 228 250
208 224 244
213 229 250
211 227 248
211 227 248
211 226 246
212 228 248
211 227 245
213 229 249
215 231 250
210 226 241
214 231 250
214 231 249
216 232 252
214 230 249
212 228 246
212 228 246
211 228 244
213 230 245
213 230 246
212 228 244
212 229 242
213 230 245
215 231 250
213 230 246
215 232 250
216 233 253
215 231 248
212 229 245
215 232 250
215 232 250
215 231 248
214 231 246
214 231 249
216 232 252
214 231 246
213 230 244
213 230 244
213 230 248
214 230 246
215 232 252
214 231 248
213 230 242
213 230 244
211 228 240
214 231 248
214 231 248
215 231 249
214 231 250
212 229 245
211 228 241
209 225 243
207 224 234
207 224 234
209 226 243
204 221 240
207 225 238
207 224 240
205 222 238
206 223 237
201 219 231
206 224 239
210 227 241
201 219 236
205 222 238
206 223 243
200 218 237
199 216 238
209 227 246
205 222 238
208 225 246
201 219 242
204 222 243
112 136 178
112 137 185
201 219 247
205 223 249
206 223 248
200 218 244
202 219 244
201 218 244
208 225 249
217 233 255
218 234 255
218 234 255
150 169 198
59 93 141
61 96 149
60 95 140
59 94 142
60 95 149
60 95 144
60 95 143
61 97 151
61 96 148
61 96 148
61 96 156
60 95 139
61 96 148
61 96 143
61 96 143
60 95 144
60 95 142
60 95 143
60 95 137
60 95 139
61 96 140
60 94 135
61 96 147
61 96 141
59 93 133
60 95 140
61 96 150
61 96 151
60 96 143
60 95 144
61 97 144
60 95 136
61 96 148
60 96 143
60 95 140
61 96 143
61 96 145
60 96 147
61 95 144
60 95 137
61 96 142
60 94 129
61 96 144
61 97 149
60 95 142
60 95 139
61 95 143
60 95 136
61 96 147
60 95 142
61 97 144
61 96 151
60 95 143
61 96 147
60 94 133
62 97 152
61 96 135
61 96 149
61 97 156
61 96 152
60 94 134
61 95 136
60 95 134
60 95 145
60 95 141
60 95 141
61 95 144
60 95 135
58 92 129
60 95 142
60 95 145
59 94 140
60 93 141
60 94 136
61 96 150
60 94 142
58 92 130
61 95 142
60 94 148
59 92 137
59 92 135
60 94 135
59 92 138
58 92 139
58 92 131
59 93 137
59 92 149
59 93 133
58 90 145
57 90 129
58 92 141
58 90 138
57 89 136
60 92 138
56 88 132
58 89 132
56 86 125
53 82 118
55 85 126
52 79 119
149 165 187
212 227 246
99 99 68
95 96 64
84 86 56
74 77 54
88 88 59
73 76 53
70 75 57
69 73 53
67 74 55
75 80 58
73 79 60
72 77 55
82 86 58
80 86 63
95 98 69
112 114 78
108 111 76
99 103 71
107 111 75
108 109 71
107 109 71
117 116 71
126 126 81
132 132 84
135 134 87
137 136 86
128 127 78
134 134 85
135 134 85
144 141 90
141 138 85
124 124 76
151 149 94
150 146 91
143 142 87
150 147 91
150 147 89
142 140 86
146 144 86
148 145 84
144 141 86
154 151 87
160 157 93
155 151 93
156 153 93
160 155 93
159 155 84
156 152 89
156 153 94
155 152 87
157 153 86
163 158 94
163 159 94
165 160 95
164 159 91
162 158 87
166 162 93
166 161 89
168 162 97
163 159 89
166 160 93
171 166 90
171 165 100
165 160 90
167 162 93
171 165 97
171 165 96
167 162 95
170 164 91
172 166 97
169 164 96
171 164 93
173 167 93
173 167 96
174 167 100
169 164 91
173 167 100
172 166 93
169 163 93
172 166 95
173 167 95
173 166 94
167 161 92
169 163 89
175 168 97
171 165 93
172 165 93
170 164 93
172 166 92
170 165 86
168 163 90
175 167 94
171 165 93
172 166 99
171 164 94
170 164 93
171 164 97
173 166 93
168 163 85
167 162 90
168 161 92
170 165 92
166 160 95
165 159 90
172 165 93
171 164 94
165 160 89
169 163 95
171 164 97
168 162 90
169 164 90
168 162 88
170 162 93
165 159 90
166 160 88
165 160 90
163 157 84
162 156 86
171 165 93
164 157 87
170 163 94
164 159 87
162 157 86
163 156 89
169 163 94
167 160 88
165 158 84
162 156 88
160 153 84
165 158 87
169 161 94
161 155 87
170 163 94
163 157 86
164 157 89
163 157 87
163 158 90
160 154 88
163 157 87
162 156 84
163 157 86
158 152 81
152 145 78
164 158 87
157 151 84
152 148 80
157 151 85
154 148 80
217 233 253
218 234 254
218 233 253
218 234 254
218 233 254
218 234 255
217 233 250
217 233 252
216 232 252
217 232 253
217 233 254
217 233 252
218 234 255
216 232 248
217 233 252
216 232 248
214 230 245
214 231 245
212 229 242
213 229 238
215 231 246
217 233 252
213 230 241
215 232 248
215 231 245
214 230 242
214 230 244
215 231 245
213 230 242
211 227 242
214 231 244
215 232 248
216 232 248
213 230 241
213 229 241
216 232 249
215 232 248
214 231 248
216 232 250
214 230 246
215 231 246
217 233 252
215 231 245
215 231 249
214 230 241
216 232 248
218 233 253
213 229 245
212 229 244
215 231 249
213 229 243
209 225 244
215 232 251
211 227 245
210 226 243
216 232 253
213 229 247
214 230 250
204 220 240
208 224 244
213 229 249
212 228 248
210 226 247
212 228 248
216 232 253
209 225 246
216 232 254
214 230 252
210 226 248
213 229 250
209 224 244
211 227 246
210 226 242
210 226 245
209 225 240
215 231 250
215 231 250
211 227 244
211 228 242
216 232 249
213 229 244
214 230 245
215 231 246
214 231 246
213 229 242
216 232 253
214 231 246
214 231 246
213 230 248
216 232 252
213 229 244
213 230 244
214 231 248
216 232 250
214 230 246
214 231 246
217 233 254
215 232 250
214 231 246
214 231 246
214 230 245
213 230 244
215 232 249
214 231 248
216 232 250
215 231 249
215 231 248
215 231 248
216 233 253
213 230 245
215 231 249
214 231 246
208 225 240
206 223 240
209 225 245
213 230 248
206 223 233
213 229 249
208 224 245
203 220 236
201 218 238
207 224 236
211 227 244
210 226 248
209 226 241
211 228 244
209 226 244
210 226 248
209 226 242
202 220 234
202 219 238
206 223 239
202 219 242
209 226 245
205 222 244
207 224 244
208 225 244
150 170 199
70 103 163
172 191 221
211 229 254
211 229 253
205 222 247
201 218 242
201 218 242
202 218 242
217 233 254
218 234 255
218 234 255
115 137 168
59 94 138
60 95 144
60 95 144
60 95 134
61 96 143
61 96 144
59 94 135
60 96 143
60 95 143
61 96 143
60 95 133
60 95 141
60 95 137
60 95 142
60 95 142
60 95 143
62 97 145
59 94 137
60 96 144
62 97 152
60 95 143
60 95 140
62 97 151
62 97 151
61 96 140
62 97 154
62 97 148
60 95 140
61 96 139
62 97 151
62 97 147
61 96 139
62 97 152
59 93 131
60 95 143
61 96 144
61 96 136
61 96 148
59 93 135
60 94 131
61 96 144
61 96 139
61 96 141
61 96 143
61 96 142
61 96 143
60 94 136
61 96 151
59 94 136
60 95 142
61 96 144
60 94 144
61 96 144
61 96 152
60 95 140
61 96 151
61 96 145
60 95 139
60 95 134
61 96 143
58 92 134
61 96 146
61 96 141
60 95 140
61 96 141
59 93 133
59 94 143
60 95 134
58 92 127
60 94 136
60 94 141
60 95 146
57 91 130
59 93 132
59 93 139
59 94 134
60 93 142
60 94 146
58 92 133
60 94 140
59 92 134
60 94 145
58 92 134
60 93 141
60 95 139
58 90 133
61 94 146
60 94 139
59 93 146
59 92 142
58 90 137
60 94 147
58 90 135
56 87 134
55 85 121
55 86 125
56 87 127
56 86 123
52 80 116
51 78 115
113 129 146
205 218 234
100 98 59
85 85 56
80 81 55
75 77 53
69 72 51
79 82 58
77 80 55
68 72 51
72 76 55
85 89 62
87 91 63
92 97 69
80 86 61
87 92 62
91 95 67
99 102 72
111 114 79
104 107 75
109 112 75
99 102 66
113 114 74
122 123 74
121 122 77
115 117 78
119 118 79
132 132 79
132 131 84
127 127 75
137 135 85
141 139 85
128 128 79
139 137 85
141 139 87
148 146 88
147 145 87
145 144 84
139 138 80
151 148 88
142 140 80
155 152 90
156 152 91
155 151 89
157 154 91
157 153 86
154 151 87
161 156 94
156 152 88
158 154 91
164 160 95
161 156 91
159 156 91
163 158 90
158 154 84
167 161 96
162 158 92
167 162 90
169 163 98
166 161 94
169 163 94
167 162 89
171 166 100
167 162 92
164 159 91
164 160 91
170 164 92
173 167 94
166 161 90
170 164 91
172 166 95
170 164 90
167 162 91
167 162 90
166 161 91
167 162 91
169 164 95
171 165 96
171 165 92
174 168 91
169 162 91
173 167 96
168 162 89
173 167 96
174 167 95
171 165 95
172 166 93
170 165 97
170 164 91
168 162 89
169 163 88
169 163 92
172 166 92
170 164 95
163 157 87
173 166 93
172 166 90
172 165 87
166 159 86
167 161 86
171 164 90
168 162 91
176 168 100
171 164 95
170 162 93
167 161 86
168 162 86
168 162 90
172 165 92
166 161 84
165 159 89
167 161 95
163 157 85
169 163 91
168 161 86
164 158 87
166 160 88
166 160 91
164 158 85
164 158 90
161 155 80
162 156 85
167 161 90
165 158 85
160 154 83
162 157 86
156 151 83
162 155 87
169 162 90
158 152 80
164 158 83
153 147 81
157 151 80
165 159 90
168 162 88
163 156 87
167 160 91
158 152 86
160 154 86
166 159 92
163 157 89
161 156 89
163 156 87
156 151 80
156 150 84
163 157 90
162 156 84
164 156 89
163 156 87
155 150 82
218 234 254
218 234 255
217 233 254
218 234 254
217 233 252
217 233 255
217 233 250
218 234 254
218 233 253
218 234 254
219 234 255
218 234 254
217 233 250
217 233 252
217 233 252
217 232 252
219 234 255
215 231 246
217 233 252
215 231 245
216 231 248
214 230 245
214 231 242
216 232 250
215 231 244
212 228 238
216 232 249
215 231 246
215 231 244
216 232 249
217 233 250
214 230 241
215 231 244
217 232 249
216 231 248
216 232 248
217 233 252
215 231 244
215 230 244
216 232 246
216 232 248
214 231 244
214 230 244
215 231 244
215 231 246
216 231 248
215 231 245
213 229 245
215 230 248
212 228 242
215 231 250
213 229 246
211 227 246
215 231 250
212 228 247
211 227 248
215 231 252
206 222 244
213 229 250
211 226 246
211 227 247
216 232 254
215 231 253
213 229 250
214 230 252
212 228 248
214 230 250
211 227 247
206 221 242
216 231 253
207 223 242
210 226 244
215 231 249
214 230 249
216 232 250
214 230 246
216 232 250
214 230 248
215 231 249
217 233 253
214 230 241
215 231 246
215 231 249
215 232 248
216 232 249
214 230 246
216 232 249
215 231 245
213 230 242
214 230 245
215 231 249
214 231 248
214 231 245
215 231 246
214 230 249
215 231 246
215 231 248
217 233 252
214 230 248
215 232 248
215 231 246
217 233 253
217 233 254
215 232 249
214 230 242
216 232 249
215 232 250
215 231 248
214 230 246
215 231 248
217 233 252
214 231 248
208 224 235
209 226 241
208 225 238
215 231 248
206 223 230
211 227 242
207 223 242
212 228 245
206 223 236
209 225 242
208 225 243
201 218 233
203 220 242
204 221 236
203 220 237
206 223 236
205 222 238
198 215 229
206 223 237
210 227 244
207 223 241
210 227 247
210 227 250
207 223 247
202 219 241
185 203 229
68 101 156
79 109 152
208 225 250
207 224 248
203 221 246
205 222 247
202 219 245
197 214 239
213 229 252
218 234 255
219 234 255
79 108 150
61 96 145
60 95 144
60 95 147
61 96 147
60 95 147
58 93 129
61 96 151
60 95 142
62 97 149
60 95 136
61 96 150
61 97 150
62 97 142
60 95 135
60 95 131
61 96 147
60 95 141
60 95 139
60 95 134
60 96 140
60 96 145
62 97 150
62 97 150
61 96 145
61 96 147
61 96 141
60 95 140
60 95 141
60 95 137
60 95 141
61 97 143
59 93 126
61 96 140
60 95 140
61 96 145
60 95 142
60 95 137
60 95 139
60 95 144
61 96 142
61 95 148
61 95 136
59 94 137
59 94 137
62 96 152
62 97 149
60 95 143
60 95 142
61 96 141
62 97 150
60 95 131
60 95 140
61 96 143
60 95 139
61 96 147
61 96 145
60 94 136
61 97 148
60 95 142
60 94 139
61 97 147
61 96 148
60 94 130
60 95 141
60 94 136
59 94 130
59 94 131
60 94 139
60 95 141
60 95 131
61 95 148
60 95 141
61 96 148
60 95 135
60 94 134
60 95 147
60 95 145
59 93 138
59 93 136
60 93 144
60 95 138
60 94 146
60 94 140
57 90 129
58 91 132
58 92 138
57 89 128
59 92 130
60 94 138
59 93 143
59 91 129
58 91 141
59 92 140
57 88 128
58 90 135
55 85 125
54 84 116
54 84 128
53 82 123
53 81 116
72 89 103
172 181 182
101 99 62
80 80 55
68 69 49
69 72 48
74 76 53
62 66 47
76 79 56
67 72 54
75 80 56
61 68 52
74 80 60
94 97 66
82 88 64
87 91 64
97 100 68
93 96 66
86 90 59
92 95 63
112 113 73
112 113 73
108 109 71
115 114 74
109 111 73
121 122 76
123 122 76
129 127 76
121 121 75
121 122 78
132 131 79
130 131 81
130 130 81
141 140 89
141 140 88
140 138 80
145 142 84
145 143 81
148 144 85
149 147 85
152 148 92
152 150 87
146 143 85
155 151 89
144 143 87
156 152 93
155 152 85
156 152 88
159 155 90
159 155 87
163 158 89
164 159 92
163 157 93
160 156 89
164 159 92
162 157 93
162 158 87
162 158 93
166 161 85
163 158 89
167 162 98
164 159 86
164 159 90
167 162 94
167 161 94
172 166 96
172 166 89
169 163 94
167 162 90
172 166 94
169 163 90
172 166 95
171 165 94
171 165 95
172 166 95
169 162 93
170 164 92
168 163 96
173 167 95
168 163 87
172 165 94
172 166 93
168 164 95
172 166 92
171 165 88
175 169 99
174 167 90
170 165 92
169 163 86
172 165 93
172 166 91
175 168 93
172 166 94
169 163 85
170 164 93
176 169 98
171 164 88
170 164 90
171 163 93
173 167 93
169 163 90
168 163 86
168 162 93
169 163 90
176 168 98
168 162 87
166 160 88
169 162 87
166 159 84
165 159 86
167 161 91
167 162 84
167 160 90
167 161 91
168 161 87
165 159 88
163 158 87
167 161 91
160 154 84
164 158 82
159 155 84
170 163 90
166 160 90
168 162 96
164 157 86
168 161 86
169 163 87
165 159 86
161 154 82
166 160 88
163 157 82
170 163 89
164 159 89
171 164 89
150 145 74
162 156 90
161 154 84
166 159 85
168 161 90
159 153 83
159 153 84
157 152 76
165 159 92
163 157 87
157 151 82
162 156 83
156 149 84
155 149 81
164 157 87
150 144 79
219 234 255
218 234 254
219 234 255
218 234 254
219 234 255
219 234 254
219 234 255
217 233 252
218 233 255
219 234 255
218 233 254
218 233 254
219 234 254
218 234 253
217 233 252
216 232 250
218 234 253
218 234 253
219 234 255
217 233 250
215 231 244
217 232 249
216 232 250
214 230 240
216 232 248
214 230 242
217 233 252
215 231 245
216 232 246
214 230 241
215 231 248
216 232 250
215 231 244
216 232 245
217 233 252
216 232 246
213 229 238
215 231 245
217 232 249
216 232 246
216 232 246
214 230 245
215 231 245
217 233 252
215 231 244
216 231 245
217 232 249
215 231 245
215 231 245
215 231 248
214 229 249
214 230 247
214 230 248
212 227 248
209 225 246
214 230 250
209 225 244
216 231 253
213 229 250
212 228 250
210 226 246
211 227 247
215 231 253
210 226 246
209 225 245
210 226 246
211 227 248
214 230 251
211 227 247
214 230 250
213 229 250
214 230 250
214 229 250
212 228 245
215 230 248
214 230 245
215 231 246
212 228 242
216 232 250
210 226 240
214 230 244
213 230 242
214 230 245
218 233 253
214 230 242
217 232 250
213 229 244
217 232 249
215 231 246
211 228 238
217 232 250
215 232 248
214 230 245
214 230 242
216 232 248
215 231 245
216 232 248
216 232 249
215 232 246
216 232 250
214 230 242
215 231 246
217 233 252
213 230 244
215 231 245
215 231 245
216 232 249
216 232 248
216 232 251
215 231 246
217 233 254
214 230 246
210 226 241
209 225 241
213 229 242
210 226 236
211 227 238
208 225 238
212 228 244
208 224 239
207 224 236
211 228 245
207 223 239
203 220 230
210 227 240
207 224 239
209 226 242
209 225 242
209 226 243
211 227 242
207 224 241
207 224 242
212 229 246
210 226 246
209 225 249
210 226 248
206 222 243
204 221 244
75 105 144
73 104 156
163 182 212
206 224 248
212 229 252
210 226 249
204 220 244
203 219 242
205 221 244
219 234 255
212 227 250
61 96 149
60 95 147
60 95 135
61 96 147
60 95 141
60 95 135
60 94 140
61 96 151
60 95 145
59 94 137
60 95 140
61 96 145
61 97 149
60 95 137
60 95 148
61 96 147
60 95 136
61 96 144
61 97 145
58 93 129
60 95 139
61 96 140
60 95 140
61 96 153
59 94 133
59 94 130
60 95 133
58 93 129
59 93 141
59 94 133
60 95 140
61 95 140
61 97 144
60 95 141
60 95 140
62 97 144
61 95 143
61 96 143
59 94 134
61 97 144
60 95 134
60 96 144
61 97 152
61 96 150
62 97 152
60 94 129
59 94 143
61 97 148
60 94 133
60 94 137
60 95 138
61 95 141
61 95 142
59 93 134
60 94 134
60 95 136
61 96 144
60 95 142
61 96 141
62 97 149
60 93 139
60 95 142
60 95 140
59 94 132
59 93 140
59 93 134
59 93 134
60 94 142
60 95 149
60 94 142
58 92 122
58 93 135
60 95 135
59 94 132
60 95 145
60 93 140
61 95 142
60 95 147
59 93 140
59 93 138
60 94 147
59 92 131
60 93 134
60 93 140
59 93 131
57 89 123
60 93 139
60 93 145
59 92 133
58 90 129
58 90 126
58 90 131
57 89 134
59 92 139
56 88 125
56 88 126
57 89 134
55 85 129
55 86 125
52 80 121
51 80 122
49 74 110
143 150 151
80 79 49
70 70 44
79 79 53
61 65 47
63 67 49
66 69 47
60 66 50
68 72 49
63 68 48
78 82 58
62 68 50
74 80 59
77 81 55
79 85 59
88 91 63
88 91 60
101 103 69
90 93 63
96 101 67
108 110 72
109 111 70
116 117 73
124 123 75
108 109 71
123 124 80
126 127 78
124 124 77
128 128 81
136 134 80
129 127 77
134 132 76
144 142 85
129 128 77
138 137 79
138 136 81
139 137 82
148 145 86
140 138 83
146 144 85
144 142 82
149 146 88
153 149 85
157 154 91
154 149 84
155 152 85
156 152 88
149 146 89
168 163 97
165 159 90
163 158 85
159 155 88
160 156 91
157 153 91
168 162 98
167 162 94
166 159 88
167 161 93
168 162 90
163 158 90
165 160 91
166 161 90
168 162 95
167 162 92
171 165 95
172 166 93
174 167 94
170 164 97
169 164 93
168 162 94
167 162 86
169 163 94
174 167 95
167 162 85
166 161 84
168 162 90
171 165 96
173 167 91
170 163 87
170 164 91
175 168 99
171 165 92
172 165 93
171 164 94
171 164 89
169 162 84
169 163 90
166 161 86
169 163 88
168 162 88
168 162 92
174 167 93
173 166 94
173 166 92
171 164 90
174 167 99
172 165 93
171 164 95
170 164 89
170 164 90
171 165 94
172 165 93
166 160 86
169 163 90
173 166 93
162 157 85
166 160 87
168 163 87
167 161 86
167 161 86
168 161 86
165 160 85
166 160 91
161 156 80
163 157 86
171 164 95
164 158 83
159 153 84
166 160 88
163 157 87
169 163 91
166 160 87
165 159 86
166 160 87
167 160 88
162 156 80
163 158 90
164 159 86
167 160 87
163 157 85
166 160 83
158 151 82
164 158 85
161 154 89
159 153 84
160 154 81
165 158 85
158 153 86
160 154 84
163 157 82
158 152 84
154 147 85
157 152 82
159 154 86
156 151 78
159 152 85
155 149 83
159 154 80
151 145 78
219 234 254
219 234 254
219 234 255
218 233 254
219 234 254
218 233 253
219 234 255
219 234 254
219 234 254
218 233 255
219 234 254
218 234 255
220 235 255
219 234 255
219 234 254
219 234 253
220 235 255
218 233 252
218 234 253
218 234 253
219 234 253
217 232 246
218 233 252
216 231 244
216 232 248
216 231 248
216 232 248
214 230 240
213 229 236
218 233 252
216 231 248
217 233 250
217 232 248
216 232 246
218 234 253
216 232 245
215 231 244
216 231 245
217 233 250
216 232 246
216 232 246
218 233 252
217 233 250
214 230 240
217 233 250
214 230 241
217 233 249
215 230 246
213 229 247
216 232 249
215 230 249
218 233 250
207 222 242
216 231 252
207 223 244
211 226 246
216 231 253
212 227 247
209 224 246
206 222 242
214 229 250
214 229 250
213 228 249
217 232 253
209 225 246
211 227 246
212 228 248
210 226 246
209 225 245
214 229 252
209 225 246
208 224 245
212 227 247
212 227 244
212 227 242
214 229 244
215 231 249
216 231 252
213 229 242
215 231 246
215 231 244
217 232 248
215 231 245
216 232 248
216 232 246
215 230 244
217 233 250
216 232 246
215 231 245
215 231 245
218 234 253
215 231 242
217 233 250
216 232 248
217 232 250
216 231 248
218 233 253
217 233 250
215 231 245
214 230 245
215 231 248
216 232 248
217 233 250
213 229 240
216 232 248
216 232 248
215 231 246
216 232 248
216 232 246
216 232 246
215 231 248
213 229 243
209 226 238
211 227 244
215 230 247
213 229 241
212 228 241
207 223 239
204 221 237
205 221 237
203 220 236
209 225 242
205 222 233
208 224 242
205 221 240
206 222 238
212 228 241
204 221 234
204 221 237
208 225 241
203 220 238
210 226 244
208 224 244
206 222 244
212 228 246
213 229 248
210 226 247
211 227 249
92 119 158
69 101 149
120 142 182
210 227 250
210 226 249
209 225 247
206 222 245
201 218 242
194 210 233
219 234 255
196 212 237
60 95 142
61 96 148
60 94 136
60 94 139
60 96 144
59 94 136
60 95 142
60 95 144
60 96 145
60 95 141
61 96 151
59 94 139
61 96 144
59 93 128
60 95 145
61 96 137
60 95 143
60 95 140
61 96 144
61 95 143
59 94 134
61 96 142
61 96 143
60 95 141
61 96 136
61 96 137
60 95 141
61 96 145
60 95 141
62 97 145
60 95 131
61 96 151
61 96 145
60 95 136
61 96 140
60 95 139
61 96 142
60 94 139
60 95 135
61 95 142
62 97 150
59 93 128
60 95 137
62 97 151
61 96 139
61 95 137
59 93 129
60 95 137
61 96 145
61 95 144
61 96 145
60 94 134
60 94 137
59 93 129
61 97 149
62 97 145
62 96 141
61 96 140
59 94 135
60 94 142
61 96 149
60 95 139
61 95 143
59 94 140
60 95 130
60 94 141
61 95 136
60 94 140
59 94 140
60 95 137
60 94 140
60 94 142
60 94 140
57 90 128
60 95 134
59 94 136
58 92 134
59 93 131
59 93 142
61 96 148
59 93 140
59 93 141
59 92 130
59 92 131
60 94 134
59 93 133
58 91 127
58 92 140
57 89 120
58 90 134
59 92 140
58 89 126
58 91 134
57 89 130
57 88 132
58 90 129
58 91 129
54 83 118
54 83 113
53 81 116
53 82 121
50 77 107
94 96 82
84 83 54
66 67 46
70 71 47
66 68 45
64 67 46
72 75 54
52 58 41
67 72 53
66 72 52
63 68 50
71 76 52
78 84 59
73 78 54
88 92 63
87 91 64
94 96 65
89 94 67
94 97 63
103 104 65
110 111 71
118 119 75
116 117 77
116 117 70
122 123 73
124 125 82
126 124 77
121 121 76
126 126 77
127 126 75
135 134 78
129 129 73
135 133 79
143 140 84
139 136 80
144 141 84
150 147 84
150 146 85
141 139 82
154 149 92
144 140 78
150 148 88
146 144 83
158 154 86
152 149 86
155 151 90
156 151 87
157 153 88
152 148 89
164 158 94
160 155 89
159 155 86
160 156 93
154 149 82
159 155 84
167 162 93
165 160 93
162 158 92
161 157 87
170 164 90
165 159 90
161 156 85
168 163 91
166 160 88
165 159 91
167 162 90
166 162 90
162 157 84
168 162 86
168 162 90
167 162 90
171 165 91
169 163 94
170 164 91
172 165 93
168 162 86
167 162 87
172 166 97
171 165 87
172 167 94
174 168 89
173 166 93
172 165 90
172 165 90
170 163 88
171 165 90
171 164 91
172 166 93
170 163 92
169 164 91
173 167 95
170 163 89
167 162 89
169 163 83
169 163 90
169 163 87
172 164 93
167 161 84
170 164 93
171 165 92
168 162 87
168 162 92
171 165 92
168 162 87
167 161 90
167 161 91
171 164 92
171 164 91
168 162 92
173 165 92
171 165 87
166 160 88
163 157 83
166 160 85
172 166 90
166 160 83
162 157 76
167 160 83
162 155 81
166 160 87
166 160 87
163 157 88
159 153 79
168 161 91
158 152 77
164 158 87
165 159 86
158 152 78
161 156 85
162 157 83
164 157 87
160 154 83
161 154 80
165 159 84
164 158 87
158 152 82
157 152 83
159 154 79
156 149 84
153 148 79
158 153 83
155 151 76
153 147 81
156 150 80
161 155 87
154 148 76
157 151 84
156 149 80
153 147 78
220 235 255
220 235 255
220 235 255
220 235 255
220 235 255
220 235 255
220 235 255
220 235 255
220 235 255
219 235 255
220 235 255
219 234 254
220 235 255
219 234 254
220 235 255
220 235 255
219 234 253
218 233 254
218 233 254
218 233 254
218 233 252
219 234 253
218 233 252
219 234 254
218 233 249
215 231 244
217 232 248
216 231 245
214 230 241
217 233 249
217 232 246
217 232 248
216 231 246
218 234 252
218 233 250
216 232 245
218 234 252
218 233 252
216 232 245
216 232 246
216 231 244
215 231 241
215 231 241
216 232 244
218 233 252
218 233 250
216 232 245
214 229 250
213 229 248
213 228 243
215 230 249
212 227 247
210 226 246
213 228 248
215 230 252
217 232 254
211 226 248
212 227 246
214 230 251
211 226 246
216 231 252
215 230 252
214 229 251
208 223 244
214 229 250
211 226 246
209 224 244
215 231 251
216 231 252
217 232 253
216 231 252
210 225 246
213 228 248
215 230 250
212 228 244
216 231 246
216 232 246
213 229 240
217 233 250
213 229 236
216 231 248
217 232 248
216 232 246
214 230 241
212 228 242
215 230 246
215 231 241
218 233 252
214 230 242
214 230 240
216 232 246
215 231 244
217 232 250
215 231 245
216 232 246
216 232 245
217 232 249
214 230 238
216 232 246
216 232 246
218 233 252
215 231 246
216 232 248
215 230 244
217 232 246
215 231 244
215 231 242
219 234 254
217 232 248
216 232 250
215 231 244
214 229 244
214 230 246
209 225 243
213 229 242
209 224 237
207 223 240
206 222 238
205 221 241
207 223 239
209 225 240
207 223 240
211 227 241
210 226 240
204 220 234
207 223 240
207 224 236
212 228 244
204 220 239
209 225 244
213 228 244
205 222 240
214 229 252
211 226 246
213 229 250
206 222 243
209 225 247
210 226 246
133 154 188
63 97 144
70 102 148
207 223 247
212 229 251
206 223 244
208 224 246
207 223 244
202 218 241
217 232 253
183 199 224
60 95 148
60 95 141
58 93 131
61 97 149
59 94 139
61 96 144
60 95 133
61 97 152
59 94 131
60 95 143
61 96 142
60 95 150
61 97 152
59 93 136
60 94 136
61 96 144
60 94 137
61 96 142
61 96 140
60 95 147
61 96 143
60 95 140
61 96 139
61 96 135
59 93 130
61 96 137
60 95 137
61 96 137
61 96 142
61 96 142
60 95 133
60 95 144
61 96 145
61 96 137
60 95 145
60 96 139
60 95 128
60 95 139
60 94 134
60 95 141
61 96 147
61 96 140
60 94 140
59 94 140
59 94 142
60 95 142
60 95 143
60 95 136
60 95 133
59 93 135
61 96 142
59 94 131
60 95 141
60 95 139
61 96 144
61 97 150
61 96 139
60 95 135
60 94 135
60 94 137
61 96 141
60 94 135
61 95 144
60 94 138
59 94 135
59 93 130
60 94 131
60 95 137
60 94 129
60 94 133
60 94 142
62 97 149
60 95 151
60 94 139
59 93 139
59 94 134
60 94 138
60 94 141
60 94 140
59 93 133
58 91 134
59 93 134
59 92 138
59 93 136
59 92 139
59 92 130
58 92 133
59 92 135
59 92 142
59 92 132
58 91 138
56 88 123
55 86 124
56 87 123
57 89 133
56 87 118
54 83 113
55 83 114
53 82 110
52 80 111
51 78 113
50 78 111
86 89 69
91 89 53
84 83 53
59 60 40
59 62 42
47 51 38
58 64 46
74 78 56
75 79 54
60 66 48
79 85 63
62 69 50
73 79 58
85 87 57
78 82 55
81 85 55
94 97 65
98 101 67
102 102 63
97 101 67
109 110 67
114 115 73
105 108 68
105 106 65
126 125 77
118 119 76
133 132 77
135 133 83
122 123 73
126 126 79
125 125 76
135 133 80
133 132 77
134 133 79
141 139 84
143 139 81
146 145 84
141 139 78
148 145 84
144 141 79
145 142 80
162 156 88
146 143 80
157 152 85
155 151 90
159 153 89
153 149 82
162 156 88
163 158 89
154 151 85
161 156 89
160 155 87
152 148 82
166 160 91
164 159 84
167 160 87
166 160 88
164 158 90
166 161 91
161 157 85
164 159 90
167 161 89
165 160 88
164 160 87
168 163 88
170 164 94
164 159 89
166 161 91
167 161 86
171 164 90
170 164 89
166 160 87
169 163 92
172 165 90
171 166 92
173 166 95
171 165 90
174 167 94
173 166 91
168 163 80
171 164 88
172 165 93
169 163 86
172 165 90
171 164 95
169 162 85
168 161 85
173 167 91
172 165 90
166 161 85
172 165 87
169 163 92
169 163 89
166 160 82
170 163 88
171 164 85
169 162 91
168 162 86
166 160 82
168 162 86
166 160 87
168 162 91
163 157 81
168 161 87
169 163 93
166 158 86
162 157 80
166 159 84
169 162 86
165 159 82
166 160 81
166 161 91
164 158 80
165 159 88
162 156 87
167 160 87
161 154 83
165 160 83
165 159 86
161 155 83
167 160 87
169 162 90
159 153 84
168 161 87
164 158 84
165 160 86
163 157 80
163 158 84
160 154 84
162 156 84
159 152 79
169 162 88
160 154 80
160 154 80
158 153 80
156 151 80
165 159 80
163 157 86
159 153 80
156 150 76
159 154 79
156 150 75
161 153 81
163 156 87
166 159 90
160 154 80
167 160 90
159 152 82
156 150 79
220 235 255
220 235 255
220 235 255
220 235 255
220 235 255
219 234 255
220 235 255
219 234 255
220 235 255
220 235 255
220 235 255
220 235 255
220 235 255
220 235 255
220 235 255
220 235 255
220 235 255
220 235 255
220 235 255
219 234 255
219 234 255
220 235 255
219 234 254
220 235 255
219 234 254
219 234 254
220 235 255
219 234 254
220 235 255
219 234 250
219 234 253
216 231 244
218 233 250
219 234 250
218 234 252
216 232 244
217 233 248
214 230 237
217 233 248
217 233 246
217 232 245
217 232 245
218 233 249
218 234 252
216 232 245
218 234 252
217 232 248
215 231 250
212 227 240
214 229 248
211 227 247
213 229 248
210 226 246
216 231 252
211 227 248
208 223 244
218 233 254
207 222 243
212 227 247
215 230 250
217 232 252
218 233 254
211 226 248
216 231 251
213 229 250
211 226 248
215 231 250
215 230 250
212 227 246
209 224 244
212 228 248
209 224 245
212 228 249
213 228 250
215 230 248
215 230 246
218 233 250
217 232 249
217 232 250
218 233 252
216 231 244
218 234 252
218 233 250
215 231 244
215 230 245
216 231 246
217 232 248
216 232 245
218 233 250
215 231 241
216 231 248
216 231 244
217 233 248
215 231 242
216 232 244
216 232 246
217 232 248
218 234 253
217 233 249
218 233 252
216 232 248
216 232 245
215 231 242
216 232 245
217 232 248
217 232 248
217 233 249
218 233 250
217 232 248
217 233 249
213 229 238
213 228 243
211 227 244
214 229 241
215 231 247
212 227 242
208 224 236
201 218 233
209 225 241
210 226 242
212 227 246
210 225 240
207 223 238
206 222 238
209 225 241
211 227 242
202 218 233
206 222 238
208 224 242
213 228 248
211 227 248
212 227 249
215 230 252
208 224 246
211 226 246
211 226 248
214 230 252
209 224 246
156 175 200
65 97 138
72 102 137
169 187 211
204 220 241
210 226 247
206 222 247
202 218 240
196 212 232
211 227 246
172 189 216
60 96 149
59 94 136
60 95 140
60 95 140
61 96 143
60 95 143
59 94 137
59 94 141
60 95 141
60 94 130
60 96 142
60 95 136
62 97 145
59 94 136
60 95 143
60 95 140
61 96 140
60 95 145
60 96 141
60 95 141
59 94 130
60 95 142
62 98 150
60 95 137
59 94 134
61 96 136
62 97 149
60 95 144
60 95 140
60 95 147
60 94 131
60 95 135
60 95 139
61 96 139
59 94 140
60 95 141
59 94 139
60 95 135
60 95 139
62 97 149
61 96 145
60 95 143
61 96 145
61 97 145
61 95 139
60 95 143
61 95 140
60 94 134
60 95 139
62 97 148
61 96 140
59 93 129
60 95 136
59 94 139
61 96 144
60 95 141
59 93 136
59 93 132
59 94 141
60 94 135
61 96 145
59 93 125
60 95 140
59 93 129
61 95 142
59 93 134
60 95 143
60 95 139
61 96 143
60 94 138
59 93 126
58 92 123
59 93 135
60 94 133
58 92 126
59 92 131
59 94 140
60 95 136
59 93 139
59 94 142
60 95 141
60 93 134
59 92 135
59 92 130
59 92 124
57 90 121
56 88 122
59 92 129
58 92 130
58 91 128
56 88 120
57 90 130
56 87 123
56 87 129
57 90 135
58 89 130
56 88 130
58 90 130
55 84 120
55 84 120
51 79 111
50 76 111
80 84 72
74 73 46
58 60 39
69 71 49
57 60 40
47 53 35
52 58 42
60 64 43
54 59 42
64 70 50
54 60 40
68 72 50
77 83 58
82 86 54
77 81 57
90 93 63
94 97 60
102 103 65
94 97 67
100 101 66
112 112 69
102 105 66
112 113 65
115 115 73
125 124 76
113 113 68
120 119 71
122 122 73
128 127 71
120 121 75
136 134 72
130 129 72
133 131 76
132 131 80
142 139 78
145 143 87
139 137 77
140 136 77
151 147 80
143 140 81
147 144 82
143 141 75
153 150 80
154 151 85
145 143 80
159 155 81
154 149 78
154 151 84
153 149 83
159 155 87
151 147 79
156 152 85
152 149 82
159 155 84
161 156 88
163 158 90
163 158 90
164 159 85
158 154 90
165 160 93
168 162 89
165 160 93
165 160 86
164 159 86
168 161 87
163 158 81
167 161 91
165 159 88
172 165 93
169 163 92
169 163 87
169 163 87
171 165 86
174 168 98
173 165 87
166 162 85
172 166 90
168 161 92
168 162 86
169 162 84
172 166 91
170 164 92
170 164 92
169 163 84
168 162 89
169 163 82
169 163 88
169 162 86
168 162 89
177 169 96
171 164 88
173 165 93
168 162 90
166 159 82
166 160 81
165 160 84
168 161 87
167 160 86
168 162 87
169 162 90
167 160 80
169 163 83
174 166 92
168 162 91
166 160 87
170 164 92
160 156 77
163 156 82
167 160 82
166 159 84
172 165 90
164 157 80
165 159 86
165 159 81
169 162 81
162 156 80
163 157 84
160 155 79
159 153 77
166 159 88
173 165 91
168 162 87
166 160 86
160 154 83
163 157 79
161 156 84
156 151 75
162 156 77
164 157 84
166 159 88
159 154 76
163 157 87
160 154 79
162 156 86
160 153 80
154 149 81
160 155 82
157 151 75
159 153 78
157 151 78
163 155 81
151 146 71
155 149 79
155 148 84
158 152 78
155 149 77
153 148 77
156 150 80
155 150 79
220 235 255
220 235 255
220 235 255
220 235 255
220 235 255
220 235 255
220 235 255
219 234 254
220 235 255
220 235 255
219 234 255
219 234 254
220 235 255
220 235 255
220 235 255
220 235 255
219 234 254
220 235 255
219 234 255
218 233 254
220 235 255
220 235 255
220 235 255
219 234 254
220 235 255
218 233 254
220 235 255
219 234 255
220 235 255
219 234 255
220 235 255
219 234 255
220 234 255
220 235 255
221 235 255
221 235 255
220 235 255
220 234 253
219 234 252
220 234 253
220 235 254
219 234 252
219 234 253
219 234 253
220 235 255
218 233 250
211 227 240
218 233 253
215 231 248
215 230 248
217 232 253
212 227 246
212 227 248
212 227 248
216 231 251
212 227 247
202 217 237
213 228 249
219 234 254
214 229 250
215 230 250
211 226 246
213 228 248
215 230 250
207 223 244
213 228 248
213 228 249
217 232 252
214 229 248
213 228 248
212 227 247
215 230 250
215 230 251
210 225 244
216 231 250
217 232 252
218 233 248
216 231 245
219 234 252
216 231 242
217 232 245
218 233 250
217 233 246
216 231 245
217 232 246
217 232 246
217 233 248
218 233 250
215 231 242
218 233 249
217 232 245
218 233 250
219 234 253
216 232 244
217 232 245
214 230 238
219 234 253
218 233 250
217 232 245
218 233 248
217 232 246
215 231 242
218 233 250
217 232 246
217 233 248
217 232 246
217 232 246
214 230 237
217 232 246
217 232 246
217 232 246
217 232 246
213 228 244
215 230 247
208 223 240
206 221 235
208 224 240
212 228 240
208 224 237
211 227 240
211 226 240
214 229 242
207 223 238
212 227 246
213 228 248
208 223 241
212 227 246
209 225 243
211 226 246
215 230 252
210 225 245
215 230 252
218 233 253
215 230 252
211 226 248
202 217 242
211 227 250
212 227 248
179 196 219
72 103 145
74 103 141
159 177 204
214 229 252
211 226 249
201 217 238
204 220 244
202 217 241
204 220 242
176 193 219
60 95 142
58 93 129
60 95 145
60 95 137
58 92 128
60 94 126
60 95 137
61 96 145
60 96 142
61 96 149
61 95 142
60 95 134
60 95 145
60 95 135
61 96 136
62 97 145
60 95 141
61 96 136
61 95 140
61 95 144
61 96 141
60 95 137
60 95 143
61 95 134
62 97 143
59 94 135
62 96 144
61 96 140
60 95 137
59 93 131
62 97 143
59 94 131
60 94 140
61 96 140
60 95 136
60 95 135
61 96 145
61 96 140
60 95 133
60 95 136
59 94 130
61 96 139
60 95 137
62 97 145
61 96 147
58 92 129
60 95 136
58 93 134
60 95 139
60 94 141
61 96 140
61 96 139
59 94 134
59 94 133
59 93 135
60 94 133
60 94 136
60 96 141
60 94 128
60 95 141
60 94 132
60 94 133
60 95 133
58 92 129
60 95 134
60 94 133
60 94 140
60 95 135
60 94 137
61 96 136
58 92 133
59 92 136
59 94 134
58 91 133
59 93 131
59 93 134
60 94 136
60 94 137
59 93 135
59 93 131
61 95 137
59 92 135
57 89 127
59 92 132
58 92 135
59 92 136
59 91 134
59 92 137
57 89 127
57 90 129
57 88 123
58 91 134
58 91 130
58 90 132
56 86 123
57 89 130
56 86 123
56 86 116
55 84 113
53 82 113
50 76 103
51 78 106
78 85 76
67 66 39
69 70 43
51 54 38
53 55 34
53 57 40
61 65 43
40 47 31
58 63 44
63 69 47
39 47 34
51 59 43
70 75 51
76 80 48
67 74 52
92 94 64
91 94 58
87 91 58
101 103 64
113 114 73
110 111 72
106 109 69
115 116 69
114 116 71
114 114 70
123 123 72
126 125 76
125 125 74
133 131 79
136 135 80
134 133 82
132 130 78
139 136 81
143 141 82
141 138 81
141 139 79
138 136 79
149 146 82
141 139 80
153 148 81
147 143 78
145 142 82
150 146 84
150 146 79
155 151 78
148 145 83
153 149 78
151 147 84
159 153 83
154 151 82
161 155 89
158 153 82
165 160 89
157 153 84
156 152 84
161 156 86
159 155 89
163 157 86
168 162 85
168 162 88
169 164 89
165 160 89
167 161 90
165 159 89
164 159 82
165 160 86
169 163 90
165 159 85
167 162 85
166 161 86
168 162 83
166 160 83
167 163 82
167 161 84
170 164 84
174 167 93
169 164 87
169 163 85
172 165 89
168 162 84
173 166 85
168 162 87
164 159 88
171 165 88
173 167 93
171 164 84
170 164 95
171 165 90
168 162 81
165 160 84
168 161 87
171 164 87
165 159 84
168 161 85
170 164 87
170 164 88
168 163 86
171 165 93
167 161 83
161 155 80
168 162 84
167 160 87
165 159 80
170 164 88
170 163 87
168 161 87
166 160 81
167 161 92
167 160 88
173 167 93
165 158 81
158 153 76
169 162 91
162 156 81
160 154 80
162 156 84
163 156 82
163 156 83
157 151 78
161 154 87
162 156 75
171 164 89
159 153 78
167 161 84
163 157 80
164 158 82
167 160 80
158 152 81
158 151 78
164 158 84
166 160 87
165 158 90
159 151 82
165 159 81
163 157 81
164 158 84
157 152 77
152 146 78
159 152 83
161 156 81
157 152 76
154 148 76
167 161 89
155 149 82
157 151 80
158 152 82
153 147 81
160 153 84
161 154 86
221 235 255
220 235 255
221 235 255
221 235 255
221 235 255
221 235 255
221 235 255
221 235 255
220 234 255
221 235 255
221 235 255
221 235 255
221 235 255
220 234 254
219 234 254
219 233 254
221 235 255
221 235 255
221 235 255
220 234 254
221 235 255
221 235 255
220 234 255
221 235 255
221 235 255
220 234 254
221 235 255
221 235 255
221 235 255
221 235 255
219 234 255
220 234 254
220 234 254
221 235 255
221 235 255
221 235 255
221 235 255
221 235 255
221 235 255
221 235 255
221 235 255
221 235 255
221 235 255
221 235 255
221 235 255
219 233 253
218 232 252
221 235 255
214 229 250
219 234 254
212 227 248
211 226 246
213 228 247
213 228 249
212 227 248
215 230 250
213 228 249
216 231 252
215 230 251
212 227 247
216 231 250
213 228 248
215 230 250
209 224 244
213 228 248
214 229 249
213 228 248
212 227 247
216 231 252
213 228 248
215 230 251
216 231 251
219 234 254
212 227 249
215 230 250
210 225 244
218 233 251
219 234 252
219 234 250
219 234 252
218 233 248
217 233 246
220 235 254
220 234 253
220 235 254
219 234 250
217 232 244
219 234 250
218 233 248
218 233 248
216 232 242
219 233 249
218 233 249
220 234 253
219 234 252
218 233 246
219 234 252
219 234 250
218 233 249
219 234 252
219 234 252
219 234 250
217 233 246
219 234 250
219 234 252
217 232 244
220 234 253
216 232 246
217 232 252
217 232 245
217 231 250
213 228 246
217 232 250
213 228 248
206 221 231
209 223 240
213 228 246
208 223 242
210 225 246
211 226 245
214 229 251
212 227 248
213 228 250
216 231 251
210 225 245
211 226 246
212 227 249
210 225 246
214 229 250
212 227 248
216 231 251
215 230 249
214 229 250
210 225 245
215 230 252
216 231 251
212 227 248
213 228 248
178 194 221
75 104 141
62 96 147
123 145 178
211 227 248
216 231 253
206 222 244
202 218 241
199 214 237
207 222 244
154 172 201
58 92 129
60 95 140
60 95 143
60 95 144
59 94 136
60 95 131
60 95 141
60 95 140
59 93 134
61 95 139
60 95 144
59 93 131
59 94 129
59 94 131
60 94 130
61 96 151
60 96 142
58 93 135
60 95 130
60 94 134
60 96 139
62 97 153
60 95 142
59 94 128
60 95 135
60 94 136
61 96 145
60 95 141
60 94 133
60 94 128
59 93 128
60 95 139
60 94 139
60 94 140
60 94 135
60 95 139
60 95 134
60 96 145
60 95 139
61 95 144
61 96 135
60 94 137
60 94 137
61 96 140
60 94 135
60 95 135
60 95 137
60 94 136
60 94 129
60 94 140
60 95 139
60 95 144
61 96 140
59 93 130
60 94 127
61 96 139
59 94 137
60 94 133
60 95 142
60 94 133
60 94 142
60 94 139
60 95 144
60 94 139
60 93 135
59 93 134
60 94 134
60 94 132
60 95 145
59 93 128
60 93 140
59 93 129
60 93 135
60 94 139
57 91 123
60 94 138
59 94 132
60 93 129
60 94 134
59 93 130
58 91 128
59 92 124
59 92 128
59 92 133
60 93 139
58 91 126
59 91 123
57 89 122
59 92 136
59 91 133
57 89 129
58 90 128
54 83 114
56 87 129
57 88 119
57 88 118
56 86 126
56 86 127
55 85 117
52 80 104
53 83 120
49 73 89
73 82 75
71 69 41
60 61 39
58 59 35
42 46 34
46 50 36
29 38 28
55 59 42
53 59 42
58 64 43
57 64 44
68 72 44
73 78 52
73 79 53
92 94 64
80 85 55
93 96 64
82 87 57
99 101 63
84 88 54
110 110 63
96 99 60
108 108 60
105 106 65
100 103 70
111 112 62
111 111 66
130 128 76
132 130 75
126 126 73
122 121 71
133 132 77
131 129 72
141 138 81
141 138 75
139 137 77
137 135 77
136 134 71
140 137 76
140 138 76
151 147 81
149 144 79
143 140 74
150 146 82
156 152 86
152 148 81
151 148 78
151 148 80
156 152 84
155 151 82
158 153 80
159 154 89
158 153 86
158 154 87
160 155 85
159 155 83
162 156 83
162 157 88
165 160 88
159 154 80
167 160 85
166 159 84
164 160 88
169 162 90
162 157 86
171 164 89
165 159 86
166 161 83
168 161 80
165 159 84
169 163 86
168 162 90
169 163 89
171 164 92
167 161 82
167 162 78
172 166 89
170 164 91
172 165 92
171 165 90
169 162 86
170 164 88
175 168 91
171 164 89
171 164 88
170 163 86
168 162 84
169 163 84
170 164 89
172 165 90
168 162 84
173 165 87
170 164 85
170 163 87
170 164 89
168 161 85
174 167 92
168 161 87
164 158 78
167 161 82
168 162 80
170 163 80
169 161 86
160 154 76
163 157 85
168 162 87
168 161 85
169 163 82
168 162 85
160 154 80
167 160 82
163 157 86
170 164 85
168 161 84
169 161 88
169 163 90
168 161 86
162 156 78
161 155 82
160 154 74
160 155 78
169 163 89
164 158 80
165 158 86
169 163 92
161 154 75
159 153 78
156 150 80
165 159 88
160 156 82
165 158 81
158 151 83
162 156 84
156 150 77
161 156 84
163 157 83
163 156 84
164 158 84
161 153 84
161 154 79
153 146 80
160 154 80
160 153 75
155 149 78
160 154 80
156 150 80
151 145 81
168 161 86
159 153 84
221 235 255
221 235 255
221 235 255
220 234 255
220 234 254
221 235 255
221 235 255
221 235 255
221 235 255
221 235 255
221 235 255
221 235 255
221 235 255
221 235 255
221 235 255
221 235 255
221 235 255
221 235 255
221 235 255
220 234 255
219 233 254
221 235 255
219 233 254
221 235 255
221 235 255
220 234 255
221 235 255
221 235 255
220 234 255
221 235 255
221 235 255
221 235 255
221 235 255
220 234 254
221 235 255
221 235 255
221 235 255
221 235 255
221 235 255
221 235 255
221 235 255
221 235 255
221 235 255
221 235 255
221 235 255
220 234 255
218 232 253
218 232 252
218 232 252
217 231 252
218 232 252
217 231 251
218 232 253
217 231 253
210 225 246
211 226 248
215 229 250
215 229 248
218 232 252
211 226 246
216 230 250
214 228 250
216 230 252
219 233 254
216 230 251
208 223 243
212 227 247
212 227 247
216 230 251
212 227 246
216 230 252
211 226 246
208 223 243
208 223 245
212 227 248
213 227 248
219 233 254
221 235 255
221 235 255
221 235 255
221 235 255
221 235 255
221 235 255
221 235 255
221 235 255
221 235 255
221 235 255
221 235 254
221 235 255
221 235 255
221 235 255
221 235 255
221 235 255
221 235 255
221 235 255
221 235 255
221 235 255
221 235 255
221 235 255
221 235 255
221 235 255
221 235 255
221 235 255
221 235 255
221 235 255
221 235 255
221 235 255
221 235 255
221 235 255
220 234 253
219 233 252
215 229 249
216 230 250
217 231 250
218 232 252
212 226 245
209 224 244
214 228 249
207 222 245
215 229 249
211 226 248
214 228 248
214 228 247
213 227 250
215 229 251
214 228 249
216 230 252
217 231 252
218 232 253
209 224 246
211 226 247
214 228 250
218 232 253
213 228 249
213 227 250
214 228 250
214 229 250
208 222 240
177 194 219
65 97 140
66 98 144
112 133 159
212 227 249
212 227 248
209 224 246
216 230 252
205 220 240
208 223 244
150 168 192
60 95 140
61 96 139
58 93 132
60 95 134
61 96 136
58 93 131
60 95 141
59 94 139
60 95 141
60 94 139
60 94 130
61 96 142
60 95 136
60 95 135
60 94 133
61 96 143
61 96 137
60 95 134
60 94 131
61 96 143
59 93 133
58 92 126
60 95 131
60 94 129
59 94 129
61 95 141
59 94 125
60 94 133
59 93 129
61 96 148
61 96 142
59 94 125
61 96 140
60 95 140
61 95 136
61 96 145
61 95 142
61 96 143
60 95 143
60 94 136
60 95 137
59 94 129
60 95 137
59 93 129
59 94 129
60 95 140
61 96 137
60 95 137
61 95 133
61 96 142
61 95 136
58 91 120
59 94 136
60 94 135
60 95 131
60 95 134
59 94 128
58 92 121
61 96 140
60 94 133
59 93 135
60 94 126
60 95 135
59 94 130
59 92 125
61 96 149
60 94 141
60 95 141
60 94 133
59 93 134
60 94 140
58 92 124
58 91 128
59 93 137
60 94 126
59 93 129
59 93 135
59 93 134
59 93 135
59 93 140
59 92 130
58 91 130
59 92 125
58 92 129
57 90 129
59 93 132
55 86 122
59 91 136
57 89 118
56 88 122
57 89 125
58 90 139
58 89 124
53 83 112
57 89 128
58 89 137
55 84 107
55 85 118
53 83 116
55 84 115
51 78 107
51 78 99
75 84 78
64 63 38
56 56 29
52 54 31
47 50 33
33 39 28
45 51 38
61 67 44
58 65 45
55 60 43
56 62 40
54 61 41
64 71 48
76 81 53
80 85 57
90 93 60
87 89 57
94 97 59
88 92 55
91 94 55
106 106 62
118 118 72
101 101 58
109 111 67
114 112 66
109 109 64
119 119 70
116 116 68
126 125 76
108 109 62
125 125 67
133 131 77
125 123 71
140 138 79
136 134 76
139 137 81
144 140 76
146 143 82
142 139 77
145 142 74
151 148 83
147 145 83
149 145 79
149 145 78
157 152 83
158 152 84
152 147 77
162 156 89
151 148 78
162 157 86
158 153 81
160 156 89
148 145 75
160 155 85
156 152 80
155 151 78
159 154 86
167 161 85
161 158 83
163 158 87
159 155 80
160 155 80
165 160 83
159 154 87
163 158 86
166 161 87
157 152 79
168 162 84
168 162 88
164 159 83
162 157 76
165 160 78
168 162 86
167 161 88
166 160 82
164 159 77
171 165 87
174 167 91
173 166 94
173 166 90
168 162 82
171 163 91
173 166 90
168 162 82
170 163 85
167 160 81
170 164 91
171 164 87
175 168 95
170 164 91
166 160 83
168 162 88
173 166 88
166 160 87
164 159 80
166 159 80
172 164 85
166 160 81
167 162 83
172 165 90
168 161 84
169 162 86
163 157 79
164 157 81
167 160 84
165 159 80
162 157 81
168 161 88
168 161 84
164 156 79
167 160 83
172 165 92
167 161 87
166 161 84
165 160 84
165 158 80
169 161 84
162 156 79
166 160 84
168 161 87
161 154 80
165 159 81
160 153 79
157 151 75
168 162 82
155 149 73
162 156 77
161 154 80
168 160 87
162 156 79
164 157 85
164 157 82
164 157 87
159 154 78
161 155 78
163 157 83
159 153 80
165 157 80
153 147 75
164 157 85
161 154 87
157 151 76
160 153 87
164 157 81
155 150 75
157 151 75
160 155 83
159 152 81
157 151 75
221 236 255
220 234 254
221 236 255
221 236 255
220 235 254
221 236 255
221 236 255
221 236 255
221 236 255
220 235 255
221 236 255
221 236 255
221 236 255
221 236 255
221 236 255
220 234 254
221 236 255
221 236 255
218 232 252
220 235 254
220 235 255
219 233 253
220 235 254
219 234 254
221 236 255
221 236 255
221 236 255
220 235 255
219 233 253
220 235 255
221 236 255
221 236 255
221 236 255
221 236 255
221 236 255
221 236 255
221 236 255
221 236 255
221 236 255
221 236 255
221 236 255
220 235 254
221 236 255
221 236 255
221 236 255
219 234 254
218 233 253
220 235 255
219 234 254
218 233 253
212 227 248
214 229 250
214 228 247
215 230 250
216 231 252
215 229 248
212 226 246
216 230 249
217 232 252
216 231 252
218 232 252
214 229 249
209 223 245
215 230 250
215 229 249
215 230 251
216 231 250
217 232 253
211 226 246
212 226 247
213 227 248
212 226 246
217 232 253
211 225 246
219 234 254
219 234 254
219 234 254
221 236 255
221 236 255
221 236 255
221 236 255
221 236 255
221 236 255
221 236 255
221 236 255
221 236 255
221 236 255
221 236 255
221 236 255
221 236 255
221 236 255
221 236 255
221 236 255
221 236 255
221 236 255
221 236 255
221 236 255
221 236 255
221 236 255
221 236 255
221 236 255
221 236 255
221 235 255
221 236 255
221 236 255
221 236 255
221 236 255
220 234 254
221 236 255
218 232 251
214 228 248
215 230 251
218 233 253
212 226 247
210 224 242
212 226 246
214 229 249
207 222 242
206 221 242
213 227 246
213 228 249
212 226 246
216 230 252
210 225 246
218 232 253
217 231 252
211 225 244
213 227 248
213 228 250
213 227 248
211 225 245
212 226 247
213 227 248
209 224 244
213 227 247
211 225 244
217 231 252
214 228 248
179 195 218
68 99 141
82 111 158
128 148 181
210 224 245
214 228 248
213 227 248
212 227 249
194 209 229
196 211 232
138 157 180
59 94 134
59 93 136
59 93 139
60 95 134
59 94 136
58 92 126
60 95 134
60 94 130
60 94 126
60 94 133
60 95 135
60 94 131
61 96 141
60 95 134
59 93 133
59 94 131
60 95 133
59 94 137
61 97 142
59 94 131
59 94 141
60 95 139
60 95 125
60 95 137
60 95 130
61 96 139
59 93 126
61 95 137
60 94 135
60 95 142
58 93 125
59 93 131
62 96 148
59 94 122
60 94 131
58 92 126
60 94 130
59 93 124
59 93 130
62 97 150
59 93 129
61 95 139
61 96 142
61 95 140
61 96 139
59 94 130
61 96 142
60 96 136
60 94 137
60 94 137
59 94 128
61 96 140
60 95 136
61 95 134
60 95 141
59 94 129
60 94 141
60 94 136
60 94 139
59 93 128
60 94 140
61 96 136
61 96 139
61 95 141
59 93 132
60 94 130
60 95 142
59 93 133
60 95 139
59 93 140
59 94 136
59 93 134
60 95 138
60 95 138
59 93 131
60 93 140
59 93 130
59 92 128
58 92 131
58 91 139
59 92 127
58 92 126
56 89 125
58 90 128
58 92 138
58 91 123
59 92 136
60 94 140
58 90 127
58 91 127
57 89 128
58 91 129
56 87 124
58 90 130
57 89 130
55 86 113
54 83 112
54 84 111
54 82 111
55 84 114
51 77 102
50 76 96
62 73 78
66 66 39
55 55 34
52 52 28
50 52 30
53 56 33
49 53 31
50 55 36
50 58 39
56 62 43
60 65 41
53 60 43
74 79 54
64 69 38
63 71 49
72 77 45
68 75 50
98 100 62
100 101 63
93 95 54
98 101 61
102 104 60
105 106 60
110 111 65
122 120 68
117 117 61
105 107 63
129 128 74
109 109 62
127 126 71
128 127 73
128 128 72
134 132 71
129 127 72
126 125 64
142 139 76
138 136 79
142 138 72
150 147 79
143 140 72
147 144 81
147 142 84
142 140 79
151 146 79
152 147 84
150 147 72
150 146 77
158 153 78
161 155 80
158 153 79
160 155 86
163 157 89
155 150 80
154 151 82
161 155 81
154 150 80
161 156 83
161 155 83
160 155 81
162 157 82
164 158 84
165 159 82
167 160 84
167 162 88
168 163 88
165 159 84
164 159 86
163 158 79
170 163 89
167 160 84
163 157 77
168 162 86
166 160 82
166 160 82
173 166 90
168 163 87
170 164 87
169 162 84
172 166 89
175 167 91
167 161 84
164 158 80
169 163 84
172 165 88
169 163 86
166 160 80
170 163 87
171 164 83
165 159 76
170 164 88
169 161 81
168 162 86
167 160 82
167 161 81
164 159 80
171 164 90
167 161 84
171 163 80
165 160 85
163 158 80
169 162 89
168 162 84
168 161 82
161 155 76
171 165 90
167 160 86
168 161 85
165 160 82
165 158 82
164 158 84
167 161 83
159 155 76
164 158 79
170 163 88
158 153 77
164 157 85
160 154 75
164 158 87
161 155 83
162 157 85
168 162 86
159 154 79
169 161 86
166 160 80
161 154 77
162 156 81
162 155 84
164 157 82
166 159 81
160 153 80
161 155 79
162 156 84
165 158 84
165 159 83
160 152 77
156 151 76
151 145 76
159 153 81
158 152 75
164 158 81
167 161 85
166 160 84
158 151 75
159 153 78
152 147 78
161 154 84
158 152 79
155 149 84
152 146 68
222 236 255
222 236 255
222 236 255
221 236 255
222 236 255
222 236 255
221 236 255
221 236 255
222 236 255
221 235 255
221 236 255
222 236 255
222 236 255
222 236 255
219 234 253
222 236 255
220 235 254
222 236 255
222 236 255
220 235 254
221 236 255
221 236 255
221 236 255
222 236 255
220 235 255
220 235 255
221 235 255
221 236 255
220 235 255
220 235 254
221 236 255
221 236 255
220 235 254
221 236 255
221 236 255
221 236 255
221 236 255
222 236 255
221 236 255
221 236 255
221 236 255
221 236 255
221 236 255
221 236 255
221 236 255
220 235 255
219 234 254
217 232 252
217 232 252
216 231 251
209 223 244
214 229 249
215 230 250
215 230 250
214 229 250
215 230 250
217 232 252
214 229 248
217 232 252
216 230 251
218 233 252
209 223 244
217 232 252
219 234 254
220 234 254
211 225 244
216 231 251
213 228 248
215 230 250
213 228 248
218 233 252
216 231 251
213 228 248
213 228 250
208 223 244
217 232 252
221 235 254
222 236 255
221 236 255
221 235 254
221 236 255
222 236 255
221 236 255
221 236 255
221 235 254
221 235 254
221 236 255
222 236 255
221 236 255
221 235 254
221 235 254
222 236 255
222 236 255
221 236 255
221 236 255
222 236 255
221 236 255
221 236 255
221 236 255
221 236 255
221 235 254
221 236 255
221 235 254
221 236 255
221 236 255
221 236 255
221 236 255
222 236 255
222 236 255
221 235 254
218 232 251
220 234 254
218 233 252
214 229 248
213 227 245
213 228 247
216 231 251
210 224 244
210 225 245
211 226 246
216 231 252
215 230 251
214 229 250
214 229 249
215 230 250
204 219 240
215 230 250
210 224 244
216 231 251
214 229 248
214 229 248
217 232 251
218 232 252
214 229 249
215 230 250
207 222 243
217 231 251
210 225 245
184 199 220
62 95 136
72 102 145
120 141 165
212 227 245
217 231 250
209 223 243
204 219 240
200 215 235
212 227 247
166 183 205
58 93 134
59 93 130
59 93 134
60 95 141
61 95 140
60 95 136
60 94 135
59 93 133
61 96 136
58 92 139
59 94 134
59 94 130
60 95 136
60 95 140
60 94 129
58 93 128
60 95 139
61 96 141
59 94 128
60 94 131
60 95 136
60 94 135
60 95 134
60 95 135
60 95 137
61 95 142
59 94 125
60 95 137
60 95 131
60 95 133
61 96 142
60 96 139
60 95 129
58 92 135
60 94 130
58 93 125
60 94 129
61 95 134
58 92 125
59 94 134
60 95 136
60 95 136
59 94 128
60 95 136
60 94 130
58 91 120
60 94 136
60 95 129
59 93 124
59 93 122
61 95 136
60 95 130
61 96 140
59 93 128
59 93 136
61 96 143
60 94 139
59 92 130
59 93 128
60 95 134
59 93 130
60 95 141
58 92 131
60 94 134
60 94 128
59 93 136
60 94 134
60 95 139
59 94 131
60 94 139
60 95 137
60 94 140
59 92 135
60 94 136
60 94 135
59 93 124
59 92 128
59 93 129
59 92 132
59 92 133
59 93 134
60 95 148
59 92 131
59 92 123
60 94 134
58 90 121
58 91 128
57 90 127
57 88 118
59 92 134
56 88 121
57 89 126
58 90 132
57 88 128
55 86 122
54 85 110
55 85 126
51 80 104
54 83 112
55 85 121
50 77 100
45 69 88
60 71 69
68 68 37
49 50 31
49 50 28
51 53 26
42 45 28
36 41 27
50 54 34
40 47 32
58 63 39
64 69 40
67 71 46
65 72 50
62 68 47
60 63 33
90 93 55
89 92 56
89 91 54
103 104 59
102 104 52
100 100 60
109 109 67
103 104 56
101 103 56
120 120 66
129 127 70
112 113 66
121 120 71
126 125 70
132 130 72
126 126 68
141 139 73
132 130 70
137 135 70
132 131 74
132 130 67
142 138 73
143 139 71
140 138 76
142 139 71
145 141 79
148 145 78
146 142 74
139 137 73
151 147 79
154 150 79
160 154 86
152 148 79
152 148 70
154 149 78
156 151 76
158 154 83
162 156 81
153 150 84
158 154 77
160 155 76
160 155 80
162 156 78
167 160 84
163 157 76
153 149 76
164 158 85
163 158 80
163 157 83
167 161 81
165 159 80
167 160 84
164 158 82
170 163 86
168 162 80
170 163 87
171 163 88
167 161 86
165 159 77
169 162 85
172 165 91
167 161 82
171 164 85
166 160 81
162 156 75
168 162 85
172 165 87
168 162 84
167 160 82
169 162 84
169 162 84
168 162 81
171 164 83
165 159 83
173 166 88
165 159 80
172 165 87
162 156 84
168 161 83
167 160 80
171 165 87
167 161 80
166 159 83
167 160 77
162 156 79
160 156 81
168 162 85
166 160 86
169 162 85
163 158 81
168 161 86
164 158 84
170 163 79
167 161 84
166 159 83
168 161 82
160 155 76
163 156 80
163 156 81
166 160 82
166 159 85
168 161 81
165 159 80
169 161 87
165 158 80
162 155 79
163 158 80
158 152 75
163 157 69
161 155 77
165 159 80
170 162 87
162 156 77
170 163 84
153 147 71
160 153 79
160 153 75
154 149 76
163 156 87
163 157 80
157 151 72
155 150 79
163 156 80
160 154 80
158 152 77
163 156 82
157 150 79
149 144 76
158 152 80
154 147 75
155 150 75
161 153 83
153 148 72
154 147 77
222 236 255
222 236 255
222 236 255
222 236 255
221 235 254
222 236 255
222 236 255
222 236 255
222 236 255
222 236 255
222 236 255
222 236 255
222 236 255
222 236 255
222 236 255
222 236 255
222 236 255
221 235 254
222 236 255
221 235 255
222 236 255
221 235 255
222 236 255
221 235 255
222 236 255
221 235 255
222 236 255
221 235 254
219 233 253
222 236 255
222 236 255
222 236 255
222 236 255
222 236 255
222 236 255
222 236 255
222 236 255
222 236 255
222 236 255
222 236 255
222 236 255
222 236 255
222 236 255
222 236 255
222 236 255
222 236 255
217 231 252
221 235 255
217 231 251
219 233 252
216 230 251
215 229 251
217 231 251
218 232 252
218 232 252
216 230 250
218 232 252
211 226 248
214 228 248
217 231 252
215 229 248
213 227 248
215 229 250
215 229 248
219 233 254
211 226 246
211 226 247
212 226 245
216 230 250
220 234 253
218 232 250
217 231 252
217 231 249
217 231 250
216 230 248
220 234 254
221 235 254
222 236 255
221 235 254
222 236 255
222 236 255
221 235 254
222 236 255
221 236 254
221 235 254
222 236 255
221 235 254
222 236 255
222 236 255
222 236 255
222 236 255
221 235 254
221 235 253
221 235 254
222 236 254
222 236 255
221 235 254
222 236 255
222 236 255
221 235 254
222 236 255
222 236 255
222 236 255
221 235 253
222 236 255
221 235 254
221 235 254
221 236 254
222 236 255
220 233 252
220 234 254
219 233 253
214 229 250
220 234 253
216 230 247
215 228 248
220 234 254
216 230 250
211 226 246
217 231 251
209 223 243
211 226 246
217 231 252
215 229 249
214 228 248
218 232 252
210 224 242
210 224 244
211 225 246
216 230 251
216 230 250
213 227 247
218 232 252
218 232 252
218 232 252
213 227 246
213 227 246
214 228 247
177 193 220
71 100 140
70 100 131
135 155 185
216 230 250
209 223 243
217 231 251
211 225 246
201 216 236
211 225 244
164 181 203
58 92 131
60 94 136
59 93 130
59 94 131
60 94 134
59 94 136
60 95 140
59 93 131
59 94 125
61 97 141
60 95 139
60 94 135
60 94 128
61 96 140
61 96 141
60 95 135
61 96 133
61 95 137
60 94 131
60 95 136
60 94 133
60 94 135
59 93 130
61 95 140
61 96 141
60 95 137
59 94 129
60 95 137
59 93 124
61 96 136
60 95 136
60 94 135
61 96 136
60 94 136
59 94 128
60 95 140
60 95 136
59 94 129
60 94 135
60 94 139
59 94 130
60 94 135
59 93 125
58 92 121
58 92 129
61 95 135
59 93 124
61 96 142
59 94 130
61 96 145
61 96 139
59 94 135
60 95 134
60 95 134
61 95 141
61 96 147
59 94 125
58 92 128
59 94 137
60 94 137
60 94 134
60 94 140
60 93 130
60 94 134
60 94 133
60 94 139
60 94 138
58 91 128
58 92 126
58 92 125
59 93 130
58 91 130
61 96 143
60 94 133
61 95 144
57 90 121
59 92 130
60 95 136
59 92 128
58 92 134
59 92 133
58 91 122
60 93 133
60 94 129
59 92 135
59 92 132
57 88 124
57 90 111
57 88 123
58 91 131
59 91 134
57 87 120
55 86 113
55 85 120
56 87 126
54 84 105
55 85 112
53 81 113
53 81 113
51 79 102
49 74 97
48 73 99
57 66 49
75 74 38
54 54 23
26 32 19
35 39 19
39 43 24
38 44 28
36 43 29
56 62 32
49 55 36
46 54 31
53 61 43
65 71 44
70 75 47
67 71 38
79 83 52
88 90 50
90 93 57
98 100 58
92 94 50
113 113 63
104 106 62
105 105 58
108 110 56
116 115 68
114 114 61
121 121 65
127 126 70
126 124 68
130 127 64
134 131 73
126 125 68
134 131 74
134 131 72
135 133 71
143 139 76
141 138 71
136 134 74
136 135 69
128 126 68
146 142 74
142 140 71
152 147 78
141 138 74
145 142 70
150 145 74
147 144 79
143 140 69
160 154 77
154 149 72
153 148 71
152 146 74
158 153 76
159 154 75
162 156 77
155 152 73
150 146 75
159 154 78
158 153 80
156 152 75
162 158 82
160 155 79
165 160 83
163 157 81
167 161 84
171 164 86
164 159 79
169 163 86
164 158 77
170 163 86
168 161 80
165 159 81
164 159 80
165 159 77
165 160 82
163 157 81
168 162 83
170 163 89
170 162 84
173 167 92
166 159 83
168 161 82
164 157 75
169 162 83
166 160 84
167 161 82
168 162 81
171 164 87
169 162 85
168 162 83
171 164 90
170 163 87
167 162 84
169 162 83
168 161 84
165 159 79
166 159 87
165 159 82
166 160 79
170 163 84
170 163 89
164 159 80
165 160 77
166 160 82
167 161 86
163 157 75
164 157 84
161 155 80
162 156 82
162 156 75
168 161 85
164 157 81
163 158 83
164 158 80
157 152 75
164 158 83
165 158 80
160 153 78
165 158 83
167 161 84
160 155 77
158 152 75
162 155 81
168 162 80
163 157 68
155 149 75
163 157 81
161 154 80
168 161 86
163 157 84
161 155 82
164 158 75
159 152 77
157 150 80
161 155 79
162 155 78
157 151 75
156 151 74
157 152 75
154 148 72
157 151 73
160 155 80
155 150 82
163 155 80
157 151 79
154 149 75
164 156 84
163 155 83
151 145 70
222 236 255
222 236 255
222 236 255
222 236 255
222 236 255
222 236 255
222 236 255
222 236 255
222 236 255
222 236 255
220 234 254
222 236 255
222 236 255
222 236 255
222 236 255
221 235 254
221 235 255
222 236 255
222 236 255
221 235 255
222 236 255
220 234 253
221 235 255
222 236 255
222 236 255
221 235 255
221 235 255
221 235 255
222 236 255
222 236 255
220 234 253
222 236 255
222 236 255
222 236 255
222 236 255
222 236 255
222 236 255
222 236 255
222 236 255
222 236 255
222 236 255
222 236 255
222 236 255
222 236 255
222 236 255
221 235 255
218 232 253
219 233 253
220 234 254
221 235 255
219 233 252
217 231 252
220 234 253
213 227 248
214 228 249
212 226 246
215 229 251
217 231 252
219 233 251
214 228 248
217 231 249
213 227 248
219 233 251
218 232 250
217 231 251
216 231 249
216 230 247
212 226 246
215 229 250
215 229 248
212 227 244
214 229 246
218 232 252
215 230 248
213 228 246
218 232 250
222 236 255
221 235 253
221 235 253
221 235 253
219 234 250
222 236 254
221 235 252
220 234 250
221 235 253
219 233 246
220 235 250
221 236 254
220 234 249
221 235 252
219 234 248
219 233 245
221 235 254
219 234 248
220 234 249
218 233 245
219 234 248
220 234 249
220 234 250
219 233 246
219 233 245
218 233 242
218 233 246
218 232 242
220 234 250
219 233 245
219 234 249
220 234 251
220 234 249
218 233 244
215 229 248
215 230 246
210 225 238
219 233 251
212 226 241
219 233 251
211 226 245
213 227 248
214 229 248
215 230 248
208 223 243
214 228 248
217 231 252
217 231 250
214 228 249
211 226 246
214 228 247
216 230 250
216 230 250
211 225 245
215 229 248
219 233 254
214 228 248
210 224 242
218 232 251
219 233 252
219 232 251
209 222 240
168 184 204
71 100 129
69 99 134
135 154 178
213 227 247
215 228 248
208 222 241
212 226 245
202 216 236
215 229 248
162 179 201
57 91 120
58 92 126
58 92 122
59 93 128
58 92 126
60 95 135
61 96 137
61 96 144
58 91 122
59 94 121
59 94 131
59 94 133
59 94 134
58 93 124
60 94 129
61 96 147
60 95 135
59 94 125
61 95 137
59 94 131
60 95 141
60 94 137
60 94 128
60 95 140
59 93 128
60 95 140
61 95 130
61 96 141
60 94 130
61 96 143
60 95 136
59 93 126
59 93 126
58 92 117
60 95 136
60 95 136
60 95 131
61 95 135
59 94 129
59 93 129
60 94 128
60 94 134
60 94 135
60 95 135
61 95 134
60 94 139
60 95 140
60 94 134
58 92 125
60 95 139
59 94 135
60 95 137
60 94 134
60 95 135
60 94 133
60 95 131
59 93 133
59 93 134
59 94 134
59 94 133
59 93 133
59 94 129
59 93 128
60 94 129
59 92 139
61 95 137
59 93 134
58 92 133
58 92 124
60 95 142
60 94 138
61 95 141
59 93 133
60 93 136
59 93 133
60 94 132
59 92 136
58 90 123
59 92 132
59 93 134
57 91 119
58 91 119
60 93 131
57 89 120
58 91 139
58 90 131
57 90 126
59 92 122
56 87 125
56 87 109
56 88 132
58 91 135
56 88 118
56 87 121
55 86 124
55 84 112
54 84 110
56 86 119
53 82 106
51 80 102
52 79 105
46 70 89
66 70 56
58 58 30
54 54 28
46 49 30
51 54 25
34 38 19
44 50 30
51 55 36
40 47 30
44 53 36
53 58 33
54 60 34
61 66 37
77 81 48
66 71 40
78 82 47
73 77 46
90 93 55
77 83 45
98 98 47
95 97 55
98 99 52
99 100 51
103 104 52
117 117 56
112 113 62
120 119 61
113 113 61
121 119 62
126 124 67
119 118 63
137 134 67
127 126 68
137 135 76
133 132 72
133 130 67
138 135 73
132 131 69
145 141 73
137 135 71
144 140 63
133 132 65
147 144 79
149 146 77
146 143 76
154 150 80
152 148 73
152 149 70
156 152 82
154 149 75
152 147 76
155 151 81
159 154 76
158 151 83
161 156 82
164 158 84
154 149 70
159 154 72
159 154 80
168 161 87
161 155 87
163 158 77
169 162 88
166 160 78
165 158 76
165 159 80
167 160 84
167 161 79
161 156 74
165 159 78
166 160 80
165 159 80
164 158 80
169 162 85
168 161 82
170 163 82
168 160 83
166 160 79
165 158 81
168 162 78
169 162 82
163 158 71
167 161 83
167 160 81
173 166 85
164 158 76
166 160 83
166 160 76
166 160 75
168 162 80
168 162 78
164 157 80
165 158 77
169 162 83
163 158 75
165 158 83
169 162 86
170 162 84
169 162 85
171 163 81
169 162 81
165 159 79
168 162 85
165 159 76
168 161 82
165 159 83
168 162 87
169 162 84
168 161 83
167 160 81
166 159 82
161 155 78
163 157 80
165 159 76
163 156 76
166 159 80
167 159 80
160 154 78
170 164 85
160 155 76
162 156 80
160 154 75
155 150 72
165 159 80
162 155 75
159 153 77
159 153 75
164 157 80
156 151 63
156 150 74
159 153 76
158 153 75
158 153 73
154 149 61
158 152 79
156 150 73
159 152 78
160 152 80
160 153 80
155 149 76
151 145 71
163 158 82
153 148 74
161 155 79
159 153 79
163 156 82
155 149 80
158 152 79
161 154 87
223 236 255
222 236 255
222 236 255
223 236 255
222 236 255
223 236 255
222 236 255
222 236 255
222 236 255
223 236 255
221 235 255
222 236 255
223 236 255
223 236 255
221 235 255
221 235 255
221 235 255
220 234 253
222 236 255
221 235 254
222 236 255
221 235 254
220 234 254
222 236 255
222 236 255
222 236 255
220 234 254
221 235 255
222 236 255
221 235 255
223 236 255
222 236 255
223 236 255
222 236 255
222 236 255
222 236 255
221 235 252
221 235 253
221 235 253
222 236 255
222 236 254
222 236 254
222 236 254
221 235 250
222 236 254
222 236 255
219 233 248
219 233 252
217 232 247
218 232 248
218 232 251
211 226 242
211 225 243
210 225 233
213 227 243
212 227 243
214 229 245
213 227 237
213 228 243
213 227 240
217 231 246
214 229 240
211 226 236
215 229 240
213 228 244
214 229 236
212 226 241
214 229 244
212 226 241
214 229 242
206 221 232
210 225 239
209 225 234
214 228 240
218 233 249
215 229 242
220 234 249
218 233 245
219 234 248
219 234 248
220 234 249
218 233 242
216 231 241
216 231 238
219 233 245
217 232 241
219 233 246
219 233 244
220 234 248
220 234 249
218 233 245
218 232 241
220 234 249
215 231 237
219 234 246
219 233 246
217 232 240
219 234 248
219 233 245
219 233 246
217 232 241
219 233 246
218 232 242
219 234 248
219 233 245
217 232 241
219 233 245
214 229 236
219 233 246
219 233 246
217 231 244
214 229 242
215 230 243
216 231 244
216 230 246
217 230 248
215 229 249
219 233 252
212 226 246
215 229 250
214 228 250
211 225 244
215 229 248
213 227 248
213 227 246
215 229 249
209 223 242
210 224 243
216 230 249
212 226 246
219 232 252
216 229 250
214 228 245
217 230 250
217 231 250
216 230 250
217 231 248
207 222 236
160 177 190
72 102 134
62 95 132
166 183 189
211 225 244
212 225 243
215 228 246
205 219 240
203 217 235
213 227 245
184 199 223
58 91 123
59 93 125
59 94 126
58 93 125
59 94 137
59 93 120
60 95 129
58 92 124
58 91 113
60 94 136
59 94 133
60 94 130
60 95 126
59 93 128
59 94 137
59 94 131
58 92 121
58 92 128
58 93 134
60 95 136
60 95 131
61 96 136
59 94 134
60 95 136
59 93 131
60 94 126
58 92 128
60 94 135
61 95 130
59 94 128
60 94 129
60 94 129
59 93 120
60 95 134
60 94 133
59 94 129
61 95 134
61 96 139
60 94 135
59 93 121
60 95 137
59 93 126
59 93 117
58 92 125
60 94 129
60 95 137
59 93 129
58 91 122
61 95 141
60 94 129
61 95 147
61 97 144
59 94 131
60 94 133
59 93 126
59 93 136
60 94 131
59 93 136
58 91 125
59 93 137
59 94 135
60 94 132
60 95 137
58 92 126
59 93 126
59 94 125
61 95 140
59 93 129
60 94 130
59 92 120
58 91 129
59 93 129
61 95 142
58 92 129
59 93 128
57 90 122
59 92 128
60 93 139
56 89 117
59 92 137
59 91 125
58 91 132
58 91 129
61 94 135
57 90 118
59 93 137
57 88 121
59 91 135
57 88 123
57 90 124
57 89 122
57 89 129
55 86 124
54 84 102
54 84 118
53 83 112
57 88 122
54 85 117
53 82 116
52 79 100
53 81 106
46 71 75
64 71 53
76 75 38
58 58 25
51 51 14
55 58 29
56 58 26
48 51 28
46 50 22
49 54 30
52 57 28
61 66 37
56 61 36
65 70 39
63 69 38
71 75 40
82 85 45
83 85 47
88 91 50
92 93 53
85 88 47
91 92 51
109 109 61
108 109 59
107 108 54
115 114 64
103 104 53
110 109 60
118 117 64
125 124 66
112 113 58
111 112 57
131 130 66
128 127 70
134 131 65
131 130 67
127 125 68
129 127 66
137 135 73
140 138 76
149 144 77
141 138 74
131 129 65
146 143 76
152 147 78
150 146 74
156 151 79
150 145 79
148 144 70
156 151 78
150 147 74
144 141 63
161 155 82
163 158 83
160 154 83
153 148 80
155 151 77
160 154 75
162 156 80
158 152 77
159 153 77
158 153 79
161 154 79
158 152 74
164 157 81
164 158 79
161 155 76
161 156 81
167 160 82
164 157 75
168 161 81
163 157 73
170 164 84
168 162 84
165 159 79
164 158 76
167 161 77
164 158 77
165 159 84
168 161 82
165 159 80
169 162 82
169 162 84
167 161 84
167 161 80
168 161 82
169 163 87
164 158 77
169 162 84
170 164 88
168 162 84
169 163 79
172 165 88
173 165 87
168 160 78
163 157 79
168 161 84
160 154 69
168 162 80
162 156 75
165 159 80
165 159 79
165 159 82
165 159 80
165 158 79
165 159 79
163 157 75
164 158 77
167 160 80
163 156 80
165 159 82
164 157 78
164 157 81
160 155 82
164 157 80
161 154 80
167 161 80
166 159 80
160 154 75
166 159 78
160 153 75
161 156 75
162 156 75
156 151 70
166 160 81
161 155 77
160 153 77
158 153 75
158 150 79
151 147 73
162 156 79
158 152 73
165 158 84
156 149 80
161 154 82
160 154 76
161 154 78
160 152 73
152 146 69
157 151 73
160 154 80
159 152 75
155 149 71
158 152 75
161 154 78
155 149 70
156 150 75
155 148 75
157 150 80
153 148 68
223 236 255
223 237 255
223 236 255
223 236 255
223 236 255
222 235 255
223 236 255
223 236 255
223 236 255
223 236 255
223 236 255
223 236 255
223 236 255
222 236 255
223 236 255
222 236 254
222 236 255
221 235 252
221 235 254
223 236 255
221 235 252
221 235 252
222 236 253
221 234 251
219 233 249
221 235 252
221 235 249
220 235 250
222 236 253
219 233 248
220 234 249
220 234 246
220 234 248
220 234 246
220 235 250
221 235 250
219 234 245
219 233 245
221 235 250
220 234 248
220 234 248
222 236 253
219 233 246
219 233 244
219 234 246
217 232 241
218 233 242
215 230 242
216 231 240
214 229 236
217 232 244
213 228 244
214 228 238
207 222 235
210 225 235
212 227 244
211 226 240
216 230 245
210 225 236
216 230 241
211 226 238
213 228 239
214 228 243
213 227 242
212 226 239
214 229 242
212 227 237
212 227 240
207 222 235
206 221 228
214 229 239
211 226 237
213 227 236
215 230 237
214 229 241
217 232 240
218 233 245
215 230 236
218 233 244
218 233 244
219 234 246
220 234 248
219 234 248
218 233 245
220 234 248
219 234 246
218 233 245
218 233 244
219 233 245
219 234 248
221 235 250
218 233 244
219 233 244
218 233 244
219 233 245
216 231 238
217 232 241
220 234 249
218 233 244
219 233 244
220 234 248
218 233 242
220 234 249
219 233 245
219 233 245
219 233 245
220 234 248
217 232 242
218 233 242
221 235 249
217 232 240
218 232 247
215 230 246
217 232 248
216 230 247
217 231 251
214 228 248
213 227 245
214 228 248
213 227 245
213 226 246
211 225 245
208 222 241
213 227 247
214 227 246
218 232 252
217 231 251
215 229 248
212 226 246
208 222 242
216 230 248
217 230 249
218 232 251
214 228 248
214 227 241
198 214 207
191 208 179
181 201 151
124 145 136
62 94 118
74 102 127
164 186 81
183 202 137
202 218 214
213 227 246
210 223 240
205 219 238
220 234 252
199 213 234
59 94 131
59 94 131
56 89 113
61 96 141
59 93 131
61 96 137
58 92 121
60 94 124
61 96 141
60 94 131
59 94 128
58 92 118
60 94 136
59 93 124
59 93 130
59 93 126
60 95 134
59 93 133
60 94 129
61 96 140
60 95 136
59 94 124
60 94 133
58 92 115
59 94 124
59 93 126
59 93 130
60 95 139
60 95 136
61 95 135
60 95 135
61 95 131
59 94 133
60 94 133
61 96 137
60 95 135
60 95 141
59 93 129
60 95 136
59 94 126
59 94 129
60 95 141
59 94 129
58 92 121
60 94 130
59 93 129
59 93 124
59 94 133
59 93 125
59 93 129
60 94 131
59 93 131
59 93 133
60 94 134
59 93 129
59 94 125
59 94 131
60 94 141
61 95 137
61 96 141
60 94 135
60 93 128
59 92 127
59 93 131
59 93 136
59 93 122
60 94 135
59 93 134
60 94 131
58 91 123
60 95 133
60 94 126
58 92 120
60 94 140
58 91 124
59 92 136
59 93 137
59 92 126
58 92 134
57 90 115
59 92 129
58 91 129
59 92 127
58 90 121
56 88 123
57 89 118
58 91 127
58 91 122
57 89 135
56 88 118
57 89 123
56 87 114
57 87 115
56 87 120
56 86 109
58 90 130
55 84 111
53 82 110
52 80 95
51 79 101
48 74 88
49 75 98
74 78 64
77 75 31
67 66 30
47 48 18
52 54 26
48 51 26
42 45 19
50 54 23
43 50 24
45 52 36
48 55 34
57 63 41
64 68 38
65 68 36
64 68 39
74 78 45
81 84 46
82 84 45
79 83 48
94 97 59
110 110 56
90 91 45
98 100 56
108 109 60
109 111 52
106 107 57
114 113 60
123 122 67
117 116 56
128 126 62
130 129 72
123 122 65
127 124 64
136 134 69
136 133 64
132 129 65
135 134 64
139 136 68
142 139 63
140 138 67
136 134 71
147 144 76
144 142 77
143 140 71
148 143 69
148 144 77
153 149 82
153 148 76
149 145 71
151 147 75
158 152 75
152 148 71
157 152 73
156 151 73
161 155 81
152 147 70
156 151 76
161 156 73
160 155 74
162 157 77
167 161 81
165 159 81
167 160 82
158 154 77
155 150 70
166 159 87
165 158 80
166 160 79
162 157 78
165 158 80
162 156 77
167 160 77
164 159 77
169 162 86
157 152 74
171 163 84
169 162 89
165 159 70
167 160 78
163 156 73
167 160 83
167 160 75
171 164 79
164 158 74
168 161 81
161 155 73
164 159 78
164 158 76
160 154 70
171 163 83
166 160 76
164 157 75
166 160 83
171 164 84
171 164 84
166 159 80
161 154 78
164 158 73
165 159 79
164 158 76
168 161 83
162 156 79
163 156 80
166 159 81
164 157 77
161 155 76
162 156 76
168 161 81
164 158 75
167 160 82
170 163 82
157 151 70
167 160 80
160 154 78
166 159 80
167 160 80
168 161 80
164 157 75
163 157 75
158 153 71
162 156 75
155 150 66
159 154 77
157 152 75
161 154 80
163 156 83
162 154 76
160 154 80
158 152 76
160 153 79
157 152 75
165 158 84
158 153 73
158 151 75
158 152 77
161 154 73
162 154 81
161 154 76
157 151 79
160 153 79
150 145 75
160 153 80
155 148 72
154 148 69
156 150 74
152 146 70
152 146 76
157 151 75
155 150 75
223 237 255
223 237 255
223 237 255
223 236 254
223 236 254
221 235 249
222 236 253
223 236 254
222 236 253
223 236 254
219 233 244
221 235 250
220 234 246
222 236 252
222 235 252
221 235 249
216 230 236
220 234 245
218 232 241
218 233 248
220 234 250
219 234 245
219 233 246
220 234 246
219 233 250
219 234 246
221 235 252
218 233 242
220 234 249
219 233 245
217 231 236
220 234 248
218 233 242
221 235 250
220 234 248
219 234 246
220 234 249
219 234 246
217 232 241
221 235 252
220 234 249
218 233 242
218 233 242
220 234 249
218 232 240
220 234 246
220 234 246
217 231 243
215 230 237
214 228 242
218 233 246
216 231 242
215 229 247
213 227 241
216 231 244
211 226 240
208 223 232
209 224 238
211 226 234
215 229 245
210 225 236
219 233 246
217 231 246
216 230 241
211 225 239
214 228 240
211 225 238
213 227 242
209 223 239
213 228 236
213 228 243
210 225 236
215 229 246
212 227 239
219 234 251
219 233 244
219 234 248
218 232 241
221 234 248
218 233 244
218 232 242
218 233 245
217 231 238
219 233 242
219 233 245
220 234 248
220 234 248
219 233 246
219 233 246
219 233 245
218 233 244
217 232 241
217 232 240
221 235 250
218 233 242
219 234 246
218 233 242
222 235 252
220 234 249
216 231 238
216 231 238
217 231 242
221 235 249
220 234 249
217 231 238
219 233 244
219 234 248
219 234 245
218 232 245
221 234 249
219 232 245
217 231 247
217 231 248
219 233 250
217 231 245
217 231 248
215 228 245
214 228 246
212 226 246
211 225 244
218 232 250
209 223 240
216 230 251
217 231 251
213 227 246
214 228 247
214 227 246
214 228 247
213 227 246
217 231 250
213 228 241
203 219 215
202 219 200
184 204 147
174 196 107
177 198 114
184 205 121
182 202 135
103 127 127
63 95 117
102 128 118
170 193 58
170 193 57
167 191 78
188 206 165
209 222 241
208 222 238
216 231 234
198 213 230
57 91 122
59 94 129
59 93 128
58 93 133
60 94 131
59 93 125
60 94 116
60 95 129
58 92 118
59 93 128
60 94 136
59 93 128
59 93 118
60 95 131
58 93 124
60 95 135
60 95 142
60 94 128
60 94 131
60 95 137
60 94 133
59 94 137
60 95 130
59 93 130
58 92 115
60 94 130
60 95 129
59 93 118
61 96 137
59 94 134
59 93 126
60 95 137
59 94 130
59 93 121
60 95 125
60 94 126
60 94 124
60 94 130
59 93 128
58 92 117
59 93 131
59 93 126
58 92 125
61 95 140
61 95 140
60 94 134
59 93 129
60 95 142
60 95 131
59 93 122
59 93 130
59 93 122
60 94 139
59 93 125
59 93 128
61 96 140
60 93 124
59 93 126
60 95 139
61 96 135
59 93 130
59 93 126
59 93 124
58 91 129
58 92 128
59 93 126
59 93 134
59 92 133
58 91 126
61 95 139
60 94 141
58 92 127
60 94 134
58 92 124
59 93 132
59 92 131
58 92 115
59 92 134
58 90 123
58 91 134
59 92 125
58 91 128
58 92 123
57 90 115
57 89 121
57 89 123
57 90 131
56 87 115
57 89 117
57 89 120
57 89 123
56 86 114
56 87 121
56 86 113
56 88 127
56 87 120
54 84 109
53 81 109
49 75 94
49 74 95
52 80 108
48 72 93
97 96 60
80 78 40
68 67 21
52 53 22
41 44 16
37 40 12
34 40 18
42 47 24
45 50 23
62 64 25
51 56 28
49 54 28
52 58 29
75 78 40
72 75 40
79 81 47
80 83 45
82 85 45
83 86 49
81 82 45
91 95 51
94 96 53
112 112 58
107 108 52
110 109 58
106 107 57
115 114 63
114 112 57
117 117 58
114 113 55
116 116 55
126 125 67
133 130 67
128 126 63
136 132 72
138 135 62
137 133 63
137 134 73
127 126 56
137 134 66
150 146 71
146 142 69
148 144 75
140 138 69
146 141 73
151 145 74
148 144 65
153 149 72
155 150 76
151 147 70
151 146 72
156 151 75
151 147 62
147 142 69
166 160 83
159 154 81
161 155 73
161 156 81
158 153 69
157 152 70
165 158 78
163 156 79
154 150 68
165 158 84
166 159 83
160 154 77
164 158 78
167 160 80
168 163 83
158 153 69
166 159 88
163 157 77
168 162 83
167 161 82
164 158 75
163 156 73
169 163 81
164 158 75
171 163 86
163 157 71
164 158 74
164 158 75
161 156 71
164 159 79
166 160 76
167 160 82
164 158 80
163 157 73
167 161 79
170 163 81
166 161 78
170 163 80
171 164 82
165 158 79
162 157 70
169 162 89
168 162 77
165 158 75
164 157 79
168 161 75
167 160 81
168 160 79
168 161 77
165 159 80
162 156 77
171 163 86
162 156 79
160 154 75
171 164 85
164 158 80
162 155 75
169 162 84
162 156 75
162 157 76
167 160 78
153 147 68
162 156 72
166 159 81
161 154 75
167 160 87
163 157 75
164 158 80
147 142 66
165 158 84
158 152 76
165 158 77
153 148 74
157 151 79
156 150 71
161 154 74
159 154 79
157 150 73
158 152 73
160 154 71
155 149 71
163 157 80
155 148 77
157 151 69
160 153 75
159 154 74
165 158 85
157 150 72
162 154 80
161 154 75
155 149 70
154 148 79
156 149 77
154 149 74
162 155 81
220 234 245
218 233 241
221 234 246
219 233 244
219 233 244
220 234 246
220 234 245
221 235 248
220 234 248
220 234 250
222 236 253
219 234 244
217 232 237
220 234 245
219 233 244
220 234 248
219 233 244
219 233 242
218 232 242
220 234 244
220 234 245
217 232 242
217 231 239
220 234 248
219 233 242
218 232 244
219 233 245
219 234 245
219 233 242
215 229 236
218 232 246
218 233 241
220 234 248
220 234 245
221 235 250
219 233 244
219 234 245
220 234 245
219 233 244
219 233 245
220 234 248
220 234 246
217 232 242
219 234 246
220 234 248
220 234 246
218 232 240
219 234 245
221 235 249
212 227 233
213 227 237
219 233 246
218 232 246
210 225 234
208 223 238
216 230 242
215 229 237
213 228 244
217 231 245
213 227 239
214 228 241
211 225 238
209 224 230
207 222 233
212 227 236
211 226 237
216 230 246
217 230 246
211 226 240
219 233 248
211 226 238
213 227 241
216 230 241
215 230 237
219 233 245
218 232 241
218 233 242
218 233 242
219 233 244
220 234 248
217 232 240
219 233 244
220 235 250
218 233 244
218 233 244
219 234 248
220 234 249
220 235 250
217 232 241
219 233 244
219 233 244
219 233 245
219 233 244
221 235 250
218 232 241
218 233 244
217 232 241
221 234 249
218 233 245
218 232 240
219 234 248
219 233 248
220 234 249
221 235 248
220 234 248
219 233 244
215 230 238
215 229 240
220 234 245
217 232 247
218 232 242
218 232 245
221 234 250
213 227 242
216 229 245
217 231 248
220 233 248
215 229 246
218 232 251
215 229 246
217 231 249
218 231 249
218 231 251
212 226 245
210 224 234
204 220 222
196 214 188
196 213 181
186 205 150
179 200 105
173 195 81
168 191 82
174 197 94
177 199 90
176 198 102
173 195 115
188 208 140
175 195 136
62 94 108
66 97 121
141 165 92
170 194 36
168 192 40
163 187 46
166 189 51
191 208 179
206 220 228
210 226 215
210 224 239
59 94 129
57 90 110
58 92 135
58 92 124
56 90 118
59 93 130
59 93 125
59 93 122
59 94 124
58 91 126
60 94 126
60 94 137
58 93 125
59 93 125
60 95 141
60 94 124
59 94 129
60 94 133
59 93 131
59 94 129
61 95 137
60 94 134
59 93 128
59 93 126
59 93 120
58 93 122
60 95 134
60 94 125
59 94 126
60 94 137
59 93 126
59 93 125
60 94 131
59 93 126
59 93 126
59 93 128
59 93 122
60 94 129
58 92 117
58 92 117
60 94 130
59 93 134
59 93 126
59 93 126
59 93 126
60 95 131
58 93 130
59 93 115
60 95 136
59 93 136
60 95 131
59 93 129
59 93 129
58 92 126
60 94 134
61 96 141
59 93 135
58 92 130
59 93 128
59 93 129
61 95 134
58 91 138
59 93 124
60 94 133
60 93 125
60 94 134
59 93 130
61 95 130
59 92 127
59 93 134
59 92 124
60 93 128
58 92 126
57 90 114
58 91 122
60 93 128
58 91 131
58 91 127
59 93 130
59 92 137
59 93 129
58 91 117
57 90 114
56 88 113
57 90 121
57 90 121
57 89 111
57 88 118
56 88 123
56 88 118
58 91 125
56 88 119
54 85 100
54 84 107
55 86 112
53 82 110
53 83 113
54 83 112
51 79 105
51 77 103
48 73 95
46 69 78
144 150 150
84 82 34
66 64 18
63 64 27
50 52 24
39 43 18
42 48 24
50 53 20
53 56 25
45 52 30
46 52 26
42 49 26
57 61 30
58 63 33
71 74 40
67 72 34
77 80 42
86 87 46
94 95 44
88 90 42
94 97 51
95 97 45
109 109 54
96 98 50
106 107 56
100 101 54
103 102 57
123 121 62
125 123 57
118 117 57
115 114 57
122 121 58
123 122 57
130 129 67
139 136 70
131 129 60
128 127 64
134 132 62
143 139 69
135 132 65
142 138 64
149 144 71
145 141 72
149 145 71
145 141 67
143 139 72
153 147 74
138 136 62
146 142 70
158 152 77
149 144 68
153 149 73
144 141 67
155 150 75
156 152 77
155 150 78
158 152 72
154 150 74
161 156 79
154 148 67
157 153 74
160 155 78
158 152 72
161 155 76
159 153 80
165 159 81
160 155 77
161 155 75
160 155 77
161 155 72
159 153 75
164 158 76
165 159 76
165 159 77
162 156 74
167 160 78
161 156 73
165 158 75
171 163 84
167 161 80
163 157 76
167 161 78
166 160 74
169 162 87
164 158 79
167 160 80
166 159 79
163 157 71
159 153 74
163 157 72
168 161 81
162 156 71
165 159 77
170 163 82
158 153 68
160 154 72
163 158 76
162 156 75
165 159 75
166 159 82
164 157 76
164 158 71
165 159 79
164 158 79
161 155 75
165 159 80
161 154 75
163 157 80
164 159 76
160 154 73
160 153 74
162 157 72
165 158 75
164 156 74
157 151 75
167 160 84
161 154 77
160 155 72
159 154 71
161 155 75
159 153 70
156 150 75
163 157 75
162 156 79
156 151 75
156 150 68
158 151 74
160 154 69
165 158 84
163 156 84
159 151 77
161 154 81
155 150 71
159 152 77
154 148 69
157 150 76
157 150 75
157 152 71
160 154 76
158 152 80
151 145 67
154 149 69
156 149 76
157 150 76
154 148 75
155 148 77
149 143 68
154 147 68
152 146 67
222 236 252
221 234 246
218 232 238
221 234 250
222 235 249
216 231 236
218 232 240
221 234 246
219 233 242
220 234 245
219 233 246
219 233 242
219 234 244
221 235 248
221 234 246
219 233 242
217 232 240
219 233 246
218 232 240
221 235 248
222 235 250
219 233 248
216 230 238
218 232 243
218 232 240
219 233 246
220 234 252
219 233 247
217 231 238
213 228 231
220 234 245
221 235 248
220 234 246
220 234 246
219 234 245
218 232 244
222 235 250
220 234 246
220 234 248
220 234 248
218 233 241
220 235 250
219 233 244
221 235 250
218 232 241
220 234 246
220 234 246
222 236 252
220 234 246
216 231 241
214 229 238
215 230 239
213 228 236
216 231 242
215 229 239
212 227 236
213 227 235
217 231 247
215 229 241
212 226 240
215 229 241
213 227 236
217 231 242
211 225 240
215 229 244
212 226 244
212 226 238
211 225 239
215 229 242
213 228 240
216 230 244
216 230 244
217 232 241
219 233 242
220 235 250
219 233 246
219 234 246
219 234 245
220 234 246
219 233 242
217 232 240
220 234 245
219 234 246
219 234 246
219 234 245
220 234 249
219 233 246
217 231 241
217 232 238
223 236 254
218 232 242
220 234 250
218 233 242
220 234 248
219 233 244
219 234 246
221 234 249
218 232 241
220 234 249
220 234 244
218 233 245
218 232 242
220 234 246
216 231 238
216 230 240
217 231 241
219 233 241
219 233 248
218 232 244
219 233 246
220 234 249
219 232 246
217 230 244
216 229 244
217 230 248
217 231 246
212 226 230
208 223 226
202 218 205
200 217 195
192 211 174
187 206 144
184 204 142
182 203 102
172 195 88
168 190 76
171 194 67
171 194 74
175 198 84
177 199 95
174 197 84
175 197 82
173 195 78
173 196 103
180 201 107
176 197 122
186 206 139
160 181 105
71 101 95
76 105 112
164 187 40
170 193 47
174 196 54
163 187 51
168 191 62
167 188 110
204 220 213
210 226 215
219 233 244
78 106 129
58 93 125
59 94 134
58 93 125
60 94 133
59 93 131
59 94 133
60 94 132
59 92 128
59 93 125
59 94 117
59 93 124
59 93 126
59 93 132
58 93 121
60 95 137
61 96 137
59 93 122
60 95 128
59 93 125
58 91 118
59 94 126
59 93 134
59 92 125
59 94 131
59 93 129
59 94 134
61 96 135
59 93 124
59 94 125
59 94 129
60 95 131
60 95 131
59 94 125
59 93 114
59 93 122
59 93 124
59 93 126
59 93 113
60 95 137
58 92 125
58 91 137
61 95 141
60 95 142
61 95 142
58 93 124
59 94 129
60 94 137
57 91 120
59 94 131
58 92 125
58 92 126
59 94 130
59 92 133
60 94 135
58 91 125
59 93 126
59 94 130
59 93 126
59 94 133
60 94 129
59 92 126
59 93 118
57 90 101
58 92 120
60 94 134
60 93 128
59 93 132
58 91 119
57 90 108
58 91 125
58 92 125
59 93 121
59 92 127
58 91 121
58 92 125
58 92 117
57 89 116
58 92 127
57 90 120
57 90 126
58 91 127
57 89 120
58 90 126
58 90 118
58 90 116
56 87 98
58 90 124
55 85 116
57 90 127
55 86 107
56 87 118
54 84 114
55 86 112
54 84 107
53 82 106
51 80 101
52 80 101
53 82 105
51 79 103
51 79 102
65 83 88
179 188 192
74 72 32
67 66 32
52 52 16
58 59 24
47 50 19
46 48 10
41 46 14
49 52 17
52 55 26
53 57 26
62 64 27
67 71 30
56 59 25
77 82 45
80 82 44
79 82 35
69 72 35
89 92 47
89 89 50
104 104 52
99 101 50
91 92 47
108 107 52
102 102 55
100 101 54
99 100 51
120 119 59
121 118 54
122 119 58
116 115 61
127 126 60
126 124 64
130 129 60
123 121 60
130 127 58
134 132 74
133 131 62
140 137 65
148 144 65
143 140 66
143 138 68
144 140 69
139 135 66
147 144 69
140 137 65
149 144 71
153 147 76
147 143 74
152 147 72
144 140 71
150 145 67
148 143 69
150 145 69
151 146 76
156 151 72
156 150 73
154 149 69
163 157 71
158 153 74
158 152 72
162 156 78
162 156 79
164 159 72
161 154 76
167 160 78
163 158 78
155 149 70
165 158 75
164 158 74
163 157 74
162 156 74
159 154 70
158 153 72
165 158 78
168 160 80
166 160 74
169 162 82
161 155 67
165 159 81
163 157 71
167 160 80
163 158 75
164 157 81
165 158 77
165 160 75
166 161 75
164 157 73
163 157 73
165 159 80
163 156 71
167 160 76
160 155 71
161 155 67
166 160 75
160 154 70
161 156 71
163 157 72
163 157 79
168 161 80
168 162 80
168 162 78
163 157 78
163 158 78
168 162 77
166 160 73
169 162 80
168 161 79
161 155 74
161 156 70
159 154 68
163 157 75
162 155 79
165 157 80
157 151 72
171 163 84
168 161 80
163 156 73
162 155 74
161 154 74
160 153 78
158 152 75
163 157 73
162 156 79
161 154 85
161 155 75
160 154 71
163 157 75
158 152 77
159 152 73
165 157 85
157 151 77
155 149 70
158 152 69
165 158 78
151 146 64
155 150 65
161 154 76
165 158 83
153 147 65
160 153 77
147 142 69
155 149 70
156 149 77
160 152 81
156 150 69
159 153 78
156 150 78
153 147 71
217 232 234
219 233 240
219 233 242
221 235 246
222 235 250
220 234 245
218 232 237
222 235 249
222 236 250
221 235 249
219 233 242
219 233 242
221 235 248
217 232 238
221 235 246
221 235 248
222 235 250
220 234 246
221 235 246
220 234 248
222 236 252
219 233 244
217 231 238
220 234 245
218 232 242
221 235 252
219 233 243
220 234 244
219 233 244
219 233 241
216 231 237
219 233 244
217 231 241
219 233 243
218 233 242
222 235 250
219 233 242
221 235 250
220 234 245
219 233 242
220 234 248
221 234 246
218 233 242
219 234 245
219 233 242
221 235 249
219 233 244
220 234 249
221 235 250
220 234 246
220 234 246
221 234 250
214 228 242
217 231 246
221 234 251
218 232 243
213 227 236
213 227 240
216 230 240
214 228 237
211 225 239
214 228 242
213 228 238
211 225 242
208 223 237
213 227 240
214 229 237
208 222 228
214 228 240
214 228 238
219 233 251
219 233 245
217 232 240
221 235 249
221 235 248
219 234 246
222 236 253
220 233 245
219 233 245
220 234 246
220 234 248
218 232 241
218 232 242
215 230 237
220 234 249
219 234 245
217 232 241
219 233 242
219 233 244
217 231 241
218 232 242
222 236 252
220 234 248
219 233 246
220 234 248
219 233 242
217 231 241
219 233 242
218 233 244
219 233 245
220 234 249
216 230 241
222 236 252
219 233 241
215 229 234
209 225 214
206 221 212
204 221 199
203 219 193
197 214 177
199 216 181
189 208 147
185 205 133
181 202 122
177 200 94
175 197 60
172 194 60
171 193 72
171 194 62
170 193 65
171 194 62
170 192 67
173 196 72
174 197 65
171 194 51
172 195 86
173 195 98
168 191 57
173 196 72
169 191 100
163 186 84
172 194 82
175 198 90
170 192 95
176 198 113
182 202 138
177 198 114
138 160 121
65 96 110
131 154 81
166 190 25
167 191 0
165 188 46
174 196 40
164 187 54
164 187 78
214 228 223
205 222 201
221 235 246
115 135 160
57 91 126
57 91 122
60 94 128
58 91 110
58 92 120
57 91 118
60 94 130
57 91 121
59 94 133
59 94 130
58 93 121
59 94 133
59 93 125
59 93 111
60 95 137
59 92 125
60 94 143
58 92 122
58 92 122
60 95 135
59 93 131
58 92 114
59 93 133
59 93 126
57 90 111
60 94 130
60 94 134
59 93 124
60 94 130
58 92 129
57 91 117
59 93 124
59 93 129
59 93 129
60 95 135
59 92 124
58 92 121
58 91 125
57 91 118
57 90 117
59 94 122
60 94 121
61 96 134
59 94 133
59 93 113
59 93 121
60 95 130
59 93 126
59 93 130
60 95 136
59 93 126
59 93 134
60 95 136
60 93 126
58 92 128
59 93 122
59 93 130
59 93 126
56 89 117
60 94 134
59 94 135
59 93 126
58 91 118
59 94 135
58 93 124
57 89 117
58 91 125
58 92 121
58 92 126
59 92 127
59 92 128
59 93 120
58 92 126
59 93 129
59 92 125
59 92 127
58 91 123
59 92 124
58 92 123
57 90 120
59 92 124
59 93 127
58 90 126
58 90 113
56 88 124
56 88 118
56 88 130
58 90 119
58 89 118
57 89 124
57 88 117
57 88 125
55 85 109
52 80 94
56 86 122
55 85 108
56 86 115
52 80 101
52 81 109
48 74 93
119 132 145
196 206 218
91 89 38
77 76 27
62 61 23
52 54 16
68 68 16
41 45 18
62 64 25
59 62 19
47 51 21
51 55 23
52 59 30
57 61 22
74 75 33
66 69 33
73 76 32
84 86 38
85 85 43
82 84 39
88 90 47
90 90 48
89 93 44
96 97 42
90 91 43
108 108 54
116 115 58
112 111 47
105 105 56
114 114 50
111 111 57
129 126 55
122 121 58
123 120 59
122 121 49
139 136 68
132 130 66
128 126 62
136 132 65
125 122 58
140 137 68
131 128 61
138 135 72
138 135 66
144 141 66
143 140 60
150 145 75
138 135 63
137 134 64
153 148 77
151 146 72
150 146 69
148 143 64
151 146 65
157 152 75
154 149 76
153 148 71
156 151 66
151 145 66
158 152 71
164 158 78
157 152 70
161 155 79
156 151 67
159 153 72
155 151 66
159 153 75
158 152 72
162 157 69
160 153 78
163 156 73
158 153 69
164 157 76
165 158 77
163 157 75
166 159 82
164 157 77
157 151 68
162 157 67
160 154 73
170 162 86
165 158 77
165 159 73
161 155 68
159 154 68
161 155 70
165 158 75
166 161 78
166 160 78
160 155 72
165 159 75
164 157 75
162 156 78
158 152 69
164 158 75
167 160 75
166 159 76
167 160 80
166 159 75
165 159 70
160 155 67
160 154 68
165 158 76
165 158 81
169 162 78
161 154 75
167 161 78
157 152 73
164 158 75
162 155 78
159 154 74
159 153 70
158 152 71
160 154 74
165 157 77
157 151 75
157 151 69
158 152 74
163 157 72
160 153 64
158 151 74
160 154 74
159 153 71
162 156 75
152 146 70
165 158 80
160 155 73
163 156 75
150 144 67
160 155 73
155 149 67
161 155 80
162 156 79
160 155 68
164 158 77
154 148 71
147 142 63
152 147 73
151 145 64
149 143 62
151 145 72
157 151 74
158 152 75
156 149 80
157 151 73
149 143 67
157 150 71
159 153 80
161 154 78
154 148 75
187 208 130
187 208 122
191 211 142
196 215 163
197 215 165
200 217 183
206 222 199
211 226 214
216 231 234
220 234 244
220 234 245
220 234 245
223 236 252
218 232 242
219 232 241
220 234 245
218 233 240
221 234 245
219 233 244
219 233 246
220 234 247
220 234 246
220 233 246
220 234 248
222 235 248
219 233 244
216 230 239
220 234 245
221 234 246
221 234 246
218 232 244
222 235 250
220 234 246
221 235 250
219 233 242
219 233 242
220 234 245
220 234 244
220 234 244
222 235 250
221 234 246
219 233 242
220 234 246
219 233 242
218 232 240
218 232 240
218 232 240
220 234 246
217 232 238
221 235 249
220 234 246
216 231 234
220 234 246
219 233 244
219 233 248
217 231 242
217 231 241
213 228 239
214 228 239
216 230 240
217 231 243
215 229 238
212 226 240
216 230 242
209 224 236
211 225 238
211 225 236
216 230 241
217 231 239
216 231 234
221 235 249
219 233 241
223 236 253
217 232 240
220 234 245
218 232 241
220 234 244
220 234 245
216 231 238
220 234 248
218 232 240
221 234 246
219 234 244
221 235 248
221 235 250
218 232 241
216 231 234
217 232 240
213 228 226
211 227 226
213 228 224
207 224 212
206 223 201
207 224 207
200 219 188
200 218 179
199 216 181
191 211 149
186 206 133
188 208 135
179 201 95
182 204 105
178 201 92
173 196 44
174 198 57
173 197 62
176 199 62
175 197 62
174 196 51
173 197 57
178 201 80
175 198 57
174 196 51
166 189 54
170 193 62
173 196 65
172 195 51
172 195 78
173 197 92
168 191 72
170 193 70
173 195 86
170 193 105
172 194 90
176 199 97
167 190 70
176 199 72
171 195 76
171 194 60
172 195 76
174 197 94
172 195 95
172 195 99
174 196 103
178 198 124
177 198 117
178 200 114
94 120 113
91 117 90
167 190 25
164 188 36
170 192 0
167 189 31
163 186 47
164 187 62
167 190 74
205 222 196
202 220 193
222 235 249
142 159 174
56 89 105
58 91 118
59 93 130
59 93 133
59 94 122
59 93 121
58 92 111
59 93 130
57 91 115
59 93 130
60 94 135
60 95 129
60 94 124
58 92 121
59 93 130
58 92 120
58 91 124
57 91 115
59 93 120
59 92 125
56 89 105
58 92 126
59 93 134
59 93 126
60 94 136
58 92 121
60 94 124
60 94 129
61 95 143
59 93 133
60 94 129
59 94 128
60 95 134
59 94 133
59 93 130
58 92 118
60 95 130
59 93 124
60 94 124
60 94 131
60 94 134
60 94 141
59 93 131
59 94 126
60 94 139
58 92 129
60 94 130
58 92 121
59 93 122
59 93 122
59 93 122
60 94 122
58 91 124
60 94 131
59 93 120
58 92 117
60 94 131
59 93 135
58 92 125
59 93 120
58 91 122
58 91 113
58 90 109
60 94 135
58 91 122
57 89 121
57 90 120
58 91 125
59 93 138
58 92 126
59 93 128
60 93 128
59 92 125
59 93 121
60 93 128
59 92 131
58 92 130
58 91 127
58 91 126
59 92 128
57 89 125
56 88 117
57 89 121
58 90 123
58 91 124
57 89 113
58 90 121
55 87 110
56 88 120
57 88 124
58 89 127
54 83 102
54 83 114
57 89 126
52 80 98
52 80 103
50 78 93
53 82 103
50 77 94
47 71 82
146 159 175
222 234 252
83 82 33
87 85 37
62 61 25
47 49 18
48 52 13
47 48 17
52 56 17
65 68 21
51 54 19
61 64 15
52 55 21
66 69 27
59 65 24
73 74 29
61 66 24
80 83 38
75 77 25
76 78 38
65 70 35
85 88 44
99 101 43
104 105 47
105 104 51
110 109 53
102 102 39
112 113 52
113 111 50
119 118 58
111 110 46
116 115 56
121 119 55
122 121 59
124 121 59
130 127 66
140 137 63
129 126 55
133 129 60
140 137 66
132 130 54
137 134 60
148 143 69
143 138 65
135 133 64
139 135 64
146 141 69
146 141 70
146 142 66
149 145 73
154 149 71
148 143 64
153 148 71
153 148 74
155 150 71
160 155 76
154 150 76
157 151 76
158 153 74
156 151 70
152 147 70
153 149 66
155 150 71
160 155 71
159 153 74
154 149 68
151 146 63
162 155 70
155 149 68
157 152 67
154 150 68
161 155 73
162 156 76
162 156 68
158 153 71
162 156 75
161 154 74
165 159 78
164 157 78
161 155 72
163 157 70
159 154 70
164 158 77
169 162 82
163 157 68
159 154 70
165 158 78
164 157 76
163 158 69
167 161 79
165 158 74
162 156 69
165 159 71
160 154 73
168 161 78
156 150 68
166 159 75
162 155 71
160 154 68
162 156 75
162 157 79
163 156 80
164 157 80
158 152 71
162 155 71
164 156 77
164 158 75
164 158 76
161 155 77
156 150 69
164 159 72
158 153 74
167 159 75
166 159 77
162 155 75
165 158 83
160 153 75
161 155 72
155 150 66
155 150 71
160 154 73
161 154 72
163 155 75
160 154 75
157 152 73
165 158 79
155 149 70
154 148 64
158 151 68
162 155 75
160 153 75
158 151 75
154 148 73
158 151 75
165 158 78
155 150 73
154 148 68
159 152 75
157 151 73
159 153 74
158 152 77
154 149 66
161 154 75
156 149 71
154 148 66
163 155 78
153 148 69
154 148 75
156 150 68
156 148 75
192 211 147
182 204 102
181 203 110
182 204 102
182 204 102
183 205 117
182 203 92
181 203 99
181 203 88
181 203 95
182 204 102
184 205 105
191 211 147
190 210 137
198 216 175
196 214 161
195 214 164
197 215 167
200 218 181
206 222 203
209 225 214
209 225 207
215 230 228
209 225 212
218 232 236
217 231 233
217 231 237
219 233 244
221 234 246
220 234 247
222 236 249
221 234 244
221 235 248
220 234 245
220 234 242
219 233 246
222 236 252
220 234 244
220 234 244
220 234 245
221 234 244
220 234 245
220 234 242
221 235 249
218 233 241
218 232 240
220 234 244
220 234 246
221 235 248
219 233 244
220 234 244
219 233 242
220 234 246
219 233 242
218 232 243
219 233 246
215 229 242
217 231 238
215 229 241
211 226 232
214 228 233
212 227 228
210 225 223
209 225 226
208 224 223
209 225 220
212 227 220
209 225 212
212 228 223
207 223 203
201 219 193
205 222 201
204 221 191
202 220 191
201 219 191
192 212 157
196 215 163
191 211 153
190 210 151
191 210 153
189 209 137
186 207 122
183 204 108
184 205 111
179 202 80
177 200 76
177 200 67
177 200 62
175 198 51
176 200 62
176 199 62
175 198 57
177 200 67
177 200 84
179 202 76
176 199 51
175 199 76
175 199 72
176 199 57
175 198 51
175 197 51
175 198 57
175 198 51
173 196 62
174 197 72
174 197 25
175 198 62
173 196 57
174 198 44
174 197 36
174 197 62
175 197 67
175 199 67
173 197 72
174 196 76
177 200 84
174 197 80
172 195 57
171 194 74
176 199 80
168 191 70
175 198 80
167 190 72
173 195 78
175 198 86
171 195 65
176 199 107
170 193 70
173 196 70
164 187 100
173 196 99
175 198 97
172 195 110
176 198 103
176 198 114
177 198 108
165 188 84
71 100 94
150 174 47
165 188 25
169 191 31
163 187 25
162 186 31
170 193 72
165 187 73
174 197 40
200 218 177
201 219 182
216 230 230
180 196 197
59 92 120
57 90 121
57 91 115
57 91 115
59 93 125
58 92 121
59 93 126
59 93 128
60 94 125
59 93 122
60 94 121
61 95 137
59 93 131
58 92 124
58 92 117
59 93 130
60 95 133
58 93 126
60 94 128
60 95 140
59 94 126
57 91 108
58 91 108
60 95 130
59 92 125
58 91 124
59 93 118
61 95 133
59 93 120
60 94 128
59 93 129
58 92 120
59 93 124
60 94 131
60 94 130
58 92 128
60 94 126
60 94 125
58 92 121
60 94 124
59 93 124
60 94 131
60 94 129
58 92 124
59 93 128
61 96 142
59 92 130
57 90 126
57 90 116
58 92 118
57 90 110
59 93 128
58 91 121
59 93 134
59 93 124
58 91 117
60 94 131
59 93 126
59 93 129
59 93 121
59 92 124
59 93 123
58 91 124
59 93 134
58 91 117
59 92 123
59 93 135
59 91 126
59 92 124
59 92 119
58 92 123
58 92 121
59 92 124
60 93 128
58 91 122
60 93 128
59 92 119
58 90 124
58 91 121
58 91 121
57 90 118
57 89 120
58 92 118
57 89 118
56 89 117
56 87 107
56 87 109
56 87 114
58 90 116
57 89 125
53 83 104
56 88 118
54 84 110
56 87 119
50 78 97
53 81 103
52 80 105
49 74 80
49 76 88
46 71 72
163 177 174
218 232 236
116 118 91
73 72 24
67 66 18
60 61 24
57 58 20
51 53 18
45 47 10
58 61 23
46 52 23
59 64 28
57 60 23
60 63 18
65 66 33
70 74 35
61 65 30
71 74 39
78 81 35
80 83 35
88 91 42
94 95 48
97 98 49
99 101 41
108 107 52
98 98 39
106 106 45
103 104 54
114 112 57
119 117 53
102 104 41
113 114 38
121 118 53
119 117 58
135 131 69
125 123 54
125 123 54
122 120 55
137 134 62
139 136 64
140 136 70
138 134 60
137 133 60
146 141 69
141 137 64
154 148 66
141 137 60
151 145 70
147 143 70
138 136 58
151 146 65
146 141 65
153 148 68
160 154 73
142 139 60
149 145 66
148 144 63
158 152 73
158 153 69
153 148 74
161 155 69
157 151 71
155 150 64
163 156 73
158 152 71
162 156 78
158 152 69
164 157 75
162 156 72
158 152 66
163 156 74
154 149 64
166 159 77
166 159 79
165 158 77
161 155 71
158 153 68
167 160 75
161 155 69
167 159 75
157 152 66
162 156 75
157 152 71
165 158 76
164 157 74
161 155 71
161 154 69
166 159 71
168 161 75
162 155 75
162 155 77
162 156 71
162 155 74
160 154 73
163 157 71
167 160 79
159 153 69
163 157 75
161 155 74
164 157 74
163 157 66
162 155 75
162 156 66
166 158 75
163 156 68
160 155 62
163 156 76
164 157 75
162 155 75
159 152 67
159 153 63
161 154 74
160 153 72
162 155 73
164 157 72
151 145 68
159 152 73
161 155 79
154 149 67
158 152 67
154 149 64
169 161 83
159 153 74
159 153 75
163 157 75
156 150 63
158 152 70
161 154 71
163 157 72
158 152 71
154 149 74
164 157 80
160 154 74
165 158 81
159 153 76
165 158 80
158 152 70
160 154 73
159 152 72
159 152 73
152 146 74
159 153 75
149 144 73
153 147 69
152 146 72
154 148 68
155 150 71
156 149 78
152 147 70
155 147 69
188 208 133
185 206 117
183 205 105
182 204 99
182 204 102
180 202 88
183 205 111
181 203 99
180 202 88
177 200 72
181 203 88
179 202 80
178 201 72
179 202 88
179 202 88
177 200 62
178 201 72
179 202 92
179 201 72
179 201 62
176 199 54
179 202 95
182 203 88
177 200 60
178 201 72
178 201 88
175 199 72
177 200 67
176 199 51
178 201 74
176 199 62
178 201 94
182 203 92
181 203 88
187 208 125
186 207 130
180 203 99
184 206 117
180 202 76
181 203 105
184 206 117
184 205 108
189 209 133
187 207 120
186 207 128
183 205 108
183 205 114
185 206 114
182 204 99
184 205 108
183 205 111
179 202 99
177 200 67
181 203 97
184 205 108
179 202 84
177 200 84
178 201 92
176 200 67
178 201 62
174 198 57
179 201 72
176 199 62
176 200 67
176 199 36
175 199 57
177 200 62
177 200 72
176 199 67
176 200 76
178 201 88
177 200 57
178 201 84
178 200 92
176 199 36
176 199 67
176 200 67
178 201 72
175 199 67
177 200 67
175 199 57
176 199 62
176 200 84
176 199 67
175 198 36
176 199 62
174 198 57
176 199 57
177 200 62
177 199 67
176 199 57
175 198 62
174 198 80
173 197 51
172 195 67
178 202 95
175 198 57
175 199 72
174 198 57
175 199 67
178 201 88
174 198 57
172 195 62
174 197 36
174 197 62
176 199 76
172 195 57
174 197 62
171 194 51
171 195 51
179 201 88
174 197 88
175 198 76
173 197 84
172 196 65
171 194 67
173 197 78
172 195 74
173 196 67
172 195 67
168 192 72
169 192 76
172 196 80
170 193 84
170 193 65
173 196 90
166 189 70
172 195 61
170 192 62
174 197 95
172 194 72
180 201 115
175 197 105
174 196 118
175 196 115
176 198 92
123 146 103
136 161 67
165 189 31
162 186 0
162 186 36
163 186 31
166 190 25
166 188 54
167 190 47
175 199 44
205 221 193
184 205 102
174 198 0
169 192 44
57 90 107
57 91 115
58 92 126
58 93 121
56 89 113
60 94 128
59 94 129
58 91 122
58 91 117
59 92 126
59 94 122
61 96 137
59 94 129
59 93 128
59 93 122
60 95 134
59 93 118
61 95 131
59 93 130
60 94 129
59 93 124
57 90 115
58 92 117
59 94 134
60 95 133
59 93 128
60 94 128
59 92 124
59 93 133
58 92 111
57 90 115
59 94 126
58 92 121
59 92 124
58 91 115
61 95 133
59 92 124
60 94 134
60 95 131
59 92 124
59 93 120
60 95 130
58 93 121
59 93 128
58 91 122
58 91 115
59 93 122
58 91 122
58 91 116
58 91 117
58 92 124
60 94 131
56 89 118
58 93 121
59 93 133
60 94 128
59 93 125
59 92 129
59 93 124
58 92 120
60 94 134
59 94 128
58 91 126
58 91 121
59 92 131
57 90 116
58 91 122
56 89 113
59 92 132
57 91 113
58 91 124
57 90 130
59 92 124
59 92 126
57 89 122
57 90 116
57 90 123
57 90 121
58 91 124
57 89 125
57 90 119
56 88 113
56 88 115
58 92 123
56 87 110
56 88 112
56 88 112
57 89 120
56 88 121
56 88 117
55 86 111
55 85 113
53 82 102
52 79 98
56 86 108
52 81 106
51 79 108
51 79 97
51 76 92
43 66 70
165 188 18
174 198 0
140 152 30
84 83 36
82 80 23
60 62 23
61 62 18
60 62 20
73 73 14
50 53 10
50 52 18
61 64 24
52 57 22
56 59 19
59 63 25
56 60 25
77 79 28
71 73 25
85 86 33
87 89 36
80 83 40
92 93 45
94 96 34
103 102 37
108 107 51
93 94 45
115 113 58
117 115 51
103 103 47
116 115 58
119 117 50
124 122 56
119 117 47
130 127 56
125 122 53
134 131 65
128 124 54
132 131 55
127 125 56
122 120 60
129 127 57
140 137 65
139 136 56
141 138 65
140 137 62
147 141 66
142 137 67
145 141 65
144 140 71
146 141 67
140 137 59
143 138 64
146 141 67
154 149 68
155 149 72
159 152 73
151 146 72
153 148 69
160 154 75
152 148 63
150 145 63
152 147 62
155 148 71
156 149 72
156 151 64
158 152 73
154 149 73
158 152 69
156 149 66
159 153 66
161 155 70
161 154 76
156 150 69
160 154 73
163 157 67
160 154 76
161 156 73
163 157 76
155 150 62
167 161 80
164 157 72
159 154 67
160 155 65
164 158 77
164 158 77
161 155 71
160 153 72
168 161 75
161 155 80
162 156 72
167 160 80
165 159 72
159 152 65
163 157 69
166 159 75
165 158 73
163 156 75
164 157 75
165 158 68
162 155 70
163 156 75
164 158 74
164 157 71
157 151 69
158 152 66
162 156 69
168 161 70
164 155 75
152 145 66
163 156 73
161 155 73
156 149 66
164 159 75
152 147 67
160 154 75
163 157 75
160 155 77
165 158 77
157 152 70
155 149 69
159 153 69
153 147 69
156 150 72
159 153 67
160 153 74
159 152 70
156 149 66
161 155 78
155 150 67
153 147 76
160 154 71
160 153 75
154 147 75
155 148 64
156 149 72
153 147 68
160 154 71
157 150 76
155 150 74
161 155 74
154 147 70
156 149 76
153 147 71
154 149 62
153 146 68
160 153 75
159 152 74
152 146 66
155 149 72
153 147 70
191 211 147
185 206 117
187 207 120
188 209 133
182 204 110
182 204 99
179 201 72
181 203 99
178 201 76
179 201 76
182 204 108
181 203 95
178 201 76
180 202 84
179 201 76
181 203 92
181 203 84
179 201 76
178 201 76
176 200 74
178 200 57
178 201 72
177 200 57
179 201 84
174 198 62
178 200 74
176 199 76
180 202 95
179 202 80
176 199 57
176 199 57
175 199 57
179 201 72
176 199 60
178 201 76
178 201 72
176 200 72
178 201 76
178 201 76
174 198 51
178 201 72
179 202 95
177 200 80
176 200 67
176 199 51
178 201 80
177 200 62
177 200 62
177 201 88
175 199 62
177 200 57
175 199 57
175 199 51
175 198 51
179 202 88
177 200 67
176 199 72
175 199 62
177 200 62
175 199 72
177 200 76
174 198 67
176 199 57
177 200 67
174 198 36
177 200 76
176 200 84
177 200 67
177 200 76
177 200 67
177 199 62
176 199 67
175 199 44
176 199 67
178 201 92
175 198 51
174 198 62
175 198 44
175 199 51
176 200 62
175 199 67
177 200 51
175 199 84
177 201 84
175 199 76
173 197 51
175 199 92
177 200 76
174 197 57
175 200 80
176 199 72
174 198 62
177 199 72
178 201 72
177 200 67
175 198 72
174 198 57
174 198 62
175 198 76
173 197 51
176 199 76
174 198 92
175 198 57
174 197 51
168 191 44
171 194 72
176 199 62
175 198 80
171 194 57
176 199 80
178 201 99
175 198 76
167 191 36
171 195 62
175 198 76
170 192 78
174 197 62
171 194 44
172 195 57
173 196 95
168 192 74
170 193 76
171 194 65
173 196 80
172 195 79
170 193 99
169 193 60
171 194 86
168 190 97
168 191 70
170 193 74
167 190 84
174 195 118
179 201 118
173 194 103
174 195 107
137 160 65
161 185 18
157 180 25
165 188 0
166 189 18
162 186 37
165 188 31
165 187 62
173 197 44
179 201 72
197 215 167
178 201 67
173 197 0
174 198 0
70 100 114
57 91 119
58 92 125
58 91 120
57 90 118
59 93 130
58 92 126
57 91 115
59 93 118
59 92 129
59 93 126
59 93 118
57 89 120
58 92 125
59 93 129
59 92 125
58 91 117
58 92 122
58 92 118
61 95 135
57 91 114
58 92 121
59 93 120
56 89 113
59 93 121
60 94 128
58 92 110
59 93 114
60 95 136
58 92 118
59 93 122
59 93 126
59 93 124
57 90 115
59 94 134
59 93 122
60 95 128
58 91 114
59 94 122
59 94 122
59 94 128
59 93 134
58 91 115
59 93 126
59 94 128
59 93 128
60 94 129
56 88 110
58 91 117
59 93 131
59 92 133
57 91 115
57 91 111
59 93 131
59 93 130
59 92 126
59 93 128
59 92 118
58 91 114
58 92 124
59 93 130
61 95 135
59 94 134
60 94 137
58 91 134
58 92 128
58 91 117
59 92 125
57 90 123
58 91 125
57 90 121
57 90 122
57 91 117
58 90 116
57 90 113
59 91 120
57 90 112
57 89 117
57 89 120
57 89 115
57 90 117
57 89 120
57 89 121
55 86 110
56 88 117
56 87 112
57 88 112
55 85 108
56 88 109
54 84 110
57 88 121
53 83 108
56 86 121
53 82 114
54 83 114
52 81 96
50 77 97
50 76 88
51 77 94
53 73 62
175 198 0
174 198 0
161 182 19
93 90 44
71 69 24
57 57 23
65 65 15
63 61 14
69 68 17
54 57 9
54 56 23
53 54 9
64 66 23
50 56 31
66 68 16
69 73 24
68 72 28
64 68 25
72 75 32
80 83 34
79 82 30
80 82 33
102 101 40
91 93 46
101 101 50
102 101 44
103 104 44
104 104 46
117 115 45
118 117 49
126 124 54
125 123 53
125 122 55
118 117 51
126 123 53
124 122 59
129 126 54
128 125 57
129 126 58
134 130 53
139 134 68
133 129 62
142 137 69
147 143 65
146 142 59
137 134 57
147 143 65
150 145 73
150 145 71
148 144 66
135 133 50
152 146 69
152 146 63
148 143 60
149 144 68
151 147 60
147 142 63
147 141 61
149 144 65
157 152 68
156 151 69
146 142 58
158 152 73
158 151 65
161 155 72
155 150 67
157 152 63
165 158 75
158 152 66
165 159 69
160 155 67
160 155 71
158 152 67
162 157 75
155 149 61
161 155 69
161 155 73
160 153 64
163 157 71
160 155 68
160 154 65
162 156 70
160 155 72
162 155 73
161 154 70
165 158 77
159 153 70
159 152 71
158 151 68
160 154 68
166 160 72
162 155 70
161 155 70
162 156 74
163 157 71
158 152 63
162 154 68
159 154 59
164 158 71
164 156 76
164 158 73
161 155 71
159 153 66
155 149 67
158 153 65
162 156 74
159 153 72
158 152 66
163 157 70
160 154 69
162 155 75
161 154 78
164 157 74
163 157 69
159 152 73
155 150 67
166 159 76
162 156 74
164 157 76
159 153 68
155 150 67
156 150 66
161 154 74
155 150 66
161 154 75
155 148 72
150 145 65
153 148 62
159 152 77
153 147 69
156 150 67
156 150 68
158 151 68
158 152 73
154 149 65
152 145 61
153 147 67
155 149 66
152 146 73
157 151 71
162 155 71
149 144 68
158 151 75
161 153 79
151 146 69
153 147 70
157 150 75
147 141 67
153 146 73
146 140 63
189 210 147
189 209 135
187 208 128
184 205 108
188 209 133
182 204 99
182 204 105
180 202 84
179 202 88
179 201 76
180 202 84
179 201 76
181 203 99
178 201 76
179 202 76
178 201 76
180 202 84
179 201 72
178 201 76
179 202 72
177 201 76
178 200 72
178 201 72
176 199 54
177 199 44
177 200 62
176 200 57
175 198 57
175 198 76
175 198 51
178 201 76
177 200 44
177 200 67
175 198 51
177 200 67
178 201 62
177 200 67
178 201 80
179 202 88
178 201 80
177 200 72
179 201 80
177 200 67
177 200 72
178 201 67
177 200 62
177 200 67
178 201 62
177 200 51
178 201 76
178 201 80
177 200 62
178 201 80
176 200 76
178 201 72
176 199 57
176 200 67
177 200 62
177 200 57
176 199 67
177 200 76
175 199 44
175 199 67
178 201 88
177 200 57
177 200 57
176 200 62
178 201 76
177 200 76
177 200 76
174 198 57
175 198 44
177 200 67
175 199 72
175 199 80
177 200 67
176 199 62
175 198 62
176 199 57
174 198 51
176 199 44
175 198 62
175 198 57
175 199 57
177 200 88
176 200 76
175 199 57
177 201 76
176 199 25
171 195 62
174 198 67
176 200 67
175 199 67
175 199 72
175 200 84
175 199 76
176 200 76
175 199 84
173 197 62
174 197 62
175 198 57
175 198 67
175 199 62
174 197 67
174 197 67
175 198 51
173 197 76
171 194 57
174 197 44
172 196 62
173 196 67
175 197 80
171 195 57
173 196 72
171 195 62
171 194 57
172 195 65
176 199 88
170 193 44
168 192 62
168 190 67
167 190 67
173 195 86
170 193 70
167 191 70
160 184 62
171 193 92
167 190 88
171 193 84
173 196 80
173 195 78
176 198 113
172 195 90
174 196 107
162 184 57
168 190 76
158 181 25
154 177 25
165 189 31
165 189 0
157 180 40
164 188 40
161 184 47
173 196 54
175 198 36
183 205 111
195 213 159
174 197 0
174 198 0
175 198 0
111 136 84
57 90 117
57 91 114
57 90 110
58 92 111
58 92 112
58 92 114
59 93 114
59 94 129
59 93 121
58 93 118
59 94 129
59 93 125
59 94 122
58 91 122
59 93 118
57 91 120
59 93 125
59 93 125
58 92 125
58 92 118
59 93 128
60 94 134
57 91 111
58 92 122
60 95 134
57 91 114
59 93 133
59 94 131
58 92 124
59 94 126
61 96 136
60 95 133
57 91 103
58 92 122
59 92 129
59 93 120
58 92 118
59 93 120
58 92 121
59 92 125
57 90 105
58 91 113
58 92 114
59 94 129
60 95 128
59 93 118
59 93 125
59 92 125
57 89 113
58 92 117
57 91 120
58 92 122
59 93 126
59 92 120
58 91 121
57 90 113
60 94 136
58 92 122
59 93 128
59 92 126
59 93 124
59 93 126
60 94 131
59 93 121
60 93 129
59 92 125
57 91 121
58 91 118
58 91 121
57 90 123
58 91 124
60 94 134
57 89 118
59 92 129
57 89 121
55 87 108
58 91 120
58 91 118
58 91 123
58 90 120
57 89 116
57 89 113
56 88 104
57 89 117
57 89 123
56 88 114
55 85 113
55 87 116
55 85 114
55 85 105
53 83 95
54 83 98
54 83 96
51 80 97
51 80 101
50 78 92
50 76 98
48 73 82
118 137 34
176 199 0
173 197 0
175 198 0
99 98 39
93 90 32
85 82 29
67 67 21
78 77 18
66 66 22
54 56 4
53 56 20
66 68 18
55 58 17
72 73 16
73 72 16
62 66 23
75 77 27
75 78 30
78 78 27
83 84 32
85 86 26
94 94 45
91 93 39
101 101 40
95 94 33
101 100 43
101 101 47
108 107 50
109 107 44
109 108 54
106 105 44
112 111 49
114 113 51
119 117 46
129 125 51
126 123 46
122 121 46
119 117 48
136 133 55
137 133 66
129 126 56
126 123 50
142 139 66
133 130 53
135 132 57
145 140 62
134 130 58
140 137 61
146 141 59
146 141 65
144 140 65
146 142 56
151 146 69
151 147 70
150 144 64
146 142 56
146 143 50
152 146 66
152 147 63
152 146 64
151 146 64
158 153 65
154 148 69
157 152 68
154 148 66
150 146 55
156 150 68
159 152 73
156 150 65
155 148 64
156 151 59
157 153 71
155 148 61
153 148 61
162 156 73
159 153 68
166 158 69
161 155 68
158 153 67
160 154 71
160 154 71
164 157 70
162 156 69
158 152 67
161 154 73
167 160 77
160 155 68
158 153 69
163 155 73
165 158 77
159 154 75
163 156 72
166 159 72
161 155 68
165 158 80
167 160 76
161 155 73
158 152 69
160 154 70
165 159 73
166 158 74
165 158 72
162 155 74
162 155 73
160 154 68
159 153 63
163 157 72
161 155 71
162 156 67
161 154 73
159 152 69
159 152 65
161 154 75
162 155 75
165 159 70
158 151 68
163 157 75
153 147 63
158 152 69
157 151 73
152 147 67
156 149 67
157 151 75
159 152 69
161 153 72
155 148 75
162 155 73
156 150 69
157 150 73
162 155 78
152 147 63
160 154 74
160 153 74
158 151 73
157 152 72
155 148 69
154 147 67
151 146 68
165 157 79
153 147 76
161 154 77
151 145 71
153 147 72
152 146 68
153 146 68
158 152 74
150 143 69
155 149 63
153 147 70
156 149 78
185 206 120
189 209 137
187 208 120
187 208 130
187 207 130
182 204 105
186 206 120
184 205 102
181 203 84
180 202 88
178 201 80
180 202 84
179 201 82
182 204 105
178 200 62
177 200 76
180 202 92
178 201 72
177 200 72
175 199 62
178 201 80
179 202 95
176 199 76
178 200 78
176 199 57
178 201 72
179 202 88
177 200 67
178 201 72
176 199 51
179 201 86
175 199 62
176 199 51
177 200 72
176 199 70
177 200 76
174 198 36
176 200 72
176 199 44
177 200 62
178 201 80
174 198 51
178 200 76
175 199 62
178 201 84
176 199 67
174 198 51
176 199 51
178 201 72
176 200 72
178 201 80
178 201 62
175 198 57
177 199 44
175 199 44
176 199 72
176 200 72
176 199 51
177 200 57
175 199 80
175 199 67
176 199 67
177 200 67
175 199 51
177 200 88
175 199 76
177 200 72
177 201 88
174 198 51
175 199 67
178 201 84
177 200 51
177 201 88
176 200 72
175 199 72
176 199 76
176 199 44
176 200 84
177 200 67
177 199 67
175 199 57
173 197 67
174 197 51
174 198 44
176 199 80
175 199 72
177 200 76
175 199 67
176 200 80
176 200 67
177 200 76
175 199 57
175 199 62
176 200 76
172 196 44
176 199 72
175 198 80
175 198 80
175 199 57
175 198 67
174 198 62
173 197 62
176 200 76
176 199 72
174 198 76
173 197 62
175 199 72
172 195 80
173 196 51
174 198 62
172 194 76
170 193 36
173 197 76
174 197 84
173 197 72
174 197 57
172 194 76
171 194 78
174 198 74
173 196 76
172 195 82
169 192 92
170 192 80
169 192 88
167 189 54
175 197 86
170 192 88
171 195 76
167 189 76
172 194 105
169 192 94
174 196 94
171 192 111
170 192 90
172 193 108
157 181 31
152 175 0
155 178 18
163 186 25
157 180 36
162 185 36
163 185 36
171 195 31
172 196 51
175 198 62
190 210 144
184 206 117
174 198 0
175 198 0
174 197 0
140 164 60
56 89 107
57 91 115
58 92 124
57 90 114
58 92 122
58 92 114
57 91 113
57 90 111
56 90 114
58 92 114
59 93 125
59 93 131
56 89 114
59 93 122
58 92 129
59 93 128
58 91 111
58 92 122
60 94 128
57 91 113
56 89 114
58 91 105
59 93 128
59 93 129
58 92 121
59 93 122
58 92 120
58 92 122
59 93 128
59 94 125
59 93 128
59 93 124
58 92 115
59 92 120
60 94 125
58 91 120
57 91 118
59 93 122
58 92 115
57 90 111
59 93 128
58 92 120
58 91 121
57 90 117
58 92 131
58 92 114
59 93 131
58 92 117
57 91 113
58 92 120
59 93 122
59 93 126
58 92 123
57 90 108
58 92 126
58 92 125
59 93 126
58 92 128
58 91 117
59 93 121
59 94 117
58 91 117
58 92 124
57 91 115
57 90 113
60 94 132
58 92 123
57 89 122
57 90 111
57 90 114
59 92 122
57 89 119
58 90 126
58 91 118
57 88 114
57 89 114
58 91 129
58 91 119
57 89 117
56 88 117
57 89 122
57 89 110
55 86 114
56 88 115
57 89 123
56 87 111
56 87 117
54 85 114
55 86 92
56 86 109
52 81 94
55 86 108
53 82 96
53 81 99
51 79 94
50 77 86
50 77 90
45 69 78
144 165 23
174 197 0
174 197 0
174 197 0
127 140 18
92 89 34
76 77 17
68 68 15
73 72 27
57 58 15
62 63 19
62 65 15
59 62 16
56 60 13
60 65 21
63 66 15
58 64 23
82 82 20
75 78 20
77 79 20
87 87 27
86 87 37
87 89 40
97 97 31
94 93 37
88 90 40
114 111 44
98 98 43
89 92 41
113 112 56
111 111 45
107 107 47
117 115 50
110 110 51
126 123 47
125 122 50
119 117 41
127 124 59
127 125 64
131 127 58
129 126 46
122 120 47
139 135 61
130 128 50
127 125 47
140 135 63
134 130 61
135 130 57
143 139 59
146 141 61
149 143 56
129 127 48
148 143 66
149 144 68
150 144 59
149 144 61
149 143 64
145 141 55
140 137 51
150 144 64
157 152 69
153 148 60
147 142 60
156 151 66
152 148 60
154 148 66
154 148 60
154 149 64
155 149 60
160 154 64
157 152 64
160 155 71
158 153 61
159 153 64
154 148 62
157 151 66
160 155 70
157 152 59
157 150 66
157 151 64
156 149 63
160 155 62
156 151 66
162 156 69
161 155 70
161 155 67
160 154 65
158 151 63
163 157 75
158 152 69
155 149 64
164 157 71
159 153 65
156 151 66
159 152 69
158 152 64
154 149 64
151 146 54
159 152 67
164 157 75
160 154 61
161 154 65
159 153 65
164 158 71
158 153 67
153 148 61
156 151 69
165 157 74
160 154 74
165 157 72
160 154 69
160 153 72
154 147 69
155 149 64
153 148 63
157 151 62
161 154 69
159 152 65
159 153 72
154 148 71
151 145 63
159 153 74
164 156 77
157 151 69
154 148 65
154 147 64
159 153 67
155 149 67
157 150 66
157 152 72
153 147 61
156 150 71
161 154 75
158 152 73
155 149 68
156 150 73
153 147 74
155 149 73
160 153 69
163 156 75
150 144 63
155 149 67
154 147 70
154 149 67
149 142 62
147 140 69
153 147 63
152 146 65
149 143 69
152 146 66
146 141 61
180 202 94
186 207 120
185 206 114
187 208 135
185 207 122
179 202 84
184 205 108
180 202 88
182 203 92
178 201 76
181 203 97
180 202 92
179 201 80
179 202 84
179 202 95
180 202 88
181 203 92
178 200 67
176 199 70
180 203 92
179 201 80
178 201 76
178 201 80
180 202 95
177 200 62
177 200 60
176 200 86
178 201 67
176 199 44
175 198 44
177 200 78
176 199 67
177 200 67
174 197 54
175 198 76
179 201 72
176 199 57
177 200 72
174 198 67
177 199 62
176 200 72
176 200 62
175 198 62
177 200 72
175 199 72
176 200 62
174 198 44
176 200 67
176 199 72
178 201 92
176 200 72
177 200 62
176 199 51
177 200 62
177 200 72
178 201 72
175 199 57
178 201 76
175 198 67
176 199 57
176 199 67
177 200 67
175 199 72
177 201 84
177 200 57
177 200 88
174 198 67
176 199 57
175 199 62
176 200 80
174 198 36
176 200 67
176 200 80
174 198 67
173 197 44
177 200 67
177 201 88
177 200 72
176 199 57
174 198 57
173 197 72
175 199 62
174 197 44
175 198 36
174 198 44
176 200 72
175 199 62
173 197 51
174 196 51
175 198 80
175 199 80
176 200 67
172 196 62
173 196 67
176 199 72
170 194 76
174 198 72
176 199 76
174 198 88
174 198 67
175 199 72
174 197 62
176 199 72
174 197 67
175 199 67
170 193 57
173 196 72
178 201 72
173 196 67
176 200 88
174 196 67
174 198 88
172 195 67
174 196 44
168 192 62
171 194 67
172 195 62
173 195 72
169 192 51
169 192 60
168 191 67
171 194 51
172 195 70
171 195 74
165 188 60
166 189 51
162 185 76
171 193 78
169 192 84
170 193 76
173 195 95
171 193 88
174 194 131
172 195 70
163 186 67
146 168 25
160 183 31
159 182 0
153 177 36
156 180 18
156 180 31
169 192 18
172 194 44
174 197 44
173 197 36
192 212 151
179 201 80
175 198 0
174 197 0
174 198 0
166 190 31
66 97 107
58 91 105
57 90 105
58 91 124
58 92 126
57 91 102
59 93 120
58 92 113
57 91 107
58 92 114
58 92 118
58 92 110
57 91 111
58 92 114
58 92 120
57 91 115
58 92 118
58 92 120
58 91 115
58 92 114
59 93 124
59 93 120
58 91 124
59 93 121
57 90 107
58 92 120
59 93 124
58 92 126
59 92 122
60 95 131
59 93 125
59 93 120
58 91 111
58 92 124
58 91 117
58 92 129
60 94 121
60 94 133
59 94 125
57 91 121
57 91 118
59 93 126
59 93 124
60 94 125
58 92 115
55 88 114
57 90 115
59 93 121
58 92 114
59 94 128
59 93 131
57 91 110
58 92 121
58 91 122
58 91 114
57 90 117
57 90 113
59 93 125
58 91 124
59 92 125
60 93 124
58 91 120
58 91 120
60 95 132
58 91 123
57 91 123
56 88 120
58 90 120
58 92 130
56 89 117
58 92 126
57 89 117
58 91 120
56 88 116
59 91 119
57 89 110
57 90 115
57 89 120
58 91 120
57 89 123
57 89 112
57 89 115
56 89 112
57 89 115
56 88 120
54 84 101
56 87 113
56 87 114
53 83 100
54 84 97
55 85 108
52 80 96
54 85 110
55 84 107
50 77 90
50 77 101
48 74 87
49 72 80
169 192 8
176 199 0
176 199 0
174 198 0
161 180 16
91 89 38
82 81 26
75 74 25
71 70 20
71 71 9
63 63 19
61 64 17
55 59 20
65 68 19
73 73 11
69 70 17
62 64 20
80 82 31
81 81 27
75 76 26
81 83 29
86 88 30
88 90 25
89 90 34
92 93 25
91 91 43
98 96 33
108 107 31
107 106 44
106 105 44
114 112 48
114 114 48
117 116 46
112 110 42
105 104 41
128 125 56
119 117 50
124 122 48
128 125 49
127 124 54
135 131 56
134 130 57
133 130 47
126 125 50
133 129 53
139 135 59
146 141 63
136 131 57
136 133 48
138 135 49
137 132 52
145 141 55
141 137 59
152 147 60
147 142 63
146 141 57
147 141 60
152 145 64
150 145 64
154 148 63
153 147 63
147 143 59
146 141 56
150 146 58
147 143 56
159 153 72
157 151 62
155 150 67
158 152 65
161 155 68
157 152 66
154 149 62
157 151 70
156 150 62
158 152 66
157 151 62
156 150 65
154 148 60
157 152 59
154 148 64
159 153 58
160 154 69
161 154 71
161 154 66
164 157 72
157 151 63
159 153 62
161 154 70
162 154 71
159 153 63
159 153 64
164 157 71
156 150 62
166 159 74
156 149 68
163 155 75
155 149 64
161 154 72
165 158 74
159 153 58
152 146 59
163 157 71
159 152 66
160 153 71
170 162 75
163 156 73
152 147 60
151 145 64
162 156 68
156 150 61
159 153 67
159 152 67
166 159 77
160 154 70
159 153 63
162 155 72
153 147 61
158 151 60
156 150 66
153 147 67
156 150 69
151 145 69
157 151 66
159 153 71
157 150 69
152 146 70
155 150 66
158 151 71
161 154 77
159 152 73
153 147 66
155 148 67
157 150 68
158 151 72
162 155 75
149 143 64
160 154 72
155 149 63
164 157 84
148 143 60
153 147 67
151 146 68
152 146 63
150 145 63
162 154 78
157 150 71
147 142 61
150 143 67
151 145 68
154 148 67
155 149 72
183 204 105
181 203 95
189 209 128
191 211 144
180 202 84
184 206 114
180 202 92
180 203 92
179 202 84
182 204 102
179 201 84
182 203 102
177 200 72
178 201 90
177 200 67
178 201 86
180 202 80
183 205 105
178 200 86
179 202 80
178 201 76
175 199 65
179 201 76
177 200 76
179 201 84
175 198 82
174 198 65
179 201 76
177 200 62
177 200 78
176 199 57
179 201 76
180 202 92
178 201 76
173 197 54
176 199 78
177 200 57
175 199 62
179 201 67
176 199 76
175 198 44
176 199 57
179 201 84
176 200 67
177 200 72
175 199 51
176 199 72
176 200 76
174 197 44
175 198 51
176 199 44
176 200 80
177 200 57
177 201 99
176 200 72
177 200 76
176 200 62
174 198 62
173 197 57
175 199 72
175 199 67
174 198 51
175 198 44
176 199 51
176 200 72
175 199 57
175 199 80
174 198 72
172 197 25
176 199 76
176 200 72
175 199 57
174 198 57
177 200 62
175 199 67
177 200 76
175 200 88
175 199 72
177 200 84
173 196 62
176 199 67
175 199 51
176 200 76
177 200 88
175 199 72
173 197 57
174 198 67
175 199 67
175 199 67
173 197 62
173 198 92
175 198 62
173 197 62
174 198 51
172 196 36
175 199 57
174 198 67
175 199 95
173 198 88
176 199 67
173 196 72
173 196 51
173 196 62
175 198 62
176 199 67
174 197 62
172 195 76
175 198 76
173 197 80
172 195 62
175 198 67
167 191 57
172 195 80
169 192 67
177 200 108
172 196 67
171 193 88
169 192 67
175 199 72
170 193 80
170 193 67
170 193 84
169 193 74
166 189 31
171 195 67
166 190 65
171 194 78
171 193 72
168 192 78
168 191 103
163 186 78
176 198 107
172 194 94
170 192 99
151 173 47
144 166 36
156 178 25
159 182 0
161 184 36
161 183 25
166 189 31
167 190 36
170 193 25
171 195 0
177 199 67
189 209 137
174 198 0
171 196 0
174 198 0
173 196 0
174 197 0
108 133 89
57 90 110
57 90 117
57 90 107
59 93 126
55 88 103
55 88 102
59 93 121
58 91 117
60 94 129
59 93 119
57 90 102
57 91 114
58 92 124
59 92 125
58 92 110
57 90 107
58 92 131
58 92 113
59 92 131
58 92 120
58 92 117
58 92 124
58 92 108
58 92 121
57 91 115
57 91 110
57 90 113
59 93 124
58 93 124
58 92 122
59 94 125
58 91 113
56 89 113
59 93 124
58 92 120
60 94 130
56 90 108
56 89 113
58 92 122
59 92 126
58 91 117
58 92 117
59 93 121
58 92 122
58 92 130
57 89 107
58 92 120
59 93 117
58 92 120
57 91 120
56 88 108
59 93 128
58 91 120
58 92 120
58 92 117
58 91 117
59 93 129
57 90 115
55 88 114
58 91 109
56 89 114
58 91 118
58 92 121
58 92 123
57 90 113
58 91 117
59 92 120
57 89 115
58 92 116
58 92 116
58 91 125
54 85 104
56 89 113
57 90 120
58 91 120
56 87 111
57 89 111
54 85 111
55 87 111
55 87 108
57 89 115
57 89 110
56 86 108
54 84 108
55 86 114
56 87 105
52 83 95
54 84 96
54 83 105
52 80 96
54 83 110
53 82 104
51 79 93
49 74 86
49 75 87
46 70 82
107 127 48
174 197 0
173 197 0
174 197 0
174 197 0
175 198 0
113 120 35
88 84 35
80 79 20
56 57 20
65 64 18
63 63 3
60 61 9
70 70 23
65 67 16
72 72 18
72 74 19
74 76 21
71 73 21
77 79 23
84 84 21
85 86 25
74 77 29
95 93 40
84 83 35
87 88 33
96 96 25
100 99 38
101 101 38
101 101 36
104 103 43
116 115 46
119 117 45
116 115 51
113 111 44
103 102 46
124 121 51
118 116 49
131 129 50
119 117 46
131 127 57
129 125 49
136 133 52
133 130 57
135 131 51
137 134 52
132 129 56
144 139 57
144 138 59
141 137 59
140 136 47
138 135 58
139 135 55
141 137 55
145 140 55
137 134 46
146 141 65
151 146 63
147 142 60
151 145 61
148 143 56
153 148 66
146 142 61
152 146 60
160 153 72
151 146 54
157 150 66
156 150 67
143 139 53
157 151 61
154 149 56
155 149 68
152 146 63
153 146 59
161 155 66
154 148 65
157 151 63
161 153 66
158 152 63
161 154 70
158 152 63
156 151 63
162 155 69
165 158 74
161 155 63
163 157 72
158 152 61
160 154 62
159 152 67
160 153 67
153 148 62
167 160 72
158 151 68
161 155 69
162 156 65
161 154 67
156 151 66
165 158 74
159 153 63
160 153 67
157 151 69
158 152 70
162 155 69
158 152 66
165 157 75
162 154 66
162 156 65
155 149 64
156 150 68
158 152 64
160 154 65
156 149 65
160 153 70
158 152 65
156 149 72
160 153 69
154 148 65
159 154 70
153 147 64
152 148 56
158 151 68
159 152 74
158 152 76
160 153 72
159 153 70
155 149 66
156 149 72
153 147 63
160 153 70
152 146 68
154 148 64
154 148 66
154 147 68
155 148 69
153 148 62
149 143 60
153 147 59
152 147 64
157 150 69
150 144 62
153 147 65
151 145 67
156 149 68
150 143 64
148 142 61
148 142 63
153 147 73
150 145 63
147 142 63
152 146 64
159 151 79
154 148 72
185 206 117
181 203 95
180 202 92
186 207 120
187 208 125
184 205 111
183 205 111
180 203 95
179 202 76
181 203 95
182 204 102
178 200 74
180 203 99
179 201 95
179 202 84
176 200 72
179 201 86
177 200 62
175 198 65
176 199 70
176 199 67
177 200 76
175 198 65
178 201 72
177 200 70
175 199 62
178 201 82
175 199 76
178 201 76
180 203 102
176 199 67
177 200 72
176 200 57
177 200 76
178 201 88
176 200 72
177 201 80
177 200 86
176 199 76
178 201 76
179 201 76
178 200 62
176 200 67
176 199 51
173 196 36
175 199 51
174 198 51
175 198 51
174 198 51
178 201 72
177 201 76
176 200 92
176 199 51
177 200 67
175 199 67
176 200 84
174 198 36
177 201 80
176 199 62
175 198 51
174 197 44
175 198 62
177 200 76
176 200 84
175 199 80
174 197 62
174 198 57
176 199 62
175 199 67
174 198 57
178 201 84
174 198 76
175 198 44
176 200 80
175 199 67
174 198 62
175 199 76
173 197 62
175 198 62
177 200 72
174 199 72
173 197 62
175 199 67
175 198 67
174 197 51
175 198 44
174 198 44
174 197 57
174 198 57
175 198 57
175 199 80
174 196 57
175 199 80
171 195 62
175 199 72
172 196 51
175 199 72
174 197 62
172 196 57
175 198 62
172 195 44
175 199 76
171 194 72
173 197 76
174 197 80
170 194 36
173 196 80
168 192 25
171 195 51
173 197 72
171 194 57
168 192 62
173 196 72
170 193 57
176 199 72
170 193 76
168 191 44
167 190 62
173 195 67
168 190 57
166 189 76
173 196 80
169 191 76
163 187 54
165 189 54
171 194 84
170 194 72
170 192 60
168 191 78
174 195 115
174 195 111
172 194 102
164 187 82
166 187 78
156 179 25
153 175 31
160 183 18
159 182 25
151 175 0
162 185 36
166 189 0
171 194 25
172 195 51
174 197 62
186 207 135
176 199 72
173 197 0
174 197 0
175 198 0
174 197 0
173 196 0
143 166 67
55 88 117
58 92 124
56 89 114
56 89 112
58 91 114
58 91 121
58 91 111
58 92 115
57 91 118
58 92 117
58 92 120
59 93 124
59 92 125
58 91 114
58 91 118
58 92 118
58 92 125
57 91 126
58 91 107
58 92 115
56 88 102
59 92 117
58 92 115
59 93 125
58 92 125
58 91 114
58 91 118
58 91 117
58 92 118
58 92 113
59 93 128
58 92 130
58 92 120
59 93 124
58 92 118
57 91 113
58 92 120
58 92 113
58 92 122
55 88 110
60 94 129
58 92 121
55 87 102
57 91 113
59 93 125
58 92 120
58 92 124
59 93 128
58 91 124
59 92 121
58 92 118
59 93 129
57 91 107
59 93 133
59 93 122
58 92 113
59 93 128
58 92 115
58 91 114
58 92 114
59 93 129
58 91 116
57 90 118
58 92 129
57 90 118
56 89 111
58 91 118
59 92 127
56 89 105
57 89 120
57 90 120
55 87 119
56 89 117
56 89 105
55 87 108
55 87 107
57 89 124
58 90 119
58 90 121
58 91 126
56 88 111
56 88 109
54 84 100
55 87 109
52 82 101
54 84 108
54 84 108
50 79 91
52 81 90
52 81 100
54 83 104
53 82 103
51 77 87
51 78 78
47 71 85
49 75 88
147 168 38
174 197 0
174 197 0
174 197 0
172 195 0
173 196 0
153 171 22
80 78 28
95 93 32
87 84 31
80 78 18
70 69 19
61 62 8
72 73 17
68 69 21
64 66 18
59 61 19
59 61 17
80 80 24
85 85 26
71 74 25
78 80 26
84 84 24
85 86 37
68 72 26
102 100 34
91 92 36
93 94 28
104 102 35
113 111 44
101 100 45
101 100 32
122 119 38
113 111 39
124 121 47
107 107 35
124 121 45
109 109 45
128 124 47
123 120 49
123 121 43
124 122 56
127 123 53
130 127 43
134 131 50
128 127 51
130 126 41
136 133 49
135 131 57
135 132 61
139 135 51
143 139 54
141 137 54
145 140 58
142 137 58
146 141 66
140 136 52
149 144 48
150 145 60
147 141 56
151 145 69
147 143 58
145 141 62
149 145 60
157 151 65
158 150 69
151 146 53
156 151 63
149 143 56
155 150 65
153 148 64
149 145 53
159 152 65
158 151 67
151 145 59
159 153 70
156 149 59
158 152 54
153 148 59
157 151 65
157 151 69
154 147 64
155 148 65
154 149 60
158 152 67
162 155 64
156 150 63
159 153 64
156 150 60
154 148 65
150 144 58
162 155 69
158 152 66
160 154 69
158 152 59
155 149 63
158 152 67
160 154 74
150 145 56
155 151 58
163 156 63
162 156 68
159 153 64
160 154 63
160 153 66
156 150 63
156 150 59
156 150 64
157 150 66
151 146 63
155 149 68
161 155 65
152 146 61
156 150 59
161 154 65
155 148 63
158 151 68
158 152 65
161 154 68
157 150 66
161 153 72
156 149 69
158 152 68
155 149 69
152 147 66
156 149 62
152 145 71
147 142 57
150 144 62
152 147 65
153 148 64
152 146 66
159 153 65
152 145 72
146 140 52
153 147 66
153 148 64
148 142 57
159 153 73
151 145 66
154 148 66
153 147 65
158 152 73
156 150 71
157 150 75
159 152 76
150 143 67
151 145 59
147 141 61
152 144 72
149 144 60
151 144 70
181 202 99
186 206 114
176 200 72
184 205 111
192 211 142
185 206 114
185 207 122
182 204 113
179 202 80
180 202 92
182 204 108
178 201 67
182 204 105
177 200 62
180 202 88
178 201 72
180 202 84
178 201 84
180 202 84
179 201 80
178 200 82
175 199 65
175 199 78
175 199 70
178 201 94
179 201 84
176 199 62
177 200 67
174 197 76
179 201 76
178 201 72
178 201 84
178 201 82
177 201 84
174 197 44
178 200 62
177 200 72
176 199 57
175 198 51
177 200 67
177 200 62
175 199 67
178 201 76
178 201 95
176 200 88
177 200 67
178 202 92
175 198 67
173 198 51
175 199 67
175 198 67
175 199 57
176 200 84
176 199 84
175 198 72
177 200 62
176 200 67
178 201 76
175 200 76
177 200 67
174 198 67
176 199 62
176 200 72
177 201 92
177 200 76
174 197 57
175 199 67
175 199 72
174 198 62
174 198 44
174 198 62
173 197 25
176 199 62
174 198 62
177 200 80
173 198 51
175 199 88
173 197 62
174 199 92
175 198 72
172 197 67
175 199 72
175 198 57
175 200 92
174 197 62
175 199 57
173 197 57
173 197 57
174 199 67
174 197 36
175 198 72
172 196 67
171 196 57
174 198 72
175 199 76
172 196 67
174 198 72
173 197 80
171 195 72
173 197 72
175 199 84
171 195 36
176 199 62
173 196 51
175 198 72
174 198 72
171 196 62
171 195 62
172 195 67
173 196 72
173 197 57
168 193 51
167 191 67
173 196 62
176 199 84
169 193 57
175 198 80
168 191 57
170 194 72
171 194 84
164 187 57
170 193 67
172 195 80
165 188 84
165 187 57
171 194 72
166 189 78
167 190 92
168 190 95
173 195 120
173 194 114
166 188 76
158 180 70
146 167 31
153 176 0
149 172 18
157 181 31
153 175 31
165 188 0
164 187 0
165 189 0
174 197 62
172 195 44
171 194 44
184 205 122
175 198 0
174 198 0
174 197 0
174 198 0
172 196 0
173 197 0
170 193 25
73 101 94
58 91 117
56 89 103
58 92 118
59 92 120
55 87 99
59 93 124
56 90 107
55 88 110
57 90 105
56 90 114
59 94 129
57 90 117
59 93 128
57 90 114
58 91 117
58 92 124
58 92 118
59 93 114
58 92 120
60 94 128
58 91 126
57 89 105
56 89 103
58 92 117
57 90 115
57 90 102
59 93 117
57 90 105
58 92 122
60 94 133
56 90 110
59 92 125
59 93 121
59 92 126
59 93 120
58 92 125
59 93 124
57 90 113
58 91 115
57 91 118
57 91 114
59 93 131
57 91 111
59 92 122
59 93 121
55 88 102
57 90 118
57 91 121
56 89 103
60 94 126
56 89 121
60 94 134
58 91 121
57 90 120
57 89 122
59 92 126
57 90 111
59 93 125
58 91 116
57 90 117
58 91 113
59 92 124
58 91 111
56 89 111
58 92 115
57 89 107
55 88 107
56 88 116
58 92 120
58 91 123
58 91 119
57 90 115
56 88 105
56 87 113
57 90 123
56 88 113
55 86 104
56 88 115
56 87 108
55 85 102
55 86 116
56 87 113
57 90 112
54 84 107
55 85 111
57 88 115
53 84 110
53 82 103
52 81 96
51 79 99
51 79 87
51 78 86
50 76 83
49 75 80
56 77 68
170 193 0
175 198 0
173 197 0
173 197 0
172 196 0
171 196 0
171 194 0
103 106 38
78 76 30
86 84 29
82 80 18
65 65 8
80 80 21
78 77 23
68 69 13
82 81 12
66 66 11
91 91 12
82 83 15
78 80 21
82 83 22
78 78 21
81 80 34
90 90 36
77 80 22
94 95 28
102 100 36
102 100 30
100 100 22
91 90 29
106 105 32
94 94 29
105 103 47
102 102 32
120 117 52
127 124 54
112 109 44
119 117 47
127 125 54
124 121 53
125 122 48
128 125 44
127 124 51
127 124 54
128 126 53
131 126 56
138 133 51
140 135 53
127 124 43
141 137 55
138 135 44
142 138 52
143 138 55
145 140 64
148 143 54
142 137 53
139 133 51
145 140 50
145 140 51
150 145 51
144 138 56
140 136 51
145 142 53
156 149 70
148 143 57
153 147 60
152 144 63
144 139 56
150 145 60
158 152 64
153 148 53
149 143 64
147 143 53
155 149 63
154 148 59
149 144 52
153 147 64
154 149 61
157 152 68
160 154 65
149 145 57
160 152 71
159 153 65
162 156 66
154 147 62
162 155 67
156 149 66
162 155 69
162 155 63
157 150 66
154 147 54
150 144 62
157 150 63
166 158 77
158 152 62
155 149 60
157 150 63
160 152 65
157 152 61
154 148 64
163 155 63
161 155 66
154 148 58
158 152 64
158 152 63
159 153 62
159 152 60
160 153 65
159 153 62
157 150 62
156 150 61
157 151 66
154 147 61
160 153 67
153 147 65
152 146 59
159 153 63
157 150 68
155 149 61
150 144 57
159 152 68
152 145 60
151 146 53
159 152 67
157 151 71
157 151 68
154 148 62
158 152 75
153 147 67
156 149 59
148 142 62
152 146 65
151 144 62
155 149 71
150 145 54
159 152 67
151 146 61
146 141 61
142 136 64
153 146 66
155 149 68
155 148 68
150 144 61
157 150 65
147 142 61
148 142 63
156 150 67
153 147 70
149 142 64
149 143 71
154 148 71
147 141 64
182 204 99
179 201 92
180 203 99
182 204 110
178 201 76
185 206 117
185 206 120
182 204 102
179 202 95
186 207 117
177 200 76
178 200 76
181 204 111
181 203 99
178 201 72
180 202 92
179 202 88
175 199 72
177 200 67
176 199 76
181 203 102
177 199 70
177 200 76
175 198 44
178 201 72
177 200 72
174 198 51
176 199 44
179 202 80
177 200 76
178 201 84
176 199 57
178 201 80
173 197 47
177 200 62
176 200 67
175 198 51
173 197 51
176 199 57
178 201 76
177 200 67
178 201 84
176 199 62
175 199 80
177 200 67
176 199 36
177 200 67
178 200 57
178 201 72
174 198 51
173 197 57
175 199 72
178 201 80
173 197 51
173 197 67
176 199 67
177 200 72
173 197 67
174 198 51
176 199 72
175 199 57
174 198 57
174 197 62
174 197 62
173 197 51
176 200 80
173 198 67
176 199 72
174 199 76
178 202 92
174 199 76
176 200 80
176 200 80
174 197 44
174 198 57
173 198 76
173 197 67
174 198 57
176 199 67
175 199 80
173 197 76
173 198 67
176 199 44
174 199 67
175 200 76
176 199 62
174 198 57
174 198 62
174 198 67
175 198 88
176 200 72
175 199 67
174 198 72
171 194 51
176 199 57
173 197 72
172 195 51
174 199 72
173 197 44
173 197 57
175 199 62
174 198 62
173 197 76
172 195 36
175 198 62
174 198 57
172 196 57
171 195 72
165 189 62
174 197 72
172 196 72
171 195 51
174 196 84
170 193 76
171 195 76
174 197 80
172 195 80
172 195 67
170 193 51
170 192 57
174 197 51
171 195 67
168 191 57
169 192 80
168 191 84
170 193 80
169 192 80
166 188 92
166 188 72
174 195 114
171 194 72
166 188 84
150 172 47
131 153 25
152 173 0
146 168 18
161 182 18
158 180 0
168 190 0
164 188 0
166 190 0
168 192 44
170 193 0
183 204 117
184 206 114
174 197 0
174 198 0
173 196 0
172 196 0
174 197 0
173 197 0
171 195 0
125 149 76
56 89 113
55 88 105
56 89 108
59 93 124
58 92 110
57 91 114
57 90 110
56 89 100
57 90 115
58 91 110
57 90 117
56 89 114
59 93 121
58 91 117
57 91 102
56 89 94
57 90 118
57 90 114
56 89 103
58 92 124
58 92 122
58 92 117
58 92 125
57 90 117
59 92 121
58 92 115
58 92 122
57 90 115
55 87 107
57 91 115
57 91 114
56 90 103
59 93 124
56 89 113
58 92 121
59 93 122
57 91 111
58 91 107
55 88 115
58 92 126
59 93 124
59 93 124
60 94 131
57 91 120
58 91 108
58 91 113
58 91 118
59 92 131
58 92 115
55 88 107
58 92 124
58 92 117
58 92 117
57 90 111
59 92 120
57 89 115
57 90 122
57 90 114
60 94 133
56 90 105
58 91 120
58 91 125
56 88 118
57 90 121
57 89 118
56 89 110
57 90 122
58 91 129
56 89 113
57 89 109
57 91 117
55 86 104
55 86 96
56 87 103
56 89 114
57 89 114
57 89 108
55 86 110
55 86 117
55 86 108
57 89 108
54 85 108
54 85 91
54 84 102
53 83 105
57 89 122
53 82 104
53 83 99
53 81 100
53 82 96
52 80 94
52 80 91
48 73 82
47 72 69
132 153 46
172 196 0
173 197 0
172 195 0
174 197 0
172 195 0
174 197 0
173 197 0
143 159 28
94 91 32
88 86 28
71 72 15
76 75 12
75 73 11
82 81 11
65 65 12
76 76 10
79 79 18
81 83 18
74 75 18
79 79 14
82 82 24
85 84 30
93 91 26
89 90 27
86 84 30
82 82 29
97 97 34
94 94 32
107 106 37
109 106 40
93 93 27
114 112 33
113 111 36
114 112 35
113 111 35
110 107 34
125 121 45
123 120 46
122 119 37
116 114 43
119 117 42
115 113 42
135 131 52
119 116 39
133 129 53
125 122 53
133 128 50
126 123 43
134 130 55
131 127 50
139 134 60
146 142 59
147 141 56
141 136 47
145 140 48
136 131 50
132 130 51
144 140 54
139 135 56
140 137 45
146 142 53
144 140 49
153 147 56
151 145 58
147 142 54
150 146 58
155 149 62
150 144 57
149 145 54
147 141 56
155 150 58
150 144 51
154 148 60
156 150 54
154 149 65
160 153 65
155 149 59
157 150 63
154 148 62
156 151 54
156 150 57
154 149 59
155 149 64
155 149 61
158 152 62
156 150 63
161 154 70
159 153 65
155 149 59
156 150 59
152 147 59
153 147 62
163 156 75
152 146 57
160 153 65
156 150 62
159 152 69
161 154 64
157 151 63
152 146 53
155 149 62
160 154 67
158 152 64
162 156 66
152 147 58
158 151 61
157 151 63
151 146 62
164 156 68
159 154 61
160 152 69
158 152 67
158 152 62
154 147 62
157 150 62
154 148 64
159 153 70
151 145 59
157 151 72
157 150 65
161 155 72
152 147 62
154 147 62
156 149 68
155 149 60
150 143 61
157 150 65
153 147 61
160 154 64
145 141 53
157 151 69
154 148 67
156 150 66
148 142 56
152 147 65
155 149 62
147 140 61
149 144 58
145 139 53
155 148 67
163 155 75
160 153 70
151 144 68
152 145 69
153 147 67
149 143 64
152 145 66
145 140 62
154 148 69
153 147 67
151 144 59
149 144 66
175 197 44
179 202 84
182 204 95
181 203 105
180 201 80
181 203 92
189 209 140
183 205 105
187 207 120
181 203 95
184 205 114
180 203 99
181 203 105
179 202 94
178 201 80
178 201 80
179 201 76
178 201 76
176 199 62
179 201 84
178 201 76
179 202 84
175 198 51
175 199 67
177 201 76
178 201 72
175 198 57
177 200 72
177 201 90
179 202 92
176 199 62
173 197 54
175 198 65
174 199 74
175 199 67
175 198 60
176 200 72
176 200 76
176 199 57
176 200 62
178 201 80
176 199 67
175 198 67
177 200 80
176 199 36
175 198 44
178 201 76
176 199 57
175 199 57
176 199 57
174 198 51
176 199 62
175 198 67
176 199 72
175 199 57
175 198 44
174 198 62
175 198 67
174 197 62
173 196 72
175 200 84
174 197 57
176 200 62
175 199 72
174 198 62
174 198 57
174 198 51
175 198 67
176 200 84
176 200 80
175 199 67
174 198 51
176 199 44
174 197 62
177 200 67
175 199 62
173 197 67
170 195 62
174 198 72
173 198 67
174 198 76
172 196 51
175 199 67
174 197 51
175 198 57
174 198 67
173 197 62
170 195 51
172 197 51
176 199 62
173 197 67
173 197 76
176 200 88
175 198 57
174 197 62
173 197 76
172 196 76
169 193 57
173 197 84
174 198 67
172 197 92
171 195 57
175 198 57
174 198 84
171 194 51
172 196 44
170 194 72
173 197 67
174 197 76
170 194 62
170 194 62
168 191 44
174 198 57
171 194 76
168 192 67
173 196 80
174 197 76
173 196 76
173 196 72
166 190 62
168 191 84
164 187 72
172 195 84
170 193 80
167 190 76
166 188 80
163 186 67
168 190 88
177 198 114
166 188 99
161 183 84
153 173 62
145 166 0
149 171 0
145 167 0
150 173 0
156 179 0
164 188 0
163 185 0
166 189 0
166 189 51
169 192 44
173 196 62
186 206 128
173 196 0
175 198 0
173 196 0
173 196 0
173 196 0
171 195 0
173 197 0
174 197 0
167 190 31
63 93 113
57 90 106
58 92 114
58 91 126
57 90 120
56 89 110
58 92 120
59 93 115
56 89 113
59 93 117
57 90 103
59 93 120
57 90 110
57 90 114
58 91 114
59 92 113
58 92 115
59 93 125
58 92 115
58 92 114
57 91 111
57 90 115
57 91 115
58 91 120
57 91 114
59 92 114
57 90 117
58 91 115
56 89 110
58 91 108
59 93 130
57 90 118
59 92 121
59 93 120
58 91 117
57 91 108
57 90 110
57 90 117
56 89 113
56 89 114
59 92 115
57 90 111
58 91 124
58 92 113
56 90 107
57 89 113
58 92 120
57 90 111
58 91 111
56 89 103
57 89 118
58 91 125
57 89 111
57 91 112
57 90 121
57 90 111
58 92 120
58 91 122
60 94 125
56 89 117
57 90 111
58 91 124
57 90 113
57 90 121
57 89 105
56 88 101
55 88 111
57 89 118
56 88 107
55 87 103
56 88 108
56 87 107
56 88 92
56 88 118
55 87 108
53 84 102
55 87 110
55 86 108
58 90 118
54 85 101
56 88 114
58 90 114
55 86 103
56 87 112
54 84 112
55 86 104
54 84 101
52 81 103
52 80 97
49 77 102
51 79 101
49 75 76
46 71 72
54 77 73
167 190 0
170 194 0
174 196 0
172 195 0
172 196 0
175 198 0
175 198 0
173 196 0
170 194 0
104 106 30
81 79 31
98 94 35
77 77 20
71 69 13
76 76 15
86 84 21
70 72 19
77 78 23
82 81 17
76 77 10
65 67 23
82 82 20
92 91 12
74 76 22
105 102 23
83 84 15
80 80 32
92 92 31
108 106 37
100 99 32
107 105 38
99 97 35
113 110 42
116 114 40
117 114 40
109 108 39
107 107 42
116 112 45
123 120 40
111 110 40
126 123 48
114 112 34
131 129 49
126 122 46
126 122 38
129 124 46
131 126 48
135 130 53
125 122 41
135 132 53
136 133 53
136 132 57
132 129 42
135 132 49
146 140 57
140 135 55
136 131 51
142 138 48
143 138 51
145 141 51
149 144 52
147 142 50
145 140 59
146 141 47
149 144 53
155 149 61
148 143 60
156 150 71
153 149 58
152 147 63
152 146 55
147 142 58
149 144 54
145 139 50
141 136 44
159 153 58
152 146 52
154 148 57
154 147 61
153 148 56
156 150 58
152 146 63
156 150 59
150 146 53
155 149 62
152 147 60
154 148 53
157 152 63
154 148 63
159 152 66
159 152 65
152 146 56
155 150 57
157 150 61
159 152 66
154 146 60
158 152 60
157 151 61
154 149 60
152 146 58
161 155 60
158 151 63
153 147 58
155 148 65
156 150 67
155 149 61
154 147 57
152 147 67
157 150 67
156 149 68
153 147 52
153 147 61
154 148 59
153 147 54
156 150 61
156 150 63
156 149 66
156 150 63
151 146 57
156 149 59
157 150 71
153 147 65
151 146 57
153 147 60
153 147 65
157 150 67
160 153 67
163 155 70
148 141 67
159 153 68
147 142 61
158 152 67
154 147 65
152 146 66
152 146 63
148 141 57
155 148 70
147 141 60
161 154 70
154 147 66
158 152 65
154 148 63
156 149 70
148 142 63
144 140 59
148 142 63
150 144 66
150 144 60
143 138 60
158 152 70
152 145 60
148 142 65
145 139 68
171 196 0
178 201 76
179 201 84
181 204 105
181 203 99
183 205 108
186 207 128
186 207 128
187 207 125
183 204 102
181 203 95
180 203 99
182 204 102
183 204 102
179 202 92
180 202 88
178 201 80
182 204 105
178 201 84
176 199 57
176 199 67
177 199 62
175 198 44
178 201 67
179 201 86
176 200 72
178 201 82
177 200 82
178 201 76
173 197 70
174 198 65
180 202 95
177 200 62
177 200 82
177 200 76
177 200 82
173 196 54
177 201 80
175 198 70
174 199 62
175 198 70
175 198 51
175 199 62
175 199 67
174 198 84
176 199 67
176 199 72
176 200 67
175 198 51
176 200 76
171 196 51
176 200 72
175 199 62
175 199 57
173 197 57
173 197 62
176 199 51
175 199 57
174 198 36
174 198 76
175 198 57
175 199 67
173 198 92
173 197 57
175 199 88
175 199 51
176 199 57
172 196 67
174 198 62
173 197 62
175 199 80
175 199 72
174 199 72
173 197 80
175 198 72
173 198 67
175 198 57
174 198 57
176 200 80
175 199 51
176 199 80
173 197 67
176 200 102
175 199 88
175 199 84
172 196 72
174 198 72
175 199 76
174 198 67
174 198 44
174 198 76
174 198 62
171 196 51
172 195 57
171 196 62
172 197 80
172 196 57
172 196 72
170 194 76
174 197 51
168 193 44
172 195 51
173 197 51
175 199 76
172 196 72
174 198 80
171 195 62
168 192 57
171 196 84
168 192 57
173 197 80
172 196 88
168 192 76
170 194 44
174 198 88
174 197 76
169 192 76
161 185 67
169 192 67
171 194 92
171 194 84
172 194 84
170 193 67
168 190 67
169 192 88
167 189 102
164 186 84
174 195 111
171 192 105
169 191 95
161 183 62
150 170 44
143 164 0
143 164 0
156 179 0
152 175 0
148 171 0
166 189 0
167 190 0
169 192 25
170 193 36
171 194 0
182 202 122
176 199 62
171 195 0
172 195 0
173 196 0
172 196 0
173 196 0
173 196 0
172 196 0
171 194 0
173 196 0
113 137 90
56 89 103
58 91 100
57 91 113
56 89 107
56 89 102
56 89 102
57 91 103
56 89 102
58 91 114
57 90 107
57 91 110
57 91 115
56 88 105
57 91 117
56 89 114
57 91 114
58 91 121
57 90 107
57 90 115
58 92 118
56 89 120
58 92 120
56 89 100
58 92 113
59 92 125
58 91 114
58 91 117
59 93 122
56 89 99
58 91 118
59 92 125
57 90 110
58 91 111
59 93 124
58 92 120
56 90 97
57 91 107
56 89 100
55 88 100
58 91 111
59 93 117
57 91 117
57 91 117
56 89 110
57 90 125
58 92 125
56 89 110
57 91 117
58 91 114
58 92 113
58 91 126
58 91 108
60 94 126
57 91 118
58 93 126
58 90 111
56 88 108
59 92 124
56 89 118
57 89 115
57 90 118
56 89 111
58 91 117
56 89 107
55 87 117
59 92 125
59 93 126
55 87 118
55 86 103
58 91 126
58 91 121
57 89 119
56 88 108
55 86 101
56 88 114
55 87 113
53 85 91
55 87 116
56 88 110
56 87 103
55 86 96
54 84 101
52 81 94
52 81 94
54 85 107
55 85 103
55 85 109
54 84 94
53 81 90
51 78 94
50 77 79
51 79 73
104 125 60
172 195 0
174 197 0
173 196 0
173 196 0
173 195 0
173 196 0
172 196 0
175 197 0
173 196 0
150 167 16
93 91 36
92 89 25
75 73 24
82 82 18
82 80 25
75 73 14
70 70 12
78 77 16
86 85 16
74 76 14
73 74 20
84 84 21
84 85 26
88 86 23
89 88 16
90 89 21
89 90 24
94 92 24
93 93 26
102 99 24
87 87 29
102 101 36
107 105 33
108 106 34
113 110 30
114 112 36
112 109 34
113 113 36
121 119 44
118 116 37
125 122 39
123 118 36
123 119 41
135 130 49
130 127 42
131 127 39
123 121 42
128 125 43
128 125 32
137 133 42
129 125 49
124 122 42
141 135 60
136 132 46
131 127 49
138 133 51
145 140 54
142 137 51
143 137 52
141 136 52
144 138 55
151 146 58
144 141 52
143 138 47
151 144 54
149 143 55
147 142 60
144 139 47
149 144 52
146 140 53
154 146 51
150 144 57
147 142 57
154 148 56
150 145 54
156 150 58
156 150 57
153 147 57
155 149 58
149 143 49
157 150 62
156 149 59
155 149 62
153 147 51
161 153 66
157 150 66
158 151 66
155 150 58
157 150 66
158 152 58
158 152 61
157 151 59
149 142 56
155 149 57
156 149 65
158 152 64
157 152 59
154 148 59
147 141 51
159 153 59
159 153 64
155 149 59
155 148 57
155 150 62
155 149 57
154 149 58
160 153 65
154 147 58
153 147 62
159 153 67
152 146 61
155 149 61
153 147 67
160 154 60
154 148 56
156 150 60
156 150 64
154 148 57
149 142 60
164 157 70
160 154 69
160 153 64
147 142 54
158 152 66
158 151 70
157 151 64
148 142 54
153 147 60
146 141 57
152 146 59
151 145 59
147 142 57
153 146 60
153 147 62
145 139 59
156 150 64
149 144 59
150 144 60
151 144 62
142 137 53
149 145 54
148 142 58
145 139 49
156 149 66
150 144 53
146 141 59
148 142 58
157 150 69
153 148 62
147 141 56
147 142 60
150 144 63
151 145 66
173 196 0
174 198 36
178 201 80
180 202 92
181 203 95
180 202 105
177 200 80
181 203 88
186 207 122
183 204 114
184 205 120
185 207 120
180 202 99
184 206 120
179 201 84
178 200 76
182 204 95
181 203 88
177 200 78
179 202 88
175 198 62
180 203 99
175 198 72
177 200 67
177 200 76
176 200 84
177 200 72
180 202 76
176 199 54
177 200 51
176 200 76
177 200 76
177 201 80
177 200 80
176 199 92
176 199 57
176 199 74
176 199 62
172 196 47
174 198 62
175 198 54
178 201 88
179 201 92
177 199 72
174 198 51
173 197 51
175 199 67
174 197 57
178 201 88
174 198 72
173 197 67
176 199 36
176 200 72
176 200 67
174 198 76
175 199 57
176 200 84
175 199 76
176 200 72
174 198 44
176 199 57
170 194 44
172 195 57
174 198 62
172 195 36
177 201 84
174 197 57
174 198 72
175 198 51
172 195 62
173 197 72
174 198 76
174 199 84
175 199 80
176 199 51
174 198 57
172 196 44
172 196 57
174 198 51
174 197 57
173 197 76
172 196 51
174 198 57
174 197 51
172 195 51
175 198 72
175 198 80
174 198 51
174 197 44
173 198 80
175 199 84
175 198 72
172 196 57
175 199 80
173 197 72
173 197 80
172 196 72
173 198 76
171 195 51
170 194 57
174 199 76
173 197 51
173 197 51
171 195 72
169 194 62
169 193 76
171 195 62
174 197 72
170 194 72
169 193 51
170 194 36
166 190 62
169 192 72
167 190 67
173 197 57
167 191 76
169 193 57
167 190 62
173 197 72
168 192 80
169 192 67
167 191 88
162 185 44
170 193 80
172 193 84
165 188 76
176 196 111
176 197 99
166 188 76
167 187 95
151 172 51
135 156 0
141 162 0
152 173 0
156 179 0
155 177 0
154 177 0
161 185 0
164 187 25
169 191 25
167 191 25
170 193 36
183 204 120
169 193 0
170 194 0
172 196 0
172 197 0
172 196 0
171 194 0
172 195 0
173 197 0
173 196 0
172 196 0
158 181 40
54 86 94
55 88 102
55 88 94
57 90 110
54 86 92
56 89 99
56 89 111
56 88 100
58 91 114
59 93 122
57 90 114
56 89 111
59 93 117
57 90 108
57 91 108
59 93 113
57 91 113
57 91 117
58 91 118
56 89 108
58 91 117
57 90 114
57 91 118
58 92 120
58 91 115
57 90 115
57 90 111
59 93 120
58 91 118
58 91 111
55 88 100
57 90 102
57 90 111
58 92 113
58 92 113
58 91 110
57 90 115
57 90 113
57 91 113
57 90 120
57 90 120
56 88 110
57 91 124
56 89 115
56 88 110
57 90 118
58 91 118
57 91 120
58 92 120
57 90 110
56 89 116
56 88 107
58 91 107
57 89 113
57 90 128
57 90 114
55 86 104
55 86 108
55 88 110
57 90 113
58 92 124
58 91 114
56 89 115
56 89 108
57 89 110
56 88 113
57 90 115
56 89 94
55 87 104
55 87 108
54 85 107
56 88 115
56 88 110
56 88 119
56 88 120
56 87 115
52 82 101
56 88 114
56 86 122
55 86 93
54 84 103
55 86 104
53 83 93
52 82 96
55 86 101
54 83 93
52 82 94
53 84 103
49 76 93
46 71 78
46 71 68
46 71 67
154 176 32
172 194 0
170 194 0
174 196 0
172 196 0
169 193 0
172 195 0
174 197 0
169 192 0
175 198 0
172 195 0
116 121 32
90 88 29
82 80 19
83 82 27
86 85 14
86 85 26
71 72 8
76 76 14
66 68 17
74 74 12
74 75 16
80 80 14
79 80 15
83 84 20
95 95 31
87 86 25
82 82 25
85 86 23
95 93 29
100 99 25
91 91 24
106 103 24
102 102 26
103 101 27
106 103 32
125 122 34
112 110 36
106 106 31
121 119 39
115 113 37
120 119 35
119 116 42
104 104 42
124 120 37
125 121 46
126 122 35
124 121 45
122 119 31
138 134 55
130 127 39
131 128 49
133 129 43
136 131 49
140 136 49
135 131 47
141 137 48
136 132 45
141 135 50
140 135 50
142 138 45
136 131 42
142 138 45
146 139 51
133 131 39
145 141 48
143 139 45
144 138 49
144 138 55
154 147 57
151 144 51
150 143 59
148 144 56
155 149 59
152 145 53
156 149 57
153 146 58
154 148 58
153 146 57
149 144 49
153 146 54
155 149 64
160 154 63
158 151 61
156 151 56
155 149 60
155 150 54
157 151 58
157 151 61
148 143 51
158 152 61
152 146 59
155 148 53
157 150 56
156 149 61
159 153 59
156 150 59
154 147 57
155 149 56
151 145 58
156 149 58
149 142 59
157 151 62
152 145 59
161 154 62
153 147 54
150 143 59
154 146 59
156 151 58
156 149 65
154 148 57
154 147 61
152 147 59
150 144 49
149 143 54
149 144 54
150 143 61
147 141 53
151 145 59
149 143 54
151 144 63
150 144 71
152 147 58
152 146 62
154 148 66
153 148 54
155 148 61
145 140 56
154 147 60
151 144 62
159 152 66
152 146 61
148 142 62
149 143 54
157 150 72
150 144 67
155 148 63
155 148 61
152 146 60
154 148 59
149 144 56
151 144 60
143 137 61
153 147 70
153 147 67
144 138 59
149 143 69
147 140 61
152 145 65
145 140 60
153 146 58
148 141 59
150 143 63
144 137 59
173 196 0
173 197 0
174 198 44
178 200 84
176 199 67
180 202 92
184 205 105
175 199 57
180 203 107
183 205 108
180 202 99
183 205 111
182 204 111
181 203 102
179 201 84
180 203 99
179 202 102
181 203 99
180 202 92
177 200 67
177 200 78
177 199 57
180 202 95
178 201 92
179 201 80
176 199 70
179 202 88
175 198 62
176 199 51
175 198 36
177 200 62
174 198 44
176 200 72
177 199 62
172 196 47
178 201 82
174 197 62
176 199 72
174 198 57
177 200 84
177 200 80
175 198 51
176 200 67
176 199 62
177 200 72
175 199 44
174 198 67
176 199 72
176 200 72
175 199 62
173 197 51
178 201 88
175 199 72
175 199 62
174 198 57
176 199 72
176 199 62
173 197 62
175 199 57
175 198 57
175 198 62
175 197 62
174 198 62
173 197 62
174 199 88
173 197 51
173 197 62
174 198 84
173 198 62
175 199 80
173 197 44
172 197 72
174 198 57
173 197 44
173 196 57
173 197 67
175 199 44
173 197 80
174 197 67
175 199 72
174 198 72
171 195 76
173 197 76
173 197 67
173 198 84
171 196 67
173 197 80
169 193 62
173 196 51
173 198 72
172 196 51
173 197 57
172 196 67
173 198 67
171 195 76
173 196 36
168 192 51
170 194 62
172 196 72
173 198 80
170 194 51
174 197 51
174 198 62
167 191 57
172 196 88
172 197 72
171 195 76
172 197 51
172 196 67
169 193 36
174 197 36
170 193 67
169 194 95
173 196 72
167 191 62
166 190 72
170 193 92
165 189 67
169 192 80
168 192 72
167 190 80
171 194 84
171 195 76
172 195 80
175 197 62
166 189 80
174 195 105
171 193 92
158 181 62
145 166 44
136 158 0
142 165 0
152 174 0
151 172 0
157 179 0
152 175 0
161 185 0
164 187 0
170 193 36
166 189 36
169 193 44
180 201 120
173 196 57
171 195 0
170 195 0
174 198 0
169 193 0
173 196 0
171 194 0
170 193 0
174 197 0
171 195 0
172 196 0
170 194 0
114 138 78
57 90 111
56 89 100
57 91 117
57 90 115
57 90 108
57 91 107
54 86 99
56 89 102
58 91 107
56 89 107
56 89 114
56 88 118
57 90 102
55 88 97
58 91 114
57 91 122
55 88 100
59 93 111
56 90 108
59 93 128
58 92 115
57 91 111
55 87 99
58 92 107
58 92 111
58 91 122
56 90 114
58 91 105
55 88 95
58 91 118
58 91 99
58 91 120
59 92 124
56 89 110
57 90 121
59 93 115
59 93 118
58 92 114
55 87 103
59 93 128
57 90 114
56 89 97
58 92 122
56 89 114
57 90 113
57 90 113
57 91 115
56 89 116
57 90 115
58 91 110
59 93 135
56 89 111
57 89 114
57 90 117
57 90 115
56 88 108
56 88 113
57 89 120
55 86 103
55 87 107
56 87 117
57 90 108
59 92 121
56 88 111
56 89 110
56 89 107
57 89 105
57 90 124
58 91 117
55 86 110
57 89 115
54 85 99
55 86 106
53 84 104
56 89 109
56 88 105
54 84 101
54 85 112
52 82 93
55 85 110
54 85 106
54 84 98
54 83 90
53 82 93
53 82 98
51 80 89
51 79 81
46 72 80
51 79 75
49 75 85
111 131 56
170 192 0
173 196 0
167 190 0
170 193 0
167 190 0
168 191 0
168 190 0
170 194 0
170 191 0
168 193 0
168 190 0
160 178 11
97 94 32
88 86 19
83 80 25
89 85 21
82 80 17
70 69 8
72 73 18
78 78 11
73 73 12
70 70 10
80 79 14
89 88 19
86 86 22
85 86 25
93 92 26
85 85 27
92 93 20
101 98 27
88 90 18
92 91 28
106 105 25
113 111 32
95 95 21
108 106 36
105 102 32
117 114 24
123 120 36
115 114 40
105 104 40
115 112 42
119 116 42
126 122 43
117 114 39
121 118 38
125 122 41
127 124 45
123 119 46
125 121 42
122 118 33
132 128 46
122 119 33
126 122 46
132 129 45
130 126 43
144 139 53
130 126 35
141 136 47
135 131 44
134 131 41
136 132 47
133 130 45
147 142 47
146 141 53
141 136 52
141 135 47
139 134 52
148 143 53
144 139 42
145 141 53
154 149 62
146 141 52
150 144 51
156 150 52
142 137 37
150 146 57
155 150 54
148 143 49
151 146 59
152 145 53
154 147 51
151 146 57
159 151 57
146 141 49
154 147 63
155 149 61
159 152 64
150 144 59
152 147 58
155 149 56
150 144 56
154 149 59
155 148 65
154 148 51
151 145 56
151 144 54
156 150 58
152 146 54
153 146 59
152 146 61
155 148 60
150 144 63
156 149 64
156 151 56
151 146 54
151 145 53
151 146 51
152 145 53
156 149 61
151 146 58
150 143 59
161 153 66
154 149 57
152 146 56
159 151 59
153 147 63
157 150 62
152 145 57
148 142 54
152 147 52
149 144 58
153 147 62
157 149 63
155 149 56
148 142 60
150 143 58
143 138 47
151 144 54
146 140 57
154 149 53
150 144 59
145 139 54
154 147 66
155 148 63
155 148 66
154 146 64
153 147 59
146 138 60
155 149 67
149 143 61
149 143 57
160 153 66
149 143 52
148 141 58
149 143 63
147 141 60
153 146 61
141 136 51
151 146 63
153 147 63
146 139 66
139 133 61
152 146 68
175 198 0
171 195 0
175 198 0
177 200 72
179 202 84
179 201 88
181 203 99
178 200 88
179 202 84
183 204 111
182 204 108
181 203 99
184 205 117
184 206 117
180 202 95
180 203 95
180 202 92
181 202 102
178 201 76
179 202 95
179 201 84
178 201 84
178 201 76
177 199 76
179 202 84
178 200 67
175 199 57
176 199 80
177 200 72
175 198 74
178 201 80
178 201 76
176 199 72
177 200 76
176 199 62
176 199 70
177 201 80
175 199 84
175 199 62
174 198 36
175 199 67
176 199 80
176 200 76
175 198 62
176 200 72
175 199 72
175 199 62
176 199 62
176 200 80
175 198 57
177 199 67
174 198 57
175 199 51
175 199 51
175 199 57
175 198 72
174 198 76
175 199 72
175 199 57
175 198 62
175 198 62
175 199 67
174 198 57
172 196 57
171 196 57
172 197 57
173 198 67
174 198 62
173 198 80
173 197 67
175 199 99
172 197 80
173 197 57
175 199 72
172 196 67
174 198 62
172 196 62
172 197 67
171 196 84
173 198 67
173 197 76
175 199 72
174 198 57
174 198 62
172 196 51
174 198 84
170 195 57
172 196 72
173 197 88
173 196 51
172 196 57
172 196 72
171 196 62
173 197 80
169 193 57
171 195 44
173 198 76
172 196 51
171 195 51
169 193 72
173 197 76
171 196 76
173 197 44
170 194 67
170 193 62
170 194 36
169 193 72
174 197 76
165 189 57
169 193 62
172 195 67
166 190 62
170 194 57
169 194 76
173 197 80
173 196 88
169 192 76
172 195 67
163 186 62
171 194 72
168 191 80
175 198 92
156 179 51
170 193 102
169 191 99
175 196 111
166 189 76
168 190 92
149 171 62
145 166 0
137 159 0
154 176 0
146 168 0
157 179 0
150 173 0
160 182 0
159 183 25
165 188 25
165 188 57
166 190 36
175 197 72
182 203 102
175 198 0
173 197 0
171 195 0
171 195 0
170 193 0
173 196 0
170 194 0
168 192 0
172 196 0
172 195 0
172 195 0
171 195 0
162 186 25
61 93 111
55 87 90
57 91 114
56 89 97
56 88 100
56 89 111
55 88 102
56 89 102
56 89 107
57 90 105
56 89 108
56 88 103
56 88 100
57 90 100
58 91 105
58 91 120
58 91 117
57 91 117
58 92 117
57 90 114
57 90 108
57 91 114
55 87 103
57 91 113
59 92 120
55 87 103
57 89 124
56 89 105
57 90 114
58 91 110
56 88 108
58 92 120
57 91 108
57 89 113
58 92 120
57 90 115
56 89 110
57 90 103
57 90 118
58 91 121
54 85 107
56 89 110
55 88 114
56 89 113
57 90 102
56 89 111
56 89 105
55 87 99
59 93 120
54 86 99
58 91 114
56 89 118
57 91 114
56 89 110
55 87 101
56 88 102
58 92 122
56 88 102
57 89 107
56 88 110
57 90 111
55 86 112
56 88 108
54 86 101
57 90 114
56 88 107
57 89 110
56 89 107
55 86 105
53 84 99
56 88 109
54 86 98
55 86 109
56 88 110
53 83 99
55 86 99
54 86 102
55 86 110
53 82 85
53 83 91
53 83 94
54 84 96
54 84 103
55 85 99
52 81 103
52 80 93
51 79 89
50 78 85
48 73 88
55 78 76
160 182 11
172 194 0
168 191 0
169 190 0
173 195 0
168 190 0
168 190 0
169 191 0
172 195 0
170 194 0
171 195 0
170 193 0
172 196 0
130 140 25
92 89 32
99 96 18
90 87 28
93 89 23
71 69 12
73 73 17
83 82 12
70 68 9
77 77 11
74 74 7
80 79 11
80 79 16
84 82 20
91 90 14
92 91 14
93 92 23
93 93 22
96 94 29
98 96 31
105 103 23
93 92 22
103 101 29
114 111 27
108 107 23
108 106 38
106 104 33
111 109 35
119 117 35
115 111 39
115 113 33
120 117 37
113 112 26
125 122 41
125 120 35
127 123 46
132 128 43
136 131 45
135 130 47
127 122 42
133 129 45
132 128 38
125 122 46
139 133 54
137 134 35
136 130 47
139 135 47
143 137 50
144 139 47
136 132 53
144 138 47
148 141 51
146 140 45
144 138 45
138 133 45
152 146 49
140 136 49
142 138 44
145 140 45
142 135 49
152 145 54
147 140 51
149 143 59
147 140 49
153 146 51
154 148 54
150 145 51
146 141 49
154 149 58
150 144 49
155 149 56
154 148 54
146 141 45
146 141 47
152 145 54
152 146 56
146 141 52
156 150 57
155 150 52
145 140 49
152 146 57
157 151 53
150 144 56
155 149 53
150 145 56
148 142 53
148 142 45
149 142 58
155 147 59
155 149 57
150 144 56
164 157 61
152 147 56
158 152 65
151 144 60
155 149 64
158 151 67
152 146 56
152 146 57
152 146 61
154 147 52
150 144 51
152 147 54
155 148 58
154 148 56
158 152 62
147 141 56
151 145 59
159 153 63
150 144 63
157 151 67
154 147 57
145 139 56
159 151 69
154 148 53
148 142 57
161 155 68
151 144 62
160 152 71
151 145 64
152 144 63
155 148 60
143 138 57
154 147 65
146 143 45
145 138 56
146 139 52
148 142 62
150 144 59
145 140 59
151 145 63
149 143 61
150 144 63
148 142 56
151 146 57
151 144 66
146 140 61
142 136 51
144 137 59
147 140 60
154 149 63
147 141 58
171 195 0
173 197 0
173 196 0
172 196 0
178 200 67
180 203 99
180 202 92
179 201 84
181 203 88
180 203 95
178 201 72
187 208 128
184 206 114
180 202 97
182 204 108
184 206 133
177 200 67
182 204 108
179 201 80
180 202 88
179 202 88
177 200 84
175 199 62
180 202 95
179 202 84
177 200 67
176 199 76
175 198 36
176 200 72
178 201 84
178 201 76
178 201 76
176 199 67
179 202 88
175 198 86
176 199 62
177 200 80
176 199 62
175 199 57
174 198 57
178 201 88
174 198 67
173 196 57
175 198 76
175 198 76
173 196 57
177 201 80
174 198 62
175 198 25
172 196 51
176 200 72
175 198 57
176 200 57
174 199 84
173 198 57
176 199 57
175 199 76
174 197 51
175 198 62
172 196 67
173 197 51
174 197 44
175 199 88
174 198 72
174 198 57
172 197 72
173 197 62
174 198 72
172 197 76
174 198 67
174 198 76
176 200 80
174 197 51
173 197 62
172 196 62
171 195 72
172 196 36
172 196 72
172 197 57
173 197 62
175 199 57
173 198 67
173 198 72
172 196 57
174 198 80
171 196 57
177 201 99
175 198 62
170 194 57
171 195 76
173 198 84
171 195 67
170 195 72
168 191 51
173 197 76
169 192 62
172 195 51
174 197 67
169 194 72
170 194 57
171 195 72
171 195 36
171 196 72
172 196 72
170 195 84
171 194 67
171 195 84
171 194 62
169 193 57
172 195 76
171 194 72
168 192 76
168 192 62
171 194 72
171 195 76
171 194 67
172 195 99
165 188 80
165 189 72
173 195 92
168 190 76
163 186 76
165 186 88
172 193 102
168 190 92
162 184 51
166 189 76
154 176 57
138 160 0
144 165 0
146 168 0
155 177 0
155 178 0
148 170 0
154 176 0
156 179 0
158 182 0
160 183 44
170 193 44
167 189 44
186 207 128
173 197 25
172 195 0
173 196 0
169 192 0
171 194 0
173 196 0
171 194 0
168 192 0
169 193 0
172 195 0
168 192 0
167 191 0
168 191 0
172 195 0
121 144 73
55 88 95
57 90 100
56 89 107
56 89 108
56 89 113
56 90 100
57 90 111
55 88 102
55 88 108
54 86 97
55 87 103
58 91 113
56 88 103
58 92 118
55 88 100
58 91 118
58 91 108
56 89 107
55 88 111
55 88 92
57 89 117
56 88 114
57 90 111
59 92 122
58 92 113
55 87 105
55 87 107
57 89 102
57 90 107
57 91 110
58 91 114
57 91 111
57 90 107
56 90 103
55 87 97
57 90 113
56 89 114
54 86 108
56 89 113
58 91 100
55 88 108
58 91 117
57 90 113
56 89 102
58 91 113
58 91 113
59 92 117
57 89 113
56 88 108
54 85 99
57 90 111
56 89 113
58 91 121
58 91 121
58 91 120
56 88 105
57 90 115
56 87 110
58 91 115
57 89 113
55 87 107
56 87 114
56 89 105
55 86 105
57 89 109
56 88 115
54 86 107
54 86 104
55 86 101
57 89 108
56 89 110
53 83 99
55 86 101
56 87 102
53 84 98
52 82 93
53 84 93
56 87 106
53 82 103
53 82 93
55 86 98
50 79 91
52 82 96
54 83 94
49 75 84
50 77 98
47 73 80
49 75 73
114 134 48
164 186 0
172 193 0
171 193 0
170 192 0
168 190 0
171 195 0
167 190 0
168 192 0
171 194 0
171 195 0
170 193 0
169 192 0
172 195 0
168 190 0
100 102 29
93 88 28
82 79 25
78 74 16
85 82 19
66 67 12
84 80 3
80 78 0
81 80 3
73 71 3
95 91 5
80 77 9
80 79 11
94 91 18
86 87 14
91 90 18
102 98 24
96 93 20
89 88 29
92 92 25
109 107 27
102 99 14
99 97 23
97 95 21
104 103 31
120 116 30
99 97 29
117 113 32
126 121 40
123 118 36
127 124 38
115 112 29
125 122 35
124 121 41
122 119 35
118 115 29
130 126 42
128 124 38
134 130 47
127 122 37
131 128 43
137 133 47
140 135 39
137 134 43
133 127 46
140 136 48
137 132 39
138 133 44
141 135 49
147 141 52
143 137 47
137 133 45
146 141 47
140 135 41
145 139 50
143 137 49
138 134 44
147 142 49
137 133 42
144 140 47
148 143 53
149 143 45
142 137 45
146 140 49
135 130 41
147 141 52
147 141 51
143 138 41
144 140 48
147 141 52
155 148 58
148 142 54
149 144 53
150 144 53
152 147 47
154 148 61
148 142 52
140 135 44
158 151 60
154 147 56
150 145 44
143 139 36
158 150 60
151 145 57
146 140 58
150 144 47
152 145 58
151 145 54
157 151 59
148 143 52
152 145 58
154 148 56
156 149 61
152 146 52
155 150 53
155 149 56
151 144 49
150 144 52
145 140 45
147 142 51
154 148 59
143 139 41
151 145 56
152 147 57
155 149 61
153 147 57
152 146 59
156 148 60
152 146 61
154 148 58
147 141 56
147 140 56
149 144 52
160 154 62
152 146 57
153 147 60
151 146 56
153 146 60
155 149 64
144 139 51
152 145 62
151 145 65
152 146 57
155 148 63
141 137 49
147 141 53
150 144 56
152 146 63
152 145 64
146 140 58
150 143 64
145 140 58
141 135 57
141 136 60
155 149 59
146 140 59
147 140 63
141 136 52
149 142 65
140 134 52
143 138 54
174 197 0
174 197 0
173 196 0
175 197 0
175 198 0
177 200 57
181 203 92
179 202 88
176 199 57
181 203 92
177 200 72
178 201 72
183 205 108
182 204 111
184 205 114
180 202 84
178 201 80
178 201 95
181 202 108
180 203 102
178 202 92
179 201 80
178 201 80
175 199 72
177 199 74
178 201 84
174 197 62
174 198 72
177 200 88
176 199 57
176 200 67
176 199 76
176 200 72
175 199 60
176 199 67
176 200 90
175 199 62
175 199 67
176 199 76
173 197 57
175 199 76
177 200 67
173 198 57
176 200 72
177 200 84
176 199 76
174 198 67
174 197 51
175 199 76
174 198 80
176 200 67
179 202 88
174 197 25
174 198 57
175 199 57
175 199 92
176 200 76
176 199 67
175 198 51
173 197 62
174 198 67
173 198 67
175 199 62
173 197 62
175 198 80
175 199 62
175 199 80
174 197 67
172 197 80
175 199 80
176 199 72
173 197 72
172 196 67
172 197 62
175 198 80
173 196 44
174 199 80
173 197 36
174 198 67
172 196 67
172 196 62
171 196 62
171 196 76
169 194 72
173 197 76
173 197 76
170 194 67
171 195 51
171 196 76
171 196 67
172 196 62
172 195 36
172 196 67
170 193 72
173 197 62
173 197 62
171 196 67
174 198 67
172 196 80
173 195 36
174 197 76
169 193 62
173 197 84
173 196 67
170 194 44
170 195 57
174 197 76
168 192 62
169 193 62
170 193 88
168 193 57
172 196 80
167 191 57
170 193 67
168 191 67
166 188 72
171 195 72
173 195 72
169 192 88
173 196 62
177 199 76
170 193 105
171 192 102
170 191 108
168 189 99
167 188 76
158 179 44
153 174 0
146 168 0
151 173 0
149 171 0
153 175 0
151 173 0
155 179 0
150 171 0
161 185 25
166 188 44
163 185 62
160 184 51
178 200 80
178 201 76
171 194 0
173 196 0
172 196 0
172 195 0
170 193 0
168 192 0
169 192 0
166 191 0
173 196 0
172 196 0
168 192 0
170 195 0
171 194 0
172 195 0
160 185 25
82 108 62
53 84 86
56 89 107
55 87 97
58 92 113
57 89 105
55 88 94
55 87 100
57 90 111
57 91 114
57 90 100
57 90 95
57 90 110
56 88 100
56 88 100
57 90 97
58 92 117
56 88 111
54 87 95
56 89 103
56 89 103
56 89 113
55 87 103
56 88 108
56 88 102
55 88 100
57 90 113
58 92 114
57 91 114
57 90 110
56 89 103
56 89 97
57 90 110
57 90 115
59 93 124
56 89 102
58 91 107
56 89 114
58 92 117
56 89 99
57 91 117
54 86 108
57 90 107
57 90 113
57 90 111
54 86 95
56 88 105
56 89 111
59 92 113
56 89 108
55 86 99
57 90 114
57 89 120
59 93 122
57 90 105
54 85 102
56 89 113
57 90 114
56 88 94
55 86 95
56 88 101
55 87 105
55 87 103
56 88 107
55 87 111
56 88 119
57 90 114
56 88 102
54 85 96
55 86 108
56 88 113
54 85 107
56 88 105
54 84 100
54 85 107
55 85 101
53 83 96
55 86 96
55 86 105
53 83 82
52 81 90
51 79 98
52 81 86
49 76 73
51 79 91
50 79 89
48 74 76
70 91 77
165 186 8
168 191 0
169 192 0
168 191 0
167 189 0
164 186 0
169 191 0
166 188 0
164 186 0
169 192 0
169 191 0
167 189 0
167 189 0
170 192 0
167 189 0
158 177 16
90 88 28
97 93 31
80 77 22
72 73 17
74 74 18
87 85 16
88 85 24
82 78 21
69 69 8
94 91 18
87 86 20
82 80 14
86 84 16
94 92 20
103 100 21
94 93 25
95 93 18
107 104 21
114 111 27
91 89 23
107 105 21
108 105 22
98 95 29
95 94 23
119 115 33
106 103 26
115 109 29
122 118 33
119 114 36
114 111 34
112 111 33
124 120 24
131 126 49
124 120 29
119 116 25
124 121 37
126 123 39
128 124 33
127 123 38
133 128 40
134 130 49
125 120 39
138 133 37
132 128 37
135 129 44
135 133 37
149 143 56
144 139 43
140 136 52
139 134 42
137 133 45
144 139 31
146 140 49
142 136 44
140 134 51
149 143 56
139 133 37
149 144 54
142 137 46
142 137 49
140 135 42
150 144 52
147 142 52
144 137 42
148 142 52
147 143 45
143 138 44
154 148 58
145 139 49
144 139 46
151 146 56
150 143 53
145 139 48
145 139 51
155 149 56
149 142 52
152 146 44
151 145 51
153 147 56
141 136 44
147 142 54
154 149 51
149 143 51
159 153 60
157 150 58
150 144 48
148 142 54
157 151 54
152 146 52
153 147 60
148 143 52
153 147 56
157 150 68
146 140 49
157 150 58
145 139 58
152 144 56
147 141 49
151 145 60
158 150 65
145 140 57
156 149 64
150 144 48
153 148 57
148 141 49
154 147 58
148 141 59
154 148 61
148 143 58
149 144 60
145 140 53
147 141 57
150 143 53
151 144 60
153 147 49
147 142 54
158 151 65
149 141 58
149 143 56
151 145 57
146 141 47
150 145 56
148 142 58
151 146 63
134 129 53
156 149 71
148 142 57
155 149 59
148 141 56
147 140 52
149 143 63
148 143 56
148 143 54
146 139 60
143 137 52
155 148 66
145 139 60
148 142 63
143 138 53
143 137 52
174 197 0
174 198 0
176 198 0
173 197 0
173 196 0
174 197 0
176 199 57
180 202 92
180 202 84
181 203 102
177 200 57
177 200 67
181 202 92
181 203 105
180 202 114
178 201 88
182 204 105
182 204 108
180 203 105
181 203 102
178 201 84
179 201 88
179 201 84
177 200 84
181 203 92
178 201 84
179 201 84
180 203 102
175 199 67
174 198 62
178 201 76
175 198 51
175 199 57
178 201 84
174 198 51
179 202 105
177 201 95
173 197 62
175 198 51
175 199 67
174 198 62
175 199 72
171 195 62
175 199 62
176 200 88
175 198 62
173 198 72
175 199 67
173 197 57
176 200 99
173 197 67
175 199 62
173 197 76
175 199 72
175 198 44
174 199 80
174 197 67
175 199 76
175 199 67
174 198 62
174 198 92
171 194 51
176 199 76
172 197 76
172 196 72
173 197 51
172 196 36
176 200 76
173 198 84
174 197 51
173 197 51
175 199 72
173 197 72
174 198 76
174 198 51
173 197 62
172 196 51
172 197 57
173 197 62
172 196 72
173 197 72
172 196 62
174 197 57
174 197 72
171 195 62
174 198 57
173 197 57
173 196 44
172 197 67
168 193 62
174 198 62
174 197 57
171 195 57
174 198 84
173 197 72
171 195 80
170 194 51
174 198 72
169 193 57
170 194 72
175 198 76
174 197 57
171 194 51
170 194 76
172 197 88
165 188 44
170 194 57
171 194 57
175 198 36
172 196 80
169 193 67
169 192 72
170 193 72
171 195 67
166 190 72
171 194 72
169 192 80
169 192 80
167 189 57
171 193 95
169 190 95
167 189 80
171 192 105
158 181 51
164 187 57
154 176 76
144 165 0
150 171 0
134 156 0
147 169 0
153 175 0
150 171 0
154 177 0
149 171 0
160 183 0
158 181 0
169 192 36
170 193 51
173 196 51
179 201 95
169 192 0
171 194 0
171 194 0
168 192 0
172 195 0
170 193 0
168 191 0
169 192 0
171 195 0
165 188 0
171 194 0
164 189 0
170 194 0
171 194 0
170 193 0
167 190 0
147 171 62
53 85 86
54 85 88
56 89 99
56 89 114
56 89 99
56 88 102
53 84 78
57 90 105
55 88 103
57 89 113
58 92 113
55 88 100
55 87 97
57 91 120
54 87 92
55 88 108
58 91 111
56 88 114
56 89 99
56 89 103
57 91 110
54 87 94
56 89 103
57 90 100
57 90 113
55 88 99
54 86 107
56 88 110
57 90 105
53 85 94
57 90 113
58 92 110
55 86 107
55 86 95
57 90 115
56 88 107
57 90 118
58 91 108
55 88 102
58 91 111
56 88 100
57 90 123
57 90 102
54 86 100
56 89 107
56 89 107
58 92 118
56 89 105
57 91 118
55 87 97
57 90 115
57 90 114
55 87 97
58 91 114
56 89 107
56 89 113
56 89 108
55 88 105
56 87 107
55 88 110
58 91 117
57 89 107
55 86 104
56 89 116
57 89 112
54 85 106
53 84 97
55 86 106
54 84 99
54 85 101
55 87 102
54 84 100
54 84 100
55 86 94
52 81 100
53 83 106
52 81 97
52 81 89
53 83 79
50 78 91
52 81 91
48 75 82
47 73 83
50 77 75
52 81 93
48 73 79
136 157 22
168 190 0
165 188 0
168 190 0
165 186 0
166 189 0
165 186 0
166 189 0
166 190 0
160 182 0
163 184 0
168 190 0
168 190 0
168 190 0
168 191 0
169 191 0
172 194 0
133 145 22
103 99 38
87 85 23
94 89 27
84 82 18
85 80 8
78 76 8
78 76 0
82 81 8
86 84 19
83 80 16
87 86 18
86 83 20
89 89 18
82 81 17
89 87 18
92 91 12
101 98 12
107 105 18
105 102 24
105 103 24
111 109 27
106 104 25
111 109 35
112 107 28
105 103 28
113 111 27
112 108 32
120 115 38
122 119 44
112 111 29
124 119 40
124 119 37
123 119 35
119 117 28
120 117 26
130 126 37
131 127 42
129 126 38
130 127 40
122 118 34
134 129 40
125 121 32
126 121 36
136 130 44
134 129 42
135 130 36
136 131 50
144 138 47
135 131 39
138 134 39
135 129 49
144 138 40
140 136 45
131 127 26
142 137 41
152 146 47
137 132 45
140 135 44
136 132 42
148 142 49
149 143 45
146 140 53
149 144 44
143 138 49
146 141 39
151 144 49
149 142 49
152 145 41
152 145 51
147 142 49
145 139 49
156 149 53
151 144 53
151 145 48
150 145 47
155 148 48
149 143 54
149 143 53
149 143 48
150 144 59
151 146 53
148 142 56
147 142 48
144 140 45
153 146 57
153 146 57
145 139 49
157 149 63
145 139 54
152 144 59
158 151 65
147 141 56
153 147 62
146 141 47
154 148 60
156 149 60
154 147 61
145 140 54
148 144 51
152 147 59
151 145 52
143 136 57
151 145 63
153 148 60
148 141 51
137 132 47
155 149 57
151 145 54
150 143 63
153 146 57
148 142 51
148 143 52
149 143 54
146 141 54
154 148 62
150 144 57
150 143 62
155 148 61
148 143 53
146 139 61
153 147 60
148 141 57
151 145 58
149 143 66
148 141 60
151 144 63
154 147 61
149 142 61
148 141 60
151 145 59
146 140 56
145 138 60
143 138 56
149 143 59
143 137 49
143 139 56
141 136 53
146 139 61
147 141 56
170 194 0
173 197 0
174 197 0
172 195 0
174 196 0
172 197 0
173 196 0
173 196 57
177 200 72
180 203 99
179 202 84
180 202 76
176 199 78
177 200 76
179 201 80
184 205 117
181 203 111
182 205 117
179 201 88
177 200 80
181 203 95
180 203 99
177 200 86
178 201 95
176 199 76
177 200 80
176 199 84
177 200 88
176 199 72
176 199 57
178 201 76
171 195 57
176 199 72
176 199 80
175 199 62
176 199 62
173 197 44
177 201 84
174 198 72
175 199 62
175 198 67
172 195 51
174 198 57
176 199 76
175 198 36
174 198 36
175 198 67
175 199 72
173 197 51
178 201 80
173 197 62
174 197 84
177 201 102
177 201 88
174 197 62
175 198 67
174 198 88
173 198 76
173 197 62
173 197 72
174 198 72
175 199 67
173 197 44
173 197 57
172 196 62
173 197 67
173 197 80
176 200 84
175 198 67
173 197 72
175 200 84
175 199 67
170 194 72
171 195 67
171 195 57
175 199 84
174 197 36
174 198 67
170 194 67
171 196 51
166 190 51
171 195 67
169 193 62
172 195 62
173 196 44
172 196 72
171 196 80
175 198 51
171 195 62
168 193 67
171 194 51
170 195 67
171 195 67
170 195 67
169 192 67
171 195 51
168 192 67
171 196 84
174 197 62
171 194 62
168 192 51
175 199 88
173 196 67
169 192 62
172 195 62
168 191 67
166 189 67
171 194 62
172 195 80
170 194 84
165 189 67
165 188 57
170 193 80
168 191 57
166 189 51
171 193 76
172 194 80
162 184 88
161 184 80
162 184 76
168 189 105
173 194 95
162 184 62
157 179 76
160 181 62
143 165 25
143 163 0
153 174 0
150 171 25
152 173 0
150 172 0
149 170 0
153 175 0
157 179 0
159 181 0
160 183 0
167 190 57
168 191 25
181 201 99
168 192 0
168 192 0
168 192 0
169 193 0
169 192 0
168 191 0
167 192 0
170 193 0
172 195 0
163 187 0
164 189 0
170 192 0
169 193 0
168 192 0
170 194 0
169 192 0
170 194 0
167 190 0
122 146 74
55 88 97
55 87 103
55 88 97
55 87 100
56 89 103
55 88 99
55 87 97
54 86 90
55 87 99
56 88 99
56 88 107
53 84 86
56 89 107
56 89 103
56 89 105
56 89 102
55 88 103
57 90 108
56 89 105
58 91 120
56 89 110
58 91 111
56 89 110
56 88 99
56 89 103
59 92 120
56 89 95
57 90 114
57 89 113
58 92 111
56 88 103
56 88 105
57 90 102
56 88 103
55 87 107
57 90 115
56 90 108
56 89 110
58 90 107
55 87 107
57 90 117
56 89 105
57 90 103
57 90 102
56 88 102
57 89 105
55 87 99
56 89 103
57 90 107
57 90 111
55 87 90
53 84 96
56 89 102
56 89 107
57 91 113
58 92 122
55 87 101
54 86 101
57 89 114
54 85 92
55 85 106
54 85 92
57 88 111
55 86 97
55 86 116
54 85 94
54 86 99
53 83 96
54 84 103
55 87 110
55 86 108
54 85 104
52 83 103
51 81 89
53 82 92
54 84 98
53 82 101
54 84 106
51 80 89
49 76 67
49 78 81
50 77 80
48 74 68
47 74 69
111 131 51
167 188 0
167 189 0
163 184 0
164 186 0
169 192 0
157 180 0
165 188 0
163 185 0
164 184 0
166 188 0
164 187 0
165 187 0
166 187 0
162 182 0
163 183 0
167 190 0
169 191 0
161 182 0
125 130 30
78 76 18
85 82 11
83 81 19
88 85 23
74 71 11
77 75 16
84 82 21
88 84 14
75 71 8
86 83 11
84 84 14
84 84 18
75 75 14
95 93 18
101 99 21
100 97 19
85 84 23
102 101 18
103 101 27
101 100 25
99 97 16
104 102 8
102 100 25
115 112 21
101 99 16
109 107 24
111 109 18
113 110 19
110 108 34
119 115 29
121 117 21
126 122 33
122 118 37
121 117 31
122 119 39
119 115 34
129 123 36
129 123 44
130 126 30
133 129 37
127 123 34
133 129 46
135 130 45
143 137 53
136 132 33
141 135 42
138 132 46
134 130 39
141 136 34
137 132 45
135 130 33
134 130 35
141 135 42
146 141 45
140 135 40
140 135 38
135 132 34
153 147 52
146 141 42
143 138 51
145 138 47
143 138 52
145 140 47
153 146 53
148 143 42
152 145 52
155 149 48
143 138 40
153 146 56
145 140 45
147 142 44
144 139 42
148 143 52
151 146 52
147 141 52
153 146 52
147 142 45
144 139 44
153 146 52
151 145 54
152 146 52
158 151 57
149 143 53
150 143 52
140 134 48
145 139 44
143 137 51
153 147 59
149 144 48
150 143 53
156 149 61
152 145 58
157 151 56
143 139 41
145 139 58
149 143 52
154 147 59
153 146 59
151 145 53
148 141 56
156 149 57
148 142 49
152 146 48
145 139 45
147 141 49
139 134 39
143 136 52
149 142 53
155 148 53
154 147 60
143 136 53
141 137 47
151 144 60
151 144 52
145 139 52
148 142 48
149 144 52
154 147 63
146 140 52
138 133 52
151 144 61
145 140 54
145 140 56
143 138 56
150 144 56
141 135 51
153 147 64
144 139 54
146 140 52
139 132 51
148 142 63
144 138 53
148 142 59
149 143 60
139 134 51
139 132 49
144 138 60
147 142 54
175 198 0
173 197 0
174 197 0
172 197 0
172 195 0
173 197 0
174 198 0
175 197 0
175 199 36
181 203 92
177 200 80
182 204 108
180 202 99
177 200 72
176 200 67
177 200 72
182 204 105
180 203 92
184 205 114
183 204 111
179 202 80
178 201 92
180 202 92
178 201 80
178 201 88
178 201 84
177 200 84
178 200 76
176 199 67
176 199 84
178 201 84
177 200 80
174 198 72
176 199 72
176 200 80
174 198 67
176 200 67
177 200 84
175 199 67
176 200 67
177 200 80
174 198 36
177 201 92
177 199 62
175 198 51
172 196 57
175 199 76
175 199 67
177 200 80
178 200 62
175 198 84
175 199 67
176 199 76
176 199 51
172 196 51
174 198 72
175 199 88
174 198 72
173 197 72
174 197 67
174 197 76
176 200 88
175 197 51
176 199 62
176 200 72
170 194 44
174 197 72
173 197 62
173 197 72
174 198 76
174 198 57
172 196 84
174 199 80
173 197 44
173 197 51
175 198 57
172 197 76
174 198 76
171 196 80
173 197 62
172 196 67
169 194 57
174 198 80
171 195 57
170 195 44
174 197 62
172 196 62
170 194 57
171 195 62
174 197 36
171 196 57
170 195 72
170 194 51
176 199 80
176 199 76
168 192 62
170 194 62
171 194 67
169 193 84
174 197 62
173 197 76
173 196 72
168 192 80
171 196 76
169 193 88
169 192 72
168 192 67
171 194 51
172 194 80
170 192 72
168 192 84
167 190 80
168 191 76
169 192 95
168 191 88
170 193 88
167 189 102
165 186 72
167 188 88
168 189 92
166 188 80
166 187 72
161 183 80
149 171 51
151 172 0
142 164 0
143 164 0
141 162 0
149 171 0
148 170 0
153 176 0
159 182 0
161 184 0
162 185 0
166 189 51
170 192 62
166 189 25
177 199 88
172 196 25
169 193 0
168 191 0
170 194 0
172 195 0
168 191 0
167 191 0
164 188 0
166 188 0
169 193 0
168 191 0
167 191 0
163 187 0
163 186 0
168 191 0
165 188 0
168 192 0
167 190 0
168 192 0
158 182 25
77 104 76
54 86 92
54 86 96
57 90 111
56 89 105
52 84 86
54 86 95
56 89 107
56 88 107
56 89 113
54 86 95
56 88 108
56 89 107
55 87 78
56 88 103
56 89 103
54 85 90
55 87 95
54 87 100
57 90 105
56 88 105
58 91 113
56 89 100
56 88 99
57 91 110
56 89 97
55 87 100
55 88 99
56 89 115
54 87 94
54 87 95
55 88 99
55 88 102
54 86 99
56 89 102
54 85 102
55 87 105
56 89 100
58 91 118
57 91 115
57 90 103
57 90 111
55 87 100
56 89 108
57 89 110
55 87 102
55 86 105
56 89 107
57 91 117
54 86 94
56 89 94
55 87 99
55 87 105
55 87 111
53 85 84
54 85 101
57 90 118
56 88 107
52 83 101
58 91 120
55 87 101
56 88 105
54 85 105
56 88 107
55 87 99
53 83 95
54 84 96
55 86 99
55 86 104
53 83 94
53 82 93
54 84 96
54 86 97
54 85 94
51 79 91
53 83 93
51 79 103
51 79 91
50 79 86
52 80 97
47 73 73
49 77 83
47 74 65
76 96 66
160 182 0
157 177 0
163 184 0
161 182 0
162 186 0
159 181 0
163 184 0
165 187 0
161 181 0
160 182 0
162 183 0
163 183 0
160 182 0
167 187 0
163 184 0
167 191 0
173 194 0
167 188 0
169 189 0
158 178 0
94 94 26
97 91 30
80 78 14
62 61 0
79 77 14
80 76 18
81 79 3
88 86 16
92 87 8
87 87 18
83 82 14
97 94 8
86 84 8
102 97 14
95 91 19
93 89 14
104 100 18
105 102 18
103 100 18
111 106 29
104 102 26
101 98 21
100 97 24
101 98 22
109 107 30
112 109 30
114 110 36
121 117 30
122 119 27
110 108 24
120 116 37
125 121 45
125 121 30
116 113 30
132 128 41
126 123 28
124 120 30
119 117 32
124 119 28
135 130 42
129 124 38
126 121 35
144 139 41
140 134 40
139 133 41
137 132 37
130 127 32
131 125 35
132 126 36
133 129 37
134 129 32
140 135 39
140 135 40
140 135 44
143 137 41
140 133 51
148 142 53
140 134 45
139 134 36
145 140 39
143 138 30
147 142 50
148 142 49
145 138 41
147 141 48
142 137 45
151 145 46
148 141 42
142 136 44
146 142 48
146 140 52
149 143 53
146 140 48
143 137 41
146 141 49
153 147 48
147 142 41
140 135 37
148 143 52
150 145 52
153 146 59
144 139 41
145 139 51
146 139 47
141 134 47
145 139 52
147 142 51
146 141 42
147 141 45
149 142 51
148 141 59
147 141 51
150 144 53
150 144 56
150 145 52
143 137 47
150 144 53
146 140 54
153 146 57
158 152 63
143 136 47
143 136 48
143 138 42
143 136 56
150 143 58
145 139 48
154 147 64
148 143 47
149 143 54
148 143 52
153 147 56
143 136 53
149 142 57
151 145 58
152 145 57
146 140 54
154 147 58
140 134 39
154 146 60
145 139 56
142 136 48
145 139 53
141 136 48
154 148 52
148 141 53
145 139 48
141 135 58
142 134 61
154 146 60
145 138 54
147 141 54
147 141 59
139 134 56
142 135 61
146 140 58
140 135 48
143 136 59
142 135 59
173 196 0
173 197 0
174 197 0
174 198 0
169 193 0
171 195 0
172 196 0
174 197 0
173 196 0
177 199 57
177 200 67
179 202 92
181 203 99
182 204 99
177 200 76
175 199 57
177 200 95
182 204 114
182 204 108
181 203 105
178 201 90
180 202 105
179 201 80
178 200 72
175 198 92
178 200 80
177 200 80
179 202 92
176 199 88
179 202 88
179 202 95
177 201 84
176 199 72
175 198 62
178 201 88
176 199 72
176 199 76
175 199 76
175 199 76
175 199 72
175 198 72
174 198 76
175 198 51
175 199 88
174 197 36
173 196 72
178 201 88
175 198 57
174 197 36
174 198 67
173 197 67
176 200 84
172 196 51
176 200 84
176 199 80
175 199 62
172 195 76
173 197 67
174 198 62
173 196 62
173 196 44
175 198 62
176 199 51
175 199 57
172 196 72
170 195 72
173 196 44
172 196 62
170 194 62
172 197 88
172 196 88
172 197 67
173 197 76
175 198 80
174 198 67
175 198 76
172 196 72
171 196 76
174 198 72
173 195 36
174 197 67
173 196 72
175 198 57
172 196 72
172 196 84
170 193 67
172 196 44
172 197 72
170 195 80
169 194 51
170 195 84
173 197 84
171 195 57
171 195 80
169 194 76
172 196 57
173 196 76
173 197 62
170 195 92
172 194 62
169 192 67
170 193 67
172 195 76
173 196 72
174 197 76
170 192 57
169 193 72
168 191 62
170 193 76
170 192 62
170 193 92
170 193 95
168 191 67
165 186 76
167 190 76
163 184 72
169 191 99
169 190 76
166 187 84
163 185 88
164 186 76
161 183 80
151 172 57
144 165 0
149 170 0
149 170 0
148 169 0
152 173 0
152 173 25
149 170 0
155 177 0
161 184 0
160 184 0
161 185 0
167 190 57
169 191 62
169 192 72
171 195 44
169 193 0
170 193 0
169 192 0
169 192 0
166 189 0
167 190 0
167 190 0
169 192 0
168 192 0
166 190 0
164 188 0
160 185 0
164 187 0
163 186 0
171 195 0
164 189 0
164 188 0
165 188 0
163 187 0
166 189 0
147 170 47
54 85 94
53 84 82
51 83 76
55 88 92
54 86 82
55 88 97
54 87 103
54 85 94
54 87 97
56 89 100
57 90 114
56 88 105
55 88 105
56 89 108
57 91 113
54 85 92
59 92 118
57 90 110
57 89 107
56 89 103
55 87 94
55 87 100
55 88 86
56 88 99
55 88 94
56 89 99
56 88 103
56 89 108
58 92 110
55 87 90
56 89 108
56 88 113
55 87 102
57 91 118
55 87 100
55 87 88
56 89 103
57 90 110
56 88 103
55 87 102
57 89 105
54 86 82
55 87 102
55 87 97
58 90 117
57 90 110
58 91 117
56 88 105
56 88 113
55 88 103
55 87 103
55 87 105
56 88 108
56 88 105
57 90 107
55 86 99
55 86 100
54 86 100
55 87 105
56 88 107
56 87 107
58 90 106
55 87 110
55 87 97
53 84 85
52 83 88
54 84 107
55 87 104
55 86 103
52 83 90
54 85 89
52 82 87
52 83 90
54 85 103
52 81 100
53 83 98
51 79 88
50 78 94
46 72 64
49 75 77
47 73 70
51 74 71
139 159 26
165 186 0
159 180 0
163 183 0
161 182 0
158 179 0
161 181 0
157 179 0
161 183 0
165 187 0
155 175 0
159 180 0
161 181 0
167 188 0
163 184 0
168 190 0
161 182 0
163 184 0
166 188 0
158 179 0
166 187 0
151 169 11
101 99 37
91 87 28
84 82 19
98 92 22
81 81 11
93 89 24
90 86 0
80 79 8
95 91 16
74 73 15
89 87 14
87 85 11
91 91 20
100 95 2
96 93 8
83 84 16
93 91 14
106 103 24
98 95 16
105 102 12
106 103 19
108 106 21
106 104 8
113 110 31
109 108 28
104 103 18
109 105 11
111 109 24
110 106 26
116 112 29
127 123 28
118 115 28
124 122 36
111 107 24
113 109 37
124 118 31
126 122 35
129 124 37
133 129 42
129 124 33
142 137 39
129 125 34
132 127 36
130 126 28
135 130 34
132 127 37
133 129 31
143 137 45
139 135 42
144 140 39
135 130 43
140 135 47
137 131 46
142 137 44
132 128 35
148 142 39
139 134 41
139 134 37
152 144 51
138 135 37
141 135 41
139 135 38
149 143 51
135 131 39
143 136 42
147 140 49
142 137 40
147 142 41
146 140 49
147 141 49
141 135 37
145 140 47
141 136 42
142 137 42
146 141 47
150 144 49
152 146 48
145 140 42
143 138 48
156 150 54
153 147 53
152 144 54
150 144 48
153 146 48
147 139 57
149 143 49
147 141 36
149 142 51
151 145 42
151 145 54
146 140 49
150 143 56
149 142 62
153 147 48
147 141 48
148 140 59
148 142 47
148 143 49
146 140 45
143 137 45
149 143 51
154 148 58
145 139 58
151 144 47
153 146 57
144 140 47
155 148 63
148 143 53
147 142 56
150 144 53
148 142 56
152 146 51
143 137 51
146 139 51
145 140 47
143 137 51
144 139 54
139 134 48
143 137 54
143 139 53
143 137 56
141 135 45
142 135 53
145 139 60
146 139 53
148 141 58
138 132 47
140 132 61
146 140 54
144 137 54
139 132 51
144 138 54
147 141 54
137 131 47
140 134 52
136 131 45
140 134 49
172 196 0
173 197 0
172 195 0
175 198 0
173 197 0
173 196 0
174 197 0
171 194 0
171 195 0
172 196 0
174 196 36
177 200 72
177 200 88
180 202 72
178 201 76
180 202 95
182 204 108
173 197 36
180 202 88
183 204 108
180 202 102
180 202 103
182 204 111
184 205 122
178 201 88
177 200 76
177 200 72
179 201 88
177 200 88
180 203 111
177 200 76
174 197 67
175 199 76
172 196 57
173 196 51
172 196 44
176 199 51
176 200 80
178 201 88
176 200 80
177 200 72
173 196 62
174 198 80
175 199 84
177 200 80
174 198 76
173 197 44
174 197 57
176 200 84
172 196 57
171 195 67
173 197 67
176 199 72
174 198 80
176 199 67
175 199 92
171 196 57
174 198 72
170 194 44
175 198 84
175 199 62
175 198 67
174 198 80
172 196 72
173 197 84
171 195 67
171 195 44
172 196 84
175 199 92
173 198 76
171 195 57
175 199 88
173 196 51
171 195 72
172 195 62
173 196 57
175 199 92
170 195 72
174 198 72
172 196 92
172 196 62
173 197 72
171 195 57
173 198 92
175 198 72
173 196 44
173 197 62
173 197 72
172 196 84
172 196 62
171 195 72
174 197 36
170 194 80
175 198 76
176 199 92
170 194 84
171 195 76
168 192 62
172 195 67
168 191 72
168 190 51
171 194 88
170 193 62
170 193 88
172 194 57
168 192 36
169 192 72
170 192 76
168 190 57
169 192 88
167 189 84
167 189 67
170 192 72
170 192 84
169 190 88
163 185 95
171 192 95
166 187 88
161 182 80
167 188 88
160 182 44
156 178 44
157 179 0
140 161 0
152 174 0
152 172 0
143 164 0
154 176 0
158 181 0
160 182 0
153 175 25
157 178 0
163 187 25
165 187 44
168 191 44
169 191 62
170 193 62
168 192 0
170 193 0
168 192 0
168 192 0
166 190 0
165 187 0
167 190 0
166 189 0
165 189 0
166 190 0
168 191 0
168 191 0
163 186 0
161 184 0
169 193 0
164 187 0
163 186 0
162 185 0
167 191 0
162 185 0
161 185 0
164 187 0
124 147 67
56 88 99
53 85 78
57 90 107
54 86 97
51 81 76
56 89 102
54 86 90
55 88 99
55 88 102
55 87 95
55 88 99
55 87 86
55 87 94
55 88 95
54 86 100
57 89 113
56 89 108
54 85 103
55 86 103
56 89 103
57 90 107
57 89 110
55 88 117
55 87 95
55 87 102
57 90 99
54 86 100
57 91 100
57 90 103
56 89 99
57 90 108
55 87 103
55 87 99
56 89 107
55 88 88
57 90 111
54 86 94
54 86 108
57 90 100
56 88 105
55 87 107
55 87 105
58 92 120
54 86 100
55 87 108
53 84 95
56 87 114
57 89 107
56 89 103
55 86 99
56 89 95
53 85 99
56 88 99
54 86 102
56 88 113
55 87 107
56 88 99
56 87 108
52 82 99
56 88 102
55 87 103
54 86 100
53 84 99
53 85 91
54 85 100
53 84 108
54 85 91
53 83 107
53 83 98
53 83 92
52 81 85
53 82 99
50 78 79
49 77 77
50 78 78
53 82 96
52 81 86
48 74 90
48 74 69
46 71 72
117 136 49
155 177 0
157 177 0
160 181 0
154 174 0
157 178 0
158 177 0
157 178 0
156 176 0
151 172 0
157 178 0
163 184 0
157 177 0
160 181 0
162 184 0
162 182 0
163 183 0
162 183 0
164 185 0
160 179 0
163 183 0
161 181 0
158 177 0
139 150 0
94 90 31
86 82 29
85 82 11
93 89 25
72 73 8
83 80 18
88 85 16
87 83 3
87 83 12
73 73 5
85 84 19
87 86 8
96 94 18
91 88 21
90 88 3
98 94 12
106 102 14
92 90 21
95 93 13
92 89 8
113 107 12
104 102 18
100 98 14
105 102 32
107 103 24
108 104 28
107 105 27
115 113 29
115 110 28
114 110 26
125 120 24
122 119 29
123 118 34
110 107 21
125 120 31
121 117 30
120 116 37
126 122 33
122 119 30
126 123 18
133 128 30
136 130 45
140 135 30
139 133 37
118 115 28
139 133 40
135 131 35
128 123 30
141 135 48
134 129 34
134 129 34
131 125 41
144 136 37
141 136 43
144 138 37
139 134 41
140 135 41
140 133 37
148 142 45
144 139 42
139 134 32
142 136 42
139 134 30
143 136 41
147 140 51
143 139 37
138 134 37
144 139 37
144 138 47
149 144 48
148 142 37
148 141 52
139 134 41
141 137 41
144 138 49
143 138 39
145 140 45
152 146 53
140 134 39
152 145 51
149 142 37
148 143 44
149 143 49
149 143 49
149 141 57
146 139 48
151 144 51
143 138 44
142 137 44
146 140 45
144 138 47
148 142 51
142 136 52
145 139 48
153 146 52
148 142 41
147 140 51
151 144 59
143 137 48
149 143 48
151 145 57
150 145 51
144 139 49
143 135 52
146 140 48
146 141 47
141 136 45
153 148 58
142 136 48
151 145 57
140 135 48
147 143 47
140 134 53
150 144 53
141 136 48
141 135 48
150 144 57
135 130 49
145 139 58
150 144 58
140 134 54
146 140 58
144 138 51
147 141 59
146 140 54
144 139 49
143 136 49
154 147 64
150 143 56
148 141 63
138 132 48
145 139 56
137 131 51
143 136 52
136 132 48
138 133 52
172 196 0
173 197 0
172 195 0
175 197 0
173 197 0
170 194 0
173 197 0
172 196 0
175 197 0
171 194 0
172 196 0
173 197 25
175 198 36
178 201 92
179 201 88
178 201 88
176 199 51
178 201 88
178 200 67
180 203 95
182 203 108
186 207 117
179 202 99
180 203 99
180 202 99
182 204 108
179 201 92
179 202 99
179 202 92
180 202 92
174 198 51
176 199 51
177 200 67
176 199 72
178 201 92
178 201 99
178 201 88
174 198 72
177 199 76
178 200 95
175 199 72
176 199 67
173 198 72
176 199 95
174 198 51
176 199 76
175 199 80
175 199 76
174 198 51
174 197 72
173 197 80
175 200 95
174 197 76
172 195 51
176 200 72
173 197 67
175 198 67
173 197 67
176 200 80
176 200 84
172 196 57
171 194 57
172 197 67
175 199 76
174 198 67
174 198 76
175 199 80
174 197 57
176 199 80
175 198 57
175 198 84
173 196 57
173 196 62
175 199 76
175 199 80
170 195 51
175 198 67
173 195 57
171 194 57
170 194 67
176 199 51
172 195 44
171 195 67
172 196 67
172 195 80
169 194 62
172 197 88
172 196 72
172 195 62
168 192 80
171 194 51
172 195 62
169 193 88
172 194 72
171 194 88
173 196 57
169 193 76
174 198 95
168 192 72
173 196 44
172 194 80
171 194 76
168 191 80
172 195 76
169 192 76
172 194 76
170 193 80
169 192 80
172 194 88
173 194 72
171 194 80
172 194 95
168 190 95
167 189 62
170 190 84
173 193 114
170 191 80
163 185 92
167 187 67
160 180 72
152 173 25
139 161 0
144 166 0
155 177 0
154 175 0
149 170 0
157 179 0
149 171 0
157 178 25
160 182 0
159 181 0
158 180 36
165 187 51
161 185 36
177 200 76
171 193 67
164 187 0
170 194 0
168 192 0
171 194 0
166 189 0
168 191 0
168 191 0
168 193 0
166 189 0
160 184 0
167 190 0
164 187 0
165 188 0
168 192 0
165 189 0
160 184 0
167 190 0
169 192 0
164 188 0
163 186 0
163 187 0
159 182 0
157 180 0
163 186 0
112 135 60
53 84 92
52 83 83
55 87 95
56 88 105
55 88 94
54 86 90
54 85 86
54 86 88
56 88 99
55 87 100
56 89 107
54 86 94
57 90 111
55 87 95
53 85 99
54 86 92
55 87 99
54 87 94
54 86 100
57 91 105
53 84 86
57 90 110
54 86 99
55 88 100
56 88 105
56 88 107
57 89 107
55 88 88
57 90 102
54 85 92
57 90 111
55 87 108
56 89 95
55 87 102
56 89 113
53 84 95
55 87 105
56 89 108
54 86 90
55 87 105
55 87 94
56 88 107
57 89 100
57 89 107
53 84 94
55 87 113
57 89 110
55 88 103
55 88 105
55 87 103
53 85 89
53 84 95
54 86 99
57 89 114
55 87 97
54 86 96
54 85 105
56 89 115
55 87 107
54 86 100
54 85 104
53 84 103
53 83 89
53 84 98
52 82 94
54 84 98
52 81 87
52 81 78
53 83 100
52 82 93
50 78 84
51 80 80
51 79 89
48 74 77
51 79 80
50 76 73
47 72 68
45 70 71
101 121 47
156 175 0
156 177 0
157 177 0
158 179 0
154 176 0
153 174 0
153 174 0
157 177 0
156 176 0
156 176 0
155 174 0
162 183 0
159 180 0
165 183 0
159 180 0
149 168 0
159 176 0
158 177 0
161 181 0
162 184 0
164 183 0
164 184 0
157 179 0
162 182 0
139 153 19
94 90 25
74 69 22
76 73 14
86 83 14
85 83 16
94 89 16
85 84 12
79 77 14
84 84 8
96 92 12
93 90 21
95 92 8
82 80 8
89 86 18
90 89 14
99 96 11
99 95 3
98 94 8
96 93 14
86 86 14
104 102 14
110 108 11
113 108 19
112 108 26
122 116 30
117 113 31
117 113 25
118 116 27
113 109 16
113 110 24
109 107 21
113 110 24
119 117 21
121 116 23
134 129 29
134 130 35
132 128 29
128 123 34
124 119 31
121 118 34
130 126 22
132 127 36
122 118 26
138 132 39
122 118 24
130 125 30
141 137 24
133 128 25
133 128 39
137 131 44
144 140 30
133 128 37
137 132 34
125 122 32
133 129 32
137 132 36
138 133 34
140 135 42
139 134 38
144 138 45
144 139 44
137 132 35
134 130 34
144 138 34
147 140 51
146 139 44
141 136 37
143 137 44
147 141 30
143 137 51
139 133 39
146 139 49
149 142 44
145 140 41
140 134 36
144 138 39
147 141 48
151 142 54
150 144 45
147 141 47
142 136 47
154 147 51
151 144 56
143 136 39
150 144 45
146 139 48
145 140 53
145 140 42
144 138 41
139 135 36
142 137 45
139 134 42
144 139 42
151 144 51
151 145 47
151 143 52
150 143 59
146 140 48
149 141 53
142 136 44
142 138 44
147 141 48
150 144 51
150 144 51
141 134 44
144 138 49
143 136 49
147 141 54
145 140 51
143 138 49
151 146 49
146 140 51
146 140 52
151 145 57
139 133 54
145 138 52
143 136 51
147 140 59
146 140 54
153 145 56
142 137 51
148 142 59
148 142 62
146 140 53
138 132 47
139 134 42
147 140 51
141 135 47
140 134 54
135 129 49
140 134 52
147 141 57
152 146 62
135 129 48
144 138 61
173 196 0
173 196 0
172 196 0
171 195 0
174 197 0
171 194 0
170 194 0
171 195 0
170 193 0
174 197 0
174 197 0
173 196 0
170 193 0
175 198 25
175 198 67
181 203 105
180 202 84
180 202 102
177 200 80
179 202 84
177 200 62
178 201 88
179 201 84
181 203 108
180 202 99
180 202 99
181 203 99
178 201 76
179 201 95
178 201 88
175 198 67
179 201 95
179 202 99
176 199 84
176 199 76
180 202 92
179 202 88
174 198 67
176 199 76
176 199 72
175 198 80
176 199 67
175 198 62
176 200 84
176 199 80
173 197 57
176 200 76
174 197 51
172 196 72
171 195 72
177 201 80
175 198 62
176 200 62
174 198 62
175 199 72
174 198 84
178 201 88
177 201 99
172 195 57
174 197 72
175 199 88
173 197 76
172 196 67
173 197 67
173 197 72
172 196 67
175 199 76
173 196 44
175 199 72
173 196 76
170 194 36
172 197 51
170 194 67
174 197 67
172 196 67
172 196 67
174 198 80
175 199 67
175 198 57
172 196 72
171 195 57
169 192 67
170 194 67
171 195 84
176 199 67
172 196 57
170 193 51
173 196 76
172 196 80
172 195 67
173 196 72
173 196 62
172 196 92
171 194 62
173 196 76
172 194 67
170 193 57
170 193 88
163 186 51
173 195 76
170 193 80
173 196 80
171 194 67
169 191 67
173 195 67
166 188 76
167 189 72
170 192 92
169 192 95
167 188 92
169 190 62
165 186 88
166 187 102
170 191 108
165 187 92
159 180 62
159 181 57
162 183 80
154 175 44
148 170 0
150 171 0
149 170 0
154 176 0
149 171 0
145 165 0
155 177 0
154 176 0
157 178 0
158 180 0
153 177 0
163 185 25
169 191 44
169 191 44
166 188 57
170 193 88
166 189 0
169 193 0
168 192 0
167 190 0
166 190 0
164 187 0
170 192 0
163 187 0
163 187 0
164 188 0
167 191 0
165 187 0
165 188 0
159 183 0
164 188 0
161 185 0
165 188 0
163 186 0
169 192 0
162 185 0
158 180 0
163 186 0
162 186 0
155 178 0
159 182 0
157 180 18
100 125 70
55 87 88
54 86 94
52 84 86
54 86 88
54 86 94
53 85 100
52 84 88
54 87 92
55 87 99
55 87 95
53 85 99
55 87 107
55 87 102
55 87 103
53 84 95
55 87 100
55 87 99
55 86 105
57 90 107
55 87 97
55 87 100
55 87 105
57 90 108
55 87 97
54 85 84
55 87 102
57 89 105
56 88 102
54 86 90
56 88 105
55 86 88
55 87 88
53 84 92
58 91 113
54 85 102
55 88 99
53 85 90
54 86 103
55 87 94
55 87 108
55 87 97
55 87 95
56 88 86
56 88 100
53 84 103
54 86 99
54 85 99
54 85 99
52 83 99
55 86 104
52 82 95
54 86 84
55 86 103
53 85 94
54 84 98
55 87 103
54 84 103
53 83 87
54 85 90
55 86 102
52 81 85
53 83 101
53 84 100
51 81 85
51 79 89
52 82 98
52 82 83
51 80 83
51 81 89
52 82 82
50 79 83
51 80 85
49 77 85
48 75 69
47 73 73
46 71 68
85 104 51
150 169 0
155 174 0
155 174 0
146 166 0
148 168 0
153 172 0
160 179 0
147 166 0
152 171 0
152 171 0
151 170 0
158 178 0
159 179 0
155 172 0
160 178 0
153 171 0
159 179 0
166 184 0
158 179 0
153 174 0
159 176 0
155 174 0
163 181 0
154 170 0
157 175 0
158 178 0
127 138 19
103 98 26
81 75 21
90 87 22
72 69 11
72 70 16
76 74 0
85 82 8
90 86 14
90 87 16
87 83 14
91 88 14
98 96 0
96 92 18
92 89 1
95 94 12
99 97 16
90 85 8
106 103 8
106 102 14
109 105 18
103 101 8
110 107 14
96 94 8
111 107 16
106 104 11
118 114 29
110 108 19
120 115 33
106 104 29
118 114 31
118 113 35
119 115 18
125 120 29
117 114 25
122 118 22
125 120 30
130 125 19
121 117 21
132 127 28
127 122 24
130 125 32
131 126 26
125 121 25
135 130 32
135 130 33
139 134 35
140 135 38
136 132 34
131 126 32
134 128 33
142 136 44
131 125 22
139 134 39
140 134 39
131 125 44
135 130 41
143 137 41
136 130 32
137 131 41
142 137 39
139 133 34
141 136 34
137 132 34
144 139 35
139 133 36
142 136 34
137 131 37
138 133 34
145 141 39
140 136 34
146 140 47
142 137 39
140 133 39
147 141 37
149 143 52
149 144 41
150 144 52
145 139 41
143 138 44
146 140 42
144 137 51
137 132 49
145 139 45
141 135 49
148 142 51
144 139 39
147 141 41
145 139 49
149 143 49
155 149 58
146 140 44
146 140 48
148 143 47
144 139 45
145 139 47
147 142 53
150 144 48
155 148 47
149 144 42
147 140 54
145 139 47
148 142 56
140 133 39
151 145 57
146 140 48
147 140 47
148 141 56
152 146 57
152 146 53
144 137 52
144 138 54
139 133 42
148 142 48
147 141 48
139 133 45
143 137 54
144 137 53
150 143 51
149 144 54
148 141 57
145 138 52
150 143 57
144 139 59
147 140 58
139 132 47
150 143 62
146 140 56
135 129 51
141 136 48
138 132 51
147 141 60
134 129 42
138 133 48
146 141 54
171 194 0
174 197 0
170 193 0
172 195 0
172 196 0
171 195 0
175 198 0
171 195 0
172 196 0
175 197 0
174 197 0
172 196 0
172 195 0
173 197 0
171 194 0
178 200 84
179 202 92
178 200 72
179 201 80
182 204 102
180 202 88
174 197 62
178 200 92
182 204 99
183 204 128
181 203 102
183 205 122
176 199 88
183 204 114
182 204 95
178 200 105
179 201 105
178 201 80
176 199 76
179 202 80
178 201 80
178 201 84
178 201 67
176 199 84
176 200 76
177 200 67
175 198 67
174 197 67
176 199 72
178 201 88
173 196 57
170 193 67
175 198 72
176 199 84
176 199 57
175 199 88
176 199 67
173 195 62
177 200 80
176 199 76
176 199 80
176 199 67
175 199 80
174 198 67
175 199 76
173 197 62
174 198 80
176 199 72
173 196 44
172 195 57
175 197 72
173 197 76
174 197 67
174 197 76
173 197 62
172 195 62
172 195 62
176 199 95
170 195 72
172 195 72
171 195 57
169 194 67
175 198 72
175 198 76
172 196 57
172 196 84
173 196 62
171 194 67
169 193 44
175 198 95
176 198 57
175 198 80
171 195 80
169 193 88
176 199 84
173 196 44
174 197 57
169 192 36
170 192 51
172 195 57
169 192 67
173 195 72
170 192 80
171 193 72
169 191 57
171 193 84
171 192 67
172 195 88
172 194 80
171 193 84
170 192 67
170 192 95
165 186 72
173 194 111
169 190 76
169 190 99
176 196 105
165 186 72
162 183 57
164 186 51
164 185 62
151 172 36
156 178 25
154 176 0
157 178 0
156 177 0
145 167 0
148 169 0
152 175 0
154 175 0
149 171 0
148 169 0
143 165 0
154 175 0
155 177 25
161 183 44
160 184 44
160 183 36
172 194 95
164 187 0
167 190 0
167 191 0
164 187 0
162 186 0
159 182 0
165 188 0
162 186 0
166 190 0
161 185 0
160 183 0
165 188 0
162 185 0
160 183 0
161 184 0
164 188 0
164 187 0
165 188 0
154 177 0
160 183 0
162 185 0
159 182 0
162 185 0
161 184 0
159 183 0
156 179 0
147 170 0
153 176 18
77 102 82
54 86 90
54 87 102
52 84 84
54 86 94
56 89 99
53 85 88
55 87 92
53 84 78
55 88 94
54 86 97
54 85 102
52 84 88
55 87 111
55 87 97
55 87 92
52 83 76
55 88 103
57 90 107
55 87 105
54 85 100
54 86 86
56 89 94
55 88 100
55 88 95
55 87 107
53 85 88
54 86 97
53 85 95
54 85 94
55 88 105
57 90 110
53 85 90
55 87 108
53 84 99
55 87 102
54 87 92
56 89 113
53 85 88
56 88 103
54 86 103
55 87 107
55 87 105
55 87 102
54 85 95
57 90 105
57 90 114
55 87 105
55 88 102
56 88 97
53 84 99
54 85 97
54 85 104
55 87 105
54 86 103
56 88 99
55 86 99
53 83 97
50 80 88
52 82 86
53 84 95
56 87 99
53 84 92
50 79 92
52 82 83
50 79 85
50 79 90
51 79 79
49 77 72
51 81 87
50 77 89
50 78 96
47 73 66
49 76 71
48 74 70
71 90 66
145 164 18
156 175 0
153 172 0
154 174 0
147 166 0
153 172 0
147 168 0
148 165 0
160 179 0
148 166 0
157 176 0
145 163 0
152 172 0
163 183 0
156 175 0
151 170 0
150 169 0
153 170 0
160 178 0
157 175 0
152 172 0
157 176 0
155 173 0
152 171 0
156 175 0
160 180 0
155 173 0
150 166 11
117 124 22
78 74 19
84 80 19
96 92 28
84 80 18
88 84 21
76 74 0
91 87 14
80 78 11
90 87 12
91 89 0
85 81 8
104 100 2
91 89 8
95 91 0
90 88 8
101 98 0
98 95 2
99 97 18
102 97 3
102 99 16
102 100 14
113 109 31
104 101 11
104 103 11
106 102 21
108 104 21
111 108 24
115 112 22
115 110 21
116 112 12
110 105 19
118 115 19
121 116 25
122 118 21
117 113 26
119 113 22
122 119 24
129 125 33
131 126 31
121 116 19
128 122 31
137 132 25
128 123 29
127 122 31
127 122 30
121 117 28
131 126 24
132 128 36
135 128 39
133 129 32
134 131 33
135 129 36
143 137 36
136 130 39
139 133 28
141 136 33
143 137 40
135 131 34
133 129 31
134 129 36
135 129 36
142 136 36
141 134 45
142 136 44
137 131 41
145 139 39
142 137 34
141 135 39
142 138 36
141 134 44
146 140 39
144 138 52
144 138 42
142 137 45
144 139 47
147 140 49
149 142 47
146 141 48
143 138 48
151 145 53
150 143 51
141 136 32
140 133 42
142 135 42
144 138 48
153 146 53
142 136 44
146 139 47
137 132 37
143 137 49
141 136 45
149 144 51
144 139 39
142 137 39
151 144 48
137 130 45
137 132 41
151 145 57
148 142 54
138 133 39
143 138 48
147 140 48
136 131 44
141 135 51
142 135 48
148 141 53
139 132 37
139 133 45
145 139 49
137 131 42
142 135 48
137 131 48
150 143 54
145 139 47
139 134 52
145 139 49
146 139 62
146 139 64
142 136 47
133 126 34
146 139 51
135 129 51
134 130 42
141 135 58
149 142 49
147 141 54
138 132 51
145 139 58
142 135 48
146 139 62
145 138 61
145 138 53
137 132 47
174 198 0
173 196 0
172 195 0
175 198 0
174 197 0
172 196 0
173 196 0
170 194 0
172 196 0
174 197 0
174 197 0
172 195 0
173 197 0
171 194 0
173 196 0
173 196 0
175 198 36
179 201 92
178 201 88
180 202 99
179 201 95
180 202 99
178 201 84
179 202 102
177 200 76
176 199 72
177 200 80
183 204 125
182 203 105
182 203 114
181 203 108
181 202 99
180 202 99
182 204 111
179 201 105
179 201 92
176 198 72
179 202 92
178 200 76
177 200 88
174 197 76
173 196 62
179 202 99
173 196 76
173 197 76
175 198 84
174 196 84
177 201 102
176 199 80
175 198 62
177 200 76
175 199 84
175 198 57
177 200 84
174 198 76
174 197 57
177 199 88
171 194 76
176 198 57
177 199 88
174 197 76
176 200 80
174 197 51
176 199 76
175 199 76
176 199 44
173 197 72
170 193 67
176 199 62
173 196 67
174 197 95
175 198 51
169 193 51
174 197 67
174 197 76
174 197 72
173 196 76
173 196 72
173 197 76
177 200 76
173 197 67
170 193 62
169 192 72
173 197 84
172 196 76
173 196 62
173 196 51
172 195 80
166 189 51
173 196 62
172 195 95
174 197 76
176 198 92
172 194 51
170 193 62
172 196 67
172 194 67
173 194 62
173 195 76
166 189 80
169 191 72
172 193 72
167 189 67
174 196 99
173 194 84
170 193 76
168 190 95
174 194 80
170 190 111
169 190 92
173 194 114
165 185 62
167 189 57
166 187 80
169 189 84
159 180 57
156 177 0
150 172 0
157 179 0
158 180 0
146 168 0
152 174 0
160 181 0
146 167 0
154 175 0
155 176 0
160 181 0
155 177 0
154 176 36
161 184 51
168 191 51
169 192 57
166 188 76
166 190 0
161 184 0
164 187 0
165 189 0
161 184 0
165 188 0
163 185 0
167 189 0
163 186 0
162 185 0
161 185 0
162 185 0
159 183 0
153 177 0
162 185 0
158 182 0
160 183 0
164 187 0
157 179 0
156 180 0
158 180 0
167 190 0
153 175 0
155 179 0
153 176 0
160 184 0
153 176 0
156 179 0
153 176 0
156 179 0
74 101 74
54 86 82
52 83 76
52 83 86
53 84 84
54 87 94
53 84 80
51 82 78
54 86 92
53 85 94
54 86 102
55 87 92
54 86 102
52 83 94
53 85 90
55 87 103
57 89 107
54 86 88
55 87 92
57 90 111
56 88 103
53 85 88
57 90 107
55 87 111
52 83 88
55 87 107
56 89 103
55 87 100
53 84 99
54 86 86
54 85 94
55 86 99
55 87 99
54 86 94
53 84 94
55 87 90
53 84 90
52 83 86
55 87 103
53 85 84
55 86 97
54 86 96
54 85 94
52 82 92
53 85 86
53 85 92
52 82 88
54 86 103
54 86 92
53 84 86
52 83 92
52 82 86
55 86 92
53 83 86
48 77 78
55 86 99
53 83 95
52 82 86
55 85 99
54 85 99
53 84 95
52 82 95
52 83 89
51 80 87
50 78 70
50 79 79
52 80 90
47 73 82
51 80 81
48 75 75
47 74 71
49 77 85
45 70 63
67 88 70
133 151 25
149 168 0
148 167 0
140 157 0
142 160 0
149 169 0
142 158 0
155 174 0
148 167 0
152 171 0
157 176 0
155 174 0
150 167 0
143 161 0
148 167 0
155 173 0
150 168 0
148 165 0
147 163 0
145 161 0
156 175 0
150 168 0
157 174 0
156 175 0
155 175 0
159 176 0
149 167 0
159 176 0
156 173 0
149 166 0
116 123 16
98 93 28
78 73 11
97 91 18
94 90 11
86 84 14
86 82 8
82 79 3
95 90 16
91 89 20
88 84 11
93 91 11
95 90 8
97 95 11
99 97 18
101 97 16
102 98 8
90 86 8
89 85 0
96 94 16
103 99 19
105 102 12
105 100 24
100 97 18
102 99 8
112 108 11
100 98 8
117 115 20
111 108 14
107 103 16
109 106 18
118 115 21
117 113 14
132 128 22
115 113 25
127 122 30
125 119 28
130 126 29
124 120 24
134 129 19
119 115 25
125 123 22
131 127 33
118 114 25
136 131 28
134 130 30
128 123 22
128 123 22
140 135 32
143 138 30
130 126 28
138 131 32
135 129 39
124 118 34
141 137 28
133 127 32
140 133 48
133 128 30
138 132 41
141 135 39
139 134 25
143 137 36
141 136 39
138 132 33
141 136 41
136 130 42
138 133 37
138 133 36
137 131 39
145 140 36
135 130 34
144 139 44
140 135 41
140 134 34
142 138 42
141 135 47
144 138 30
147 140 51
146 140 53
143 137 44
142 136 47
144 138 30
143 138 49
151 146 52
151 145 52
150 144 39
145 140 42
140 135 32
147 139 51
147 141 51
143 137 45
143 137 42
144 138 49
142 137 47
143 137 44
144 138 53
141 134 51
141 136 34
139 133 41
141 135 51
153 148 58
150 144 58
142 136 45
142 136 45
142 138 37
145 138 57
150 143 58
147 141 52
141 135 48
145 139 48
145 139 58
140 134 52
134 129 47
139 131 47
146 140 45
145 138 56
141 136 48
139 132 44
137 132 44
143 138 48
143 137 48
153 147 56
142 136 56
142 136 57
142 136 47
139 133 45
137 131 48
140 134 48
140 134 52
141 135 51
137 132 39
139 133 52
149 142 58
174 197 0
173 196 0
173 195 0
172 196 0
175 198 0
174 197 0
173 196 0
172 196 0
172 196 0
173 196 0
172 197 0
174 197 0
170 194 0
174 198 0
172 195 0
172 196 0
172 195 0
171 195 25
173 196 51
178 201 76
176 199 57
174 197 80
179 201 92
179 201 76
180 202 76
176 199 67
172 196 51
178 200 95
180 202 92
184 205 114
179 202 88
181 202 95
179 201 84
183 205 114
180 202 99
177 200 84
178 201 95
175 199 88
180 203 95
176 199 72
174 197 76
175 198 72
175 198 76
176 198 72
176 200 76
177 200 99
174 197 62
172 196 72
175 198 84
174 198 99
175 198 84
174 197 57
174 198 67
172 197 72
171 195 67
177 199 67
175 199 84
173 196 57
178 201 88
173 196 67
175 198 67
174 198 72
173 195 51
172 194 76
172 196 62
170 194 57
173 196 62
174 197 88
173 196 51
173 196 76
172 196 62
170 193 44
174 196 80
173 196 72
173 195 67
173 197 80
174 196 44
174 197 67
171 194 72
171 194 67
168 190 51
175 198 76
170 193 51
173 196 84
170 193 88
173 196 92
174 197 76
172 195 72
169 192 76
173 195 67
173 195 72
174 197 80
173 194 62
175 197 62
176 198 80
173 195 84
171 192 84
173 195 44
172 193 80
174 196 95
169 190 67
169 191 57
170 191 67
173 194 105
173 195 99
169 189 80
169 191 84
173 193 105
169 189 102
164 186 80
163 184 84
171 192 105
164 185 95
163 184 67
156 177 36
158 179 0
150 171 0
159 179 0
150 170 0
149 170 0
158 180 0
151 172 0
154 175 0
160 182 0
160 181 0
159 181 0
165 186 0
153 175 36
165 187 36
167 189 36
172 194 88
173 195 80
163 186 0
162 184 0
161 183 0
168 191 0
163 187 0
165 188 0
162 185 0
160 184 0
166 189 0
163 187 0
157 179 0
167 189 0
159 182 0
160 183 0
158 181 0
159 182 0
164 187 0
155 177 0
162 184 0
154 177 0
151 173 0
155 177 0
157 180 0
147 170 0
152 175 0
159 182 0
158 181 0
150 173 0
151 173 0
152 175 0
151 174 0
141 164 31
71 98 78
52 82 74
52 82 80
52 83 74
53 84 86
54 85 88
52 83 92
54 86 92
54 86 86
56 89 88
54 85 94
53 85 84
51 82 88
54 86 92
52 82 76
55 87 107
55 87 92
51 81 76
54 85 88
55 87 94
55 88 100
54 85 95
53 84 92
54 87 92
55 87 99
55 87 100
54 86 102
57 90 100
54 86 97
53 85 97
53 85 100
52 83 94
56 87 100
56 88 102
56 88 111
55 87 99
53 85 95
54 86 107
54 86 95
56 88 103
53 83 88
55 86 110
54 85 90
54 86 108
54 85 86
54 85 84
51 81 78
55 87 99
53 84 99
53 84 99
54 84 100
54 86 103
50 81 82
52 82 89
51 80 89
55 87 97
54 84 89
48 76 92
52 82 97
48 76 84
54 84 99
52 81 90
49 78 87
48 76 81
51 79 85
46 74 65
49 77 76
46 73 63
50 79 80
46 73 72
46 72 68
67 86 51
139 157 18
145 163 0
145 163 0
148 166 0
142 158 0
142 161 0
144 161 0
139 157 0
151 169 0
140 155 0
138 154 0
147 163 0
140 156 0
152 167 0
153 172 0
149 167 0
147 164 0
150 167 0
154 171 0
150 167 0
148 166 0
150 169 0
151 168 0
154 172 0
154 171 0
153 169 0
152 168 0
145 160 0
151 169 0
149 167 0
152 169 0
147 161 0
129 140 16
78 72 16
77 75 18
100 95 30
89 83 16
103 97 23
91 86 11
88 84 0
91 87 14
91 89 21
98 94 11
90 87 11
89 86 14
95 92 16
102 96 11
96 91 1
108 105 8
102 98 0
101 97 11
109 103 16
105 101 19
109 105 16
102 99 0
107 104 14
110 106 3
107 101 16
110 106 16
108 105 2
113 109 16
116 112 28
117 112 18
115 112 18
118 113 24
117 114 11
121 117 14
125 123 16
115 110 29
127 122 22
124 119 24
121 117 22
123 116 30
131 126 30
129 125 22
130 124 28
128 124 32
129 126 25
133 128 30
143 137 37
132 127 34
130 127 22
130 126 28
136 131 30
138 132 34
131 126 30
134 129 39
133 129 19
126 122 28
137 132 28
136 130 37
139 133 30
141 135 39
139 134 32
143 138 34
132 128 36
140 135 32
144 138 37
144 138 32
141 135 34
136 131 28
136 131 34
147 140 45
143 137 49
131 125 32
146 139 44
148 142 42
144 138 42
144 137 41
145 138 49
146 140 39
133 127 37
137 131 37
140 135 32
148 142 45
137 132 41
142 136 39
141 134 47
142 136 41
140 133 44
143 136 51
138 132 44
140 135 41
138 132 47
146 141 48
151 144 58
142 136 48
138 133 39
146 139 42
141 135 39
144 137 49
139 132 41
144 138 47
143 137 51
141 137 45
145 139 48
145 138 49
147 140 56
149 143 53
146 140 51
139 134 41
139 133 39
139 135 42
144 138 54
137 131 44
148 140 53
134 128 39
146 139 53
138 133 49
141 136 47
141 134 44
128 123 41
141 135 58
133 128 42
137 131 48
140 134 48
141 135 52
140 134 56
139 134 42
142 136 48
142 135 51
131 125 36
136 129 44
138 131 52
171 195 0
172 196 0
173 197 0
173 197 0
171 194 0
175 198 0
171 195 0
174 197 0
172 195 0
175 198 0
171 195 0
175 198 0
173 197 0
172 196 0
169 193 0
173 197 0
172 196 0
172 194 0
167 190 0
172 196 0
177 200 72
175 199 67
175 198 80
177 200 92
180 202 88
175 198 80
175 198 57
175 198 51
175 198 67
178 200 105
178 200 99
185 206 122
181 203 111
180 202 99
184 205 117
173 197 67
175 196 88
179 201 80
178 201 102
175 198 62
179 201 80
179 201 95
176 198 84
179 202 99
175 198 102
177 200 76
171 194 80
179 202 84
176 199 72
178 201 88
175 198 72
176 199 72
172 195 67
174 197 57
174 198 72
176 199 62
174 196 57
174 197 80
175 198 76
176 199 51
173 196 62
173 196 67
175 198 84
176 199 67
175 198 62
174 197 76
175 198 80
175 198 67
174 197 76
175 198 76
171 194 57
173 196 62
177 199 95
173 195 51
174 197 72
175 198 76
174 197 84
172 195 72
176 199 95
175 197 72
175 197 67
172 194 57
169 192 72
175 198 62
173 195 51
174 196 57
172 195 76
174 197 57
173 195 62
174 196 80
174 196 62
173 195 88
172 194 67
167 189 62
174 195 95
171 193 92
169 190 62
172 194 84
169 191 57
172 194 88
175 197 95
171 192 88
173 194 108
173 194 108
174 194 114
173 193 105
168 189 80
168 189 62
167 188 67
164 186 84
165 186 88
166 188 57
160 181 25
157 177 0
155 176 0
154 175 0
156 177 0
149 170 0
150 171 0
156 177 0
154 175 0
152 174 0
150 173 0
148 169 0
156 177 0
152 174 0
155 177 44
165 187 51
164 187 36
167 189 62
174 195 84
167 191 0
165 188 0
161 183 0
159 181 0
166 188 0
159 181 0
164 187 0
168 189 0
166 189 0
160 183 0
156 178 0
152 175 0
154 177 0
161 184 0
164 187 0
157 180 0
155 178 0
153 176 0
156 179 0
156 178 0
156 177 0
157 180 0
165 188 0
157 180 0
156 179 0
155 177 0
148 171 0
154 176 0
148 171 0
153 176 0
153 175 0
159 182 0
150 172 0
150 172 0
78 104 70
48 77 74
51 82 74
53 84 88
54 85 84
56 88 94
54 86 92
55 86 103
52 83 78
55 87 100
52 82 94
53 85 95
54 84 99
55 88 95
53 83 82
56 88 102
54 85 100
51 82 74
53 85 86
53 84 88
54 85 92
55 88 105
52 83 94
53 84 88
54 86 88
55 87 102
54 86 95
55 87 82
53 84 100
55 87 105
53 85 99
56 88 107
52 83 97
52 82 90
54 86 94
56 88 105
51 80 92
54 86 100
54 85 94
54 86 94
53 85 92
54 86 95
52 83 82
54 85 95
55 87 102
55 86 102
52 83 92
49 78 90
52 83 74
52 82 96
53 84 95
54 85 101
53 84 95
52 82 78
54 85 95
51 80 67
51 81 79
50 80 83
54 86 99
50 79 70
51 80 92
50 79 75
50 78 89
50 79 78
50 79 74
50 77 85
47 74 60
49 76 75
46 73 70
77 96 55
133 153 18
139 157 0
147 165 0
133 150 0
137 155 0
134 150 0
140 156 0
136 153 0
138 155 0
146 161 0
151 169 0
150 168 0
149 165 0
152 170 0
148 166 0
142 157 0
141 156 0
143 159 0
147 164 0
150 165 0
147 161 0
148 166 0
151 166 0
144 159 0
148 164 0
145 158 0
147 165 0
147 160 0
150 166 0
145 158 0
151 167 0
145 160 0
154 168 0
158 177 0
129 137 11
91 85 18
99 93 30
86 82 22
93 89 16
94 90 16
89 85 14
93 89 16
92 87 0
86 81 0
103 96 11
82 77 11
103 98 3
92 89 0
96 93 14
97 94 0
109 103 18
97 93 8
107 104 0
104 99 11
104 99 19
106 103 14
108 102 11
109 105 11
110 105 0
114 111 11
106 103 0
113 108 30
115 112 19
111 107 21
118 113 18
120 114 14
122 118 23
123 118 18
112 108 11
115 110 16
124 120 19
123 118 24
124 120 19
124 119 16
127 121 28
117 112 25
130 125 29
137 131 25
129 125 25
127 122 25
126 121 25
139 134 32
124 121 24
129 124 22
133 128 34
126 121 19
131 126 28
134 128 39
131 128 28
132 127 32
137 132 25
133 128 25
138 132 30
133 130 28
135 129 37
140 135 25
132 126 39
142 136 41
140 135 28
140 135 34
131 126 30
135 129 28
140 134 37
139 134 32
137 133 39
145 138 44
139 132 39
140 134 44
144 138 37
144 139 41
142 136 41
136 131 44
140 135 44
146 140 47
144 139 32
143 136 37
136 130 30
143 138 42
145 139 47
147 140 37
146 139 44
137 132 41
141 136 37
143 138 39
133 128 30
142 136 39
141 134 39
141 134 37
145 138 51
143 137 39
145 139 36
136 129 34
138 133 39
143 137 42
149 142 54
145 139 45
146 139 48
145 138 49
140 135 42
142 136 42
138 133 41
142 137 52
145 138 49
149 142 60
143 138 47
138 134 39
141 136 42
138 133 42
148 142 57
141 135 47
127 122 39
137 131 56
147 140 57
146 140 51
138 132 49
143 135 52
132 128 30
134 127 47
136 130 47
138 132 53
133 127 49
135 129 49
141 134 53
132 127 49
133 126 44
173 196 0
173 196 0
173 197 0
170 193 0
171 195 0
171 194 0
172 196 0
172 195 0
172 194 0
171 195 0
171 194 0
174 197 0
173 196 0
172 196 0
169 192 0
171 195 0
171 195 0
171 195 0
173 196 0
172 195 0
174 197 0
175 198 25
176 199 67
178 201 80
175 198 62
176 198 57
179 201 84
179 201 76
180 202 88
176 199 72
176 199 57
178 200 84
182 204 111
181 202 105
182 203 117
180 202 102
178 200 92
180 202 95
181 202 102
178 200 84
180 202 108
177 199 88
177 200 72
179 201 108
179 202 108
172 196 76
178 201 95
176 199 80
177 200 80
172 195 67
175 198 67
177 199 72
176 199 72
174 197 62
173 196 72
175 198 76
176 200 84
178 200 84
176 199 62
173 196 44
172 196 67
174 198 67
171 194 92
175 198 80
174 197 72
176 198 62
173 196 67
171 194 44
172 195 62
174 197 62
174 197 67
175 196 44
173 196 62
169 192 67
175 198 84
170 192 57
174 196 88
177 199 80
175 197 62
174 197 99
174 196 80
174 196 80
176 198 62
170 192 57
177 198 67
174 197 67
172 194 84
169 190 57
172 195 92
169 191 51
176 197 88
171 193 67
173 195 95
178 199 99
175 197 84
172 194 76
170 191 72
169 189 76
172 193 72
174 195 108
168 189 62
171 191 84
169 189 76
173 193 108
172 192 92
166 188 57
171 192 99
163 185 84
166 188 72
165 186 44
164 185 44
153 176 0
151 172 0
154 175 0
157 177 0
158 179 0
149 169 0
154 175 0
160 180 0
157 177 0
146 167 0
151 172 25
146 167 0
152 174 0
159 179 25
162 184 51
157 179 44
164 185 25
166 188 57
168 189 76
166 188 0
163 186 0
171 193 0
169 191 0
163 185 0
163 185 0
166 188 0
158 180 0
158 182 0
160 182 0
159 181 0
154 176 0
156 178 0
153 176 0
157 179 0
159 181 0
159 182 0
159 181 0
163 185 0
158 182 0
154 177 0
159 182 0
152 175 0
157 179 0
152 174 0
149 172 0
152 174 0
155 177 0
151 173 0
149 172 0
148 171 0
142 164 0
138 160 0
139 162 0
151 174 0
141 162 18
89 112 60
52 83 86
51 81 74
52 83 82
51 81 84
50 80 80
53 84 94
54 86 97
54 85 94
55 87 97
54 85 102
52 83 90
54 86 90
54 85 90
55 88 102
51 81 82
53 85 86
51 82 86
53 84 92
54 86 84
54 86 97
55 87 78
55 88 105
55 87 86
55 87 99
54 86 97
54 86 103
55 87 95
51 82 80
53 83 88
55 86 102
53 83 97
54 86 97
54 86 90
53 85 82
53 84 80
53 84 90
53 84 94
53 84 94
54 86 80
53 85 87
51 81 90
53 83 88
52 83 82
51 81 82
51 81 80
54 85 94
51 80 74
52 83 86
51 81 78
51 81 84
53 84 97
51 80 94
51 80 89
47 75 77
52 82 87
50 79 84
50 79 79
47 74 78
52 81 78
48 76 70
51 80 83
46 72 69
46 72 63
51 80 89
47 72 52
43 68 62
86 105 48
140 157 0
127 144 0
137 154 0
135 154 0
127 145 0
139 157 0
141 156 0
140 156 0
134 150 0
137 154 0
137 156 0
147 163 0
135 153 0
140 158 0
139 155 0
134 147 0
145 160 0
145 161 0
137 154 0
138 153 0
143 161 0
137 151 0
138 154 0
146 162 0
144 158 0
152 168 0
144 160 0
136 148 0
146 162 0
148 162 0
144 158 0
145 160 0
149 164 0
146 161 0
145 159 0
141 151 0
138 148 11
95 90 22
90 82 25
97 93 22
94 87 24
85 78 0
91 85 16
79 74 14
87 83 1
85 81 12
88 84 3
96 90 2
92 90 3
98 93 0
93 89 12
111 105 16
105 101 0
96 93 0
98 94 11
101 99 11
108 105 8
103 99 3
104 98 11
102 99 0
99 97 0
105 101 8
112 107 0
114 110 11
111 106 14
107 103 0
115 110 0
118 113 24
118 113 11
114 108 16
113 109 8
123 118 25
127 122 19
119 113 19
123 117 25
119 114 16
122 117 21
120 115 16
121 117 22
120 117 16
126 120 25
131 126 19
127 122 19
127 122 22
133 126 25
128 123 36
123 118 19
136 130 25
127 122 26
128 123 16
123 118 25
137 132 28
137 130 30
133 128 28
133 129 24
132 126 28
140 133 37
134 129 25
136 130 32
141 136 34
137 131 32
138 131 34
135 132 30
138 133 25
140 133 44
138 133 36
146 141 39
134 128 32
138 132 36
133 128 36
144 138 42
139 133 37
135 130 32
138 133 30
143 137 44
140 135 34
146 141 37
139 133 41
148 141 44
143 136 45
134 128 28
146 141 41
137 131 22
136 131 39
140 135 36
135 128 37
142 135 41
145 139 39
146 141 49
147 141 45
140 135 37
144 138 52
146 140 41
149 143 52
145 139 53
140 133 37
136 131 34
138 133 44
143 137 48
143 136 37
149 143 47
131 126 36
148 140 58
138 133 39
135 129 42
137 131 28
139 132 49
141 136 37
143 136 52
143 135 49
141 136 47
137 131 47
148 142 53
141 134 51
137 132 45
135 130 48
145 140 42
137 131 42
139 134 45
137 132 42
141 135 49
139 132 57
143 137 58
140 134 52
136 131 59
137 132 45
173 197 25
172 196 0
172 196 0
173 197 0
172 196 0
172 196 0
173 196 0
172 196 0
168 192 0
173 196 0
172 195 0
171 195 0
172 196 0
176 199 0
172 195 0
173 197 0
171 194 0
173 197 0
170 193 0
173 196 0
172 196 0
173 196 0
171 194 0
172 195 25
173 195 57
172 195 62
175 198 51
177 200 99
178 200 92
174 197 67
176 199 76
178 200 92
176 199 62
177 200 88
181 203 99
179 201 84
183 204 120
185 207 125
181 203 99
177 199 108
179 202 92
176 199 92
182 204 105
178 200 99
178 201 111
178 200 88
177 199 62
177 199 80
176 200 84
177 200 92
173 195 72
174 197 88
176 199 88
177 199 80
175 198 84
175 197 62
173 195 62
172 195 67
171 193 36
176 199 76
175 198 76
173 196 72
176 199 99
174 197 99
174 197 88
175 197 72
174 196 76
177 199 67
171 194 76
172 195 76
172 195 51
174 197 80
178 199 76
174 196 76
175 198 80
175 198 62
175 197 62
171 193 76
176 199 88
172 195 72
173 194 76
173 195 67
169 191 62
174 195 92
177 199 51
173 195 76
171 193 51
172 194 72
174 195 88
175 197 84
175 196 72
171 192 80
174 196 88
175 197 76
177 197 76
178 199 105
161 182 72
175 195 67
166 186 72
173 193 108
173 192 99
173 194 105
165 186 88
164 184 72
166 187 76
169 190 88
166 187 76
164 185 57
161 183 51
155 177 0
164 184 0
166 186 0
153 174 0
146 166 0
152 173 0
155 176 0
150 171 0
157 178 0
158 179 0
162 183 0
155 177 0
149 170 0
159 182 0
160 181 25
160 181 36
156 177 36
163 186 44
164 185 67
170 190 80
163 185 0
157 180 0
161 183 0
160 182 0
164 187 0
163 185 0
158 180 0
162 185 0
161 183 0
158 181 0
159 181 0
158 181 0
156 178 0
162 185 0
157 179 0
158 181 0
155 178 0
146 169 0
156 178 0
152 174 0
153 174 0
149 171 0
149 171 0
152 174 0
153 175 0
138 160 0
155 177 0
150 172 0
142 164 0
144 167 0
151 173 0
143 166 0
141 164 0
143 165 0
148 170 0
142 164 0
147 168 0
139 161 0
105 127 65
52 81 72
53 84 80
52 83 78
51 82 76
50 79 84
50 80 72
55 87 92
52 83 86
55 87 99
52 84 86
52 82 84
52 83 82
52 84 82
53 84 84
51 81 65
52 83 90
54 85 80
53 84 82
54 85 84
54 86 90
55 87 99
52 83 102
53 85 90
51 81 82
51 81 84
54 86 84
51 81 84
53 85 88
52 82 92
53 84 100
55 87 97
52 83 94
52 83 94
51 82 80
52 82 94
53 84 80
51 81 92
55 88 102
54 84 99
53 84 84
51 80 75
53 84 84
51 80 90
52 83 92
53 83 82
50 79 74
49 79 67
52 82 80
48 75 84
50 78 86
51 81 90
51 80 90
49 78 83
52 82 92
49 77 86
50 80 87
52 80 94
49 77 77
49 77 72
47 74 76
47 74 79
44 70 45
44 70 65
48 73 79
109 127 44
115 129 0
126 141 0
131 149 0
132 147 0
130 147 0
123 140 0
133 149 0
136 155 0
131 145 0
135 151 0
132 147 0
127 146 0
134 150 0
133 148 0
140 156 0
136 149 0
132 149 0
145 160 0
148 163 0
137 152 0
136 147 0
139 154 0
139 154 0
137 152 0
135 149 0
142 155 0
148 160 0
143 159 0
136 150 0
138 151 0
145 160 0
142 156 0
142 155 0
147 159 0
142 153 0
142 154 0
148 163 0
142 154 0
133 145 0
105 100 37
85 81 16
91 84 11
85 79 14
93 90 25
76 73 0
82 79 16
98 94 16
91 87 14
97 91 0
101 97 0
88 86 3
92 85 16
98 96 0
104 98 0
104 98 0
98 94 11
106 101 0
105 101 8
100 97 11
100 97 16
107 102 14
107 102 16
110 104 11
106 103 11
115 110 16
111 106 19
111 108 14
121 115 18
114 110 11
112 107 18
103 99 11
118 114 0
114 111 11
117 111 11
113 108 14
107 105 14
120 115 0
122 118 25
117 111 11
125 121 25
124 120 22
122 117 30
131 125 22
124 119 19
130 126 16
125 121 19
128 123 28
118 113 22
131 126 30
132 127 16
129 124 30
130 125 25
131 125 25
134 128 28
131 125 28
136 130 34
143 136 28
135 129 19
127 121 34
132 127 36
132 125 30
137 132 34
136 131 34
135 131 22
137 132 30
136 129 37
132 128 28
141 133 39
142 136 44
137 132 39
138 134 25
139 133 37
129 123 34
129 125 32
141 135 34
137 131 36
136 130 41
142 135 44
132 128 28
132 125 34
135 128 34
143 138 42
134 128 32
140 134 39
143 136 44
140 134 30
134 128 36
145 137 47
141 135 42
137 132 41
137 131 42
139 132 37
139 132 36
143 138 44
143 137 49
144 137 44
136 131 39
140 133 42
134 127 42
147 141 41
139 133 52
134 129 41
145 137 44
147 140 48
136 132 44
139 133 44
133 128 42
133 127 37
135 129 42
146 139 51
135 131 37
134 130 44
140 132 49
146 140 49
142 135 47
140 135 42
138 132 48
142 136 47
139 134 51
132 126 51
138 132 51
138 131 42
133 127 47
138 132 49
135 127 51
134 130 44
139 132 59
175 198 25
175 198 0
172 195 0
174 197 0
172 195 0
172 195 0
173 197 0
171 195 0
175 198 0
174 198 0
172 197 0
172 195 0
173 196 0
171 195 0
174 197 0
173 196 0
172 195 0
172 195 0
171 195 0
171 195 0
171 194 0
172 196 0
171 194 0
172 196 0
172 195 0
171 194 0
175 197 67
173 195 72
175 197 76
172 195 67
180 202 95
180 202 95
176 199 80
177 200 92
176 199 57
176 199 84
174 197 84
178 200 95
183 204 122
182 203 111
183 204 108
182 202 105
179 201 95
176 199 72
178 200 95
177 199 95
182 203 99
178 200 92
178 200 99
174 196 84
176 198 88
177 200 76
175 197 67
176 198 102
175 198 80
178 200 92
176 199 92
176 199 88
176 199 76
178 200 72
177 199 76
178 200 92
175 198 62
179 201 102
176 198 72
173 195 80
173 195 62
176 198 72
174 196 57
172 194 67
178 199 80
176 199 67
177 199 84
172 194 76
171 193 80
175 197 84
176 198 76
175 196 76
173 195 99
174 195 92
172 193 88
174 195 76
177 198 88
177 198 84
172 194 67
177 198 88
175 198 76
174 195 80
173 193 57
176 198 95
171 192 92
171 192 76
176 196 99
173 193 99
174 195 72
174 196 99
168 188 80
178 198 102
172 192 80
170 192 88
166 187 67
167 190 80
169 191 95
172 192 72
165 186 57
163 184 25
153 174 44
160 181 0
160 180 0
159 181 0
157 179 0
153 174 0
149 170 0
150 171 0
151 171 0
159 180 0
160 182 0
153 174 0
156 178 0
156 178 0
156 177 0
155 177 0
158 179 25
161 183 36
164 186 44
168 190 57
174 194 95
167 188 57
165 188 0
162 184 0
159 182 0
162 185 0
166 188 0
164 187 0
161 183 0
156 179 0
160 183 0
154 177 0
155 177 0
158 181 0
157 179 0
158 180 0
158 180 0
162 184 0
155 177 0
162 184 0
149 172 0
149 171 0
156 178 0
154 176 0
145 167 0
160 181 0
157 180 0
150 172 0
152 174 0
145 167 0
142 163 0
150 172 0
152 174 0
158 180 0
136 158 0
145 165 0
147 169 0
149 171 0
138 160 0
138 159 0
138 160 0
135 155 0
106 126 25
59 87 74
49 79 78
50 80 65
48 78 67
49 79 78
52 83 92
49 78 60
53 85 86
53 85 94
52 84 90
51 82 78
52 83 80
52 82 82
50 79 84
50 80 82
50 79 88
55 87 107
51 82 82
51 82 70
52 84 70
52 83 84
55 87 102
51 81 82
51 81 86
51 81 78
53 83 84
53 85 78
51 82 72
55 86 97
52 82 92
53 85 88
54 85 97
53 83 100
53 84 90
50 79 72
54 85 88
51 82 90
53 84 95
52 83 90
51 82 87
49 79 84
51 81 74
53 84 83
50 80 86
52 83 90
52 82 88
50 79 75
54 84 100
53 84 92
48 76 79
48 76 76
50 79 86
50 79 79
51 80 94
53 84 77
50 80 83
46 73 78
48 76 70
50 78 87
47 74 70
48 75 73
47 72 70
105 120 19
115 132 0
123 140 0
133 150 0
121 135 0
115 130 0
127 146 0
123 137 0
122 138 0
125 141 0
133 148 0
131 146 0
131 145 0
130 144 0
128 141 0
136 150 0
138 154 0
135 151 0
143 157 0
138 153 0
126 139 0
129 140 0
139 152 0
130 144 0
137 150 0
134 148 0
131 143 0
139 153 0
129 144 0
126 140 0
148 161 0
136 149 0
135 146 0
146 157 0
138 150 0
143 156 0
137 149 0
140 154 0
143 153 0
144 154 0
139 150 0
133 141 0
110 106 28
97 89 19
93 87 19
68 65 16
94 89 16
96 90 0
84 79 0
90 84 0
93 88 0
98 94 11
94 88 8
75 73 0
93 89 8
86 82 0
98 94 0
96 93 11
108 103 0
96 93 8
95 89 0
108 102 0
106 100 18
103 100 0
110 105 11
123 117 16
116 111 11
97 93 0
115 111 0
107 104 16
112 107 0
113 108 0
110 107 0
110 106 11
120 114 16
114 108 0
118 115 11
123 118 14
117 112 16
118 113 16
124 119 19
126 120 22
124 118 24
123 117 16
123 118 22
112 108 14
128 123 25
130 124 25
125 119 11
133 126 22
130 125 11
122 116 11
128 124 19
126 122 16
132 125 22
126 120 25
125 119 16
129 125 30
137 131 39
130 124 28
131 125 19
131 125 28
129 125 34
140 132 34
127 121 25
127 120 30
135 130 30
127 123 22
136 131 32
129 125 28
138 133 32
138 132 41
130 125 30
128 124 34
141 135 42
132 126 25
141 134 28
137 129 39
140 134 37
131 125 32
145 140 41
133 126 30
143 136 34
144 137 45
135 130 22
133 128 37
138 132 32
147 141 52
136 130 37
139 134 41
140 133 41
141 134 47
136 130 44
144 138 45
136 131 32
141 135 39
137 131 39
130 124 30
140 135 48
129 124 41
145 139 42
140 133 44
141 133 41
137 130 42
141 136 37
139 133 44
134 127 47
144 138 45
138 133 32
144 138 47
134 129 34
134 127 42
137 130 47
133 126 42
141 135 51
131 126 37
138 132 52
133 128 39
138 131 48
136 130 45
143 138 45
139 133 48
140 134 48
135 129 47
138 131 52
144 138 49
135 129 44
133 127 51
136 131 42
173 196 0
172 195 0
171 194 0
173 196 0
174 197 0
170 193 0
171 195 0
174 197 0
174 197 0
173 196 0
171 195 0
174 197 0
170 193 0
171 194 0
173 197 0
173 196 0
170 194 0
171 193 0
170 193 0
170 195 0
173 196 0
169 193 0
171 194 0
172 195 0
171 194 0
174 196 0
171 194 0
173 196 0
173 196 44
176 199 57
178 200 80
178 200 88
178 200 92
179 201 76
177 200 62
180 201 84
180 201 80
174 196 51
176 198 67
176 198 62
175 197 88
179 200 105
184 205 117
183 204 120
181 202 102
176 198 95
177 198 88
181 202 105
180 201 92
178 200 117
176 198 76
179 200 92
177 199 88
173 196 62
176 198 92
176 198 88
179 201 102
178 200 88
179 201 88
173 196 99
179 200 99
175 197 72
173 194 72
176 198 84
176 197 67
178 200 99
170 192 76
173 195 80
173 196 72
174 196 92
172 194 57
172 194 62
175 197 72
171 193 67
176 197 57
173 195 44
175 196 80
176 197 76
177 198 72
178 200 80
174 196 84
174 195 95
170 192 67
173 194 76
176 198 95
179 199 95
173 193 102
169 190 72
177 198 84
179 200 108
168 190 88
172 192 99
174 195 92
176 196 99
172 192 99
168 188 76
163 183 95
167 188 80
171 193 102
170 191 62
171 191 76
170 192 88
171 191 72
157 178 62
158 178 0
156 177 0
157 178 0
157 178 0
158 179 0
152 172 0
164 184 0
152 173 0
158 179 0
162 182 0
159 180 0
158 179 25
155 176 0
148 169 25
157 178 0
155 176 0
163 184 0
159 181 44
162 183 57
158 180 0
163 185 51
164 186 57
162 185 0
161 184 0
162 184 0
162 185 0
161 183 0
155 178 0
154 176 0
161 182 0
158 181 0
160 182 0
160 182 0
158 180 0
157 180 0
159 180 0
154 177 0
156 178 0
156 178 0
156 177 0
155 177 0
157 179 0
151 173 0
152 174 0
151 174 0
154 177 0
156 178 0
148 169 0
150 171 0
144 166 0
151 174 0
143 164 0
151 172 0
145 165 0
142 162 0
143 164 0
137 159 0
132 153 0
137 158 0
136 156 0
131 152 0
144 165 0
131 152 0
128 148 0
134 154 0
117 136 25
81 106 65
51 82 80
52 82 92
48 78 65
50 79 68
50 80 74
50 80 80
51 82 78
51 82 80
51 82 80
52 83 82
51 81 84
51 81 82
51 82 90
52 83 74
53 84 84
51 80 84
54 86 80
50 80 76
53 84 86
52 84 80
54 85 97
52 84 86
51 82 92
52 83 80
51 81 76
50 80 70
53 84 88
53 83 84
54 85 102
54 86 100
52 84 84
53 84 80
51 81 76
52 82 92
49 78 76
52 82 90
53 84 95
53 84 94
54 85 94
51 81 90
51 81 78
53 84 94
51 81 72
52 82 86
52 82 86
51 80 80
48 77 74
51 81 88
51 80 76
50 79 77
52 82 85
48 75 65
50 78 90
49 77 77
47 74 72
46 73 70
45 71 70
47 74 70
68 86 57
112 127 25
118 132 0
126 142 0
126 141 0
130 144 0
114 130 0
130 146 0
125 140 0
121 133 0
128 144 0
123 139 0
124 138 0
130 144 0
126 143 0
122 137 0
132 146 0
133 147 0
130 146 0
128 143 0
117 128 0
124 137 0
137 149 0
135 151 0
131 145 0
137 151 0
131 143 0
134 145 0
136 151 0
136 149 0
142 155 0
141 154 0
128 139 0
140 153 0
134 147 0
128 136 0
138 150 0
137 147 0
126 134 0
135 142 0
135 146 0
140 152 0
135 144 0
144 154 0
130 140 0
110 113 0
80 75 19
82 78 16
87 81 18
79 74 16
91 85 16
74 69 0
98 90 0
98 91 8
82 79 3
94 91 0
91 87 11
85 81 0
89 83 8
88 84 0
100 96 0
91 85 8
105 99 11
109 103 3
97 93 3
98 93 0
96 91 8
113 106 16
112 108 0
103 100 14
107 102 0
112 106 11
113 106 0
111 108 0
119 116 11
108 102 0
120 117 0
116 112 8
125 119 0
120 117 0
117 112 8
119 112 22
118 113 18
113 109 11
130 124 19
117 114 0
125 120 22
122 118 22
121 117 11
128 123 19
128 122 22
127 123 14
130 123 19
132 125 19
122 116 22
134 129 19
121 116 22
132 125 28
135 128 39
129 125 25
129 123 30
135 130 34
138 131 34
133 127 22
125 120 16
129 123 22
133 127 28
138 131 36
136 131 36
133 127 25
134 129 32
142 136 41
130 125 34
133 127 34
130 126 19
140 134 25
137 131 25
141 135 32
140 134 44
130 124 28
140 135 36
134 128 36
139 133 44
136 131 36
132 127 25
128 122 36
134 129 34
144 138 44
138 133 37
145 139 51
133 126 41
140 133 36
135 128 36
136 130 32
147 141 44
141 135 36
143 135 48
134 128 34
128 123 39
140 134 39
138 131 47
131 124 39
135 128 45
126 121 34
130 123 36
150 142 52
146 139 44
136 130 39
134 128 37
134 128 45
133 127 34
139 133 44
136 130 39
135 129 39
144 138 49
135 129 34
135 128 44
133 128 41
141 135 51
126 121 39
134 128 47
122 116 41
134 128 41
138 132 49
129 124 47
138 132 47
125 120 37
133 127 44
124 119 36
134 129 45
133 127 41
173 197 0
174 197 0
172 196 0
173 197 0
170 193 0
172 196 0
174 196 0
173 197 0
172 195 0
173 196 0
173 196 0
170 195 0
173 195 0
173 196 0
175 198 0
170 194 0
174 197 0
171 196 0
172 195 0
171 194 0
173 196 0
168 192 0
172 195 0
173 196 0
174 197 0
169 191 0
175 198 0
172 194 0
172 195 0
170 192 0
173 196 51
174 196 57
178 200 76
177 199 72
177 199 72
177 199 67
178 200 84
180 202 92
176 199 67
175 197 84
178 200 76
176 198 76
177 200 72
180 201 84
182 203 95
183 204 111
182 203 114
179 200 105
182 203 108
179 200 95
184 205 120
176 198 105
178 199 105
176 198 84
177 199 80
179 200 105
182 203 108
178 200 105
176 197 80
177 198 92
177 199 67
178 200 80
179 200 99
174 196 92
177 198 80
176 197 95
177 198 72
177 199 88
179 201 88
176 197 88
177 198 99
176 197 72
176 198 88
176 197 92
178 199 72
175 196 88
176 198 92
176 196 88
172 192 88
174 196 92
176 197 84
171 192 84
176 197 99
173 194 99
174 194 105
170 191 92
173 194 102
170 191 102
175 196 120
175 196 105
170 191 95
178 198 99
172 193 92
169 191 95
170 192 62
162 183 62
172 193 95
168 188 67
165 186 62
162 183 80
163 183 76
163 185 36
159 180 25
162 182 0
157 178 0
159 180 0
163 183 0
160 181 0
156 177 0
154 175 0
155 177 0
156 177 0
157 178 0
158 179 0
152 173 0
159 180 0
157 177 25
161 182 0
164 185 0
160 180 44
163 184 44
158 179 0
165 186 25
168 190 80
168 189 76
166 188 0
163 184 0
155 176 0
160 183 0
159 181 0
157 180 0
154 177 0
160 182 0
160 181 0
157 179 0
159 180 0
164 186 0
156 179 0
151 172 0
155 178 0
153 175 0
152 174 0
150 172 0
160 182 0
160 182 0
161 182 0
155 177 0
153 174 0
153 175 0
146 168 0
155 176 0
154 176 0
153 176 0
151 172 0
149 171 0
139 161 0
148 170 0
134 156 0
134 155 0
147 168 0
140 162 0
147 168 0
139 161 0
139 160 0
135 155 0
132 151 0
138 157 0
136 155 0
133 152 0
118 138 0
113 132 0
93 114 54
54 83 72
48 76 76
50 80 76
50 80 72
51 81 74
51 81 78
50 79 94
52 82 84
51 81 70
51 81 95
48 77 70
54 85 94
48 77 67
52 83 74
49 79 78
52 82 74
50 80 65
51 81 78
50 81 70
54 85 88
53 84 95
53 83 95
51 82 84
52 82 84
53 85 86
50 80 82
53 83 88
51 80 82
52 83 88
50 80 65
53 85 94
53 83 92
50 79 82
50 80 76
52 82 88
52 82 81
53 84 100
52 82 87
49 79 72
51 80 80
52 82 81
49 79 72
55 86 96
48 76 80
52 82 85
48 77 72
47 74 67
48 76 80
48 75 75
49 76 83
47 74 77
47 75 63
48 76 83
43 68 54
47 74 72
49 72 54
88 107 51
104 119 0
109 123 0
121 136 0
102 117 0
124 139 0
113 125 0
118 133 0
119 135 0
110 124 0
114 128 0
125 142 0
125 142 0
126 141 0
126 139 0
135 150 0
113 125 0
130 146 0
132 147 0
127 140 0
123 136 0
128 143 0
132 145 0
133 150 0
125 136 0
131 142 0
131 143 0
133 146 0
137 148 0
129 142 0
136 149 0
131 146 0
138 148 0
141 153 0
120 133 0
125 136 0
139 150 0
135 147 0
128 137 0
130 137 0
125 136 0
130 143 0
121 127 0
128 134 0
130 138 0
133 141 0
137 144 0
114 116 16
89 83 19
76 71 16
87 82 16
84 79 16
93 87 11
81 76 11
96 92 14
91 86 8
98 91 0
89 86 11
95 91 8
105 100 0
95 89 3
97 92 14
98 93 0
97 90 0
100 95 0
100 94 0
100 96 0
92 87 8
111 106 0
114 108 0
106 102 0
100 95 11
121 116 3
103 98 8
120 114 0
111 107 0
108 104 8
120 114 14
114 108 19
122 117 16
120 114 0
123 118 11
120 116 14
111 106 11
128 122 16
128 122 19
121 115 0
117 114 11
124 118 16
129 122 16
126 120 19
119 115 16
126 120 11
130 123 25
121 117 11
126 121 19
125 119 28
127 122 19
132 126 28
121 116 22
135 128 30
136 130 30
128 122 22
129 122 22
128 122 34
135 130 22
137 131 30
122 119 19
131 125 30
133 126 36
136 128 30
135 128 32
129 124 22
141 135 42
138 133 28
130 125 25
130 124 22
130 124 30
139 134 28
136 130 36
135 128 36
138 132 32
141 134 42
136 129 37
142 135 36
132 125 28
134 127 34
126 120 22
133 127 30
140 135 32
134 130 32
138 131 36
135 130 39
137 131 32
136 130 42
139 133 39
140 134 44
138 132 34
139 133 37
144 137 49
139 132 30
138 131 37
138 131 44
138 132 36
140 134 42
125 119 25
137 130 39
131 126 36
142 134 42
137 131 39
132 127 36
140 134 41
137 131 41
137 131 45
136 130 42
135 128 34
131 125 37
137 130 48
143 136 54
132 127 44
128 122 39
136 129 58
130 123 47
136 131 47
131 124 37
137 132 44
140 133 47
140 134 45
130 125 41
135 129 42
133 127 48
130 126 44
172 196 25
172 196 0
172 196 0
174 197 0
174 197 0
171 195 0
172 196 25
175 198 25
175 198 0
173 196 36
172 195 0
172 195 0
172 194 0
175 198 0
174 197 0
172 195 0
171 195 0
174 197 0
173 195 0
173 196 0
172 195 0
170 193 0
175 197 0
173 196 0
170 193 0
171 193 0
169 193 0
172 195 0
174 197 0
172 195 0
169 192 0
171 194 0
172 195 25
172 195 25
177 200 84
173 196 62
175 196 67
177 199 67
177 200 92
180 202 92
180 201 92
177 198 99
179 201 72
172 194 67
179 201 88
173 196 76
177 198 80
175 197 72
179 201 80
177 198 80
179 201 84
184 205 122
181 202 117
178 199 102
181 202 99
178 200 80
179 200 111
176 197 84
182 203 95
181 202 108
177 199 95
180 201 92
173 196 80
177 199 76
179 200 92
179 200 102
177 198 67
177 198 84
175 196 84
184 204 117
171 192 92
173 194 95
175 196 95
179 199 108
172 193 88
176 196 76
171 192 84
176 197 102
173 194 102
175 196 84
172 194 76
174 195 92
176 196 108
179 199 105
178 198 114
174 195 111
176 197 111
176 197 99
171 192 84
169 189 62
167 188 72
167 188 67
173 195 84
165 186 72
168 189 76
171 192 67
169 190 67
169 190 51
161 183 51
157 177 36
154 175 0
156 178 0
159 180 0
157 179 0
155 177 0
165 185 0
152 174 0
155 176 0
157 178 0
162 182 0
151 174 0
160 181 0
160 181 0
161 182 0
153 174 0
159 179 0
152 173 0
161 183 0
160 182 36
160 182 36
160 181 51
159 181 62
170 191 72
164 186 51
161 183 0
166 188 0
164 186 0
158 181 0
162 185 0
156 179 0
157 178 0
159 181 0
158 181 0
161 183 0
160 182 0
160 182 0
156 177 0
158 180 0
147 169 0
146 168 0
153 174 0
155 176 0
160 182 0
154 176 0
149 171 0
158 180 0
148 170 0
152 174 0
144 166 0
140 162 0
147 168 0
146 167 0
141 163 0
150 171 0
141 162 0
141 163 0
140 160 0
142 162 0
139 160 0
136 157 0
135 155 0
137 156 0
134 154 0
140 161 0
121 141 0
128 148 0
131 151 0
129 148 0
136 156 0
108 128 0
114 133 0
129 148 0
98 116 25
76 99 51
50 80 72
48 77 76
51 81 78
49 78 74
50 80 78
49 78 74
53 85 95
54 85 86
51 81 80
51 81 74
50 80 80
48 77 65
55 87 97
50 80 86
50 80 74
49 79 74
50 80 65
49 78 80
51 81 82
53 84 90
53 83 90
49 79 90
52 83 78
50 80 80
52 83 86
51 82 76
50 80 78
49 79 82
51 81 88
52 82 82
50 80 67
50 79 86
48 77 78
49 78 68
50 79 82
53 84 92
49 78 82
50 79 78
51 81 79
49 77 72
49 78 70
48 76 80
46 72 79
48 77 77
48 76 78
48 76 65
48 75 76
47 74 67
47 74 60
48 76 76
43 67 54
45 70 65
61 79 51
101 116 26
107 121 0
99 112 0
100 114 0
116 130 0
105 118 0
113 126 0
109 124 0
116 130 0
114 129 0
122 135 0
124 140 0
106 120 0
118 133 0
114 129 0
124 138 0
127 143 0
124 137 0
126 139 0
117 131 0
120 134 0
120 134 0
120 134 0
123 137 0
136 150 0
118 132 0
125 139 0
124 134 0
127 138 0
129 141 0
131 144 0
124 133 0
134 145 0
127 138 0
127 139 0
130 142 0
135 146 0
127 139 0
126 136 0
126 135 0
132 139 0
128 135 0
133 143 0
117 124 0
130 140 0
133 142 0
128 135 0
137 145 0
128 135 0
129 138 0
90 88 11
67 62 16
80 73 11
72 67 16
94 88 11
95 90 11
86 81 0
86 82 11
89 83 8
78 76 11
94 87 11
95 89 0
103 97 0
89 82 0
104 98 0
101 95 0
99 94 0
87 84 0
100 94 0
105 100 0
114 107 0
97 93 8
96 91 0
105 100 0
108 102 0
109 104 0
112 107 0
113 108 0
114 110 12
111 106 0
111 107 0
108 103 0
112 107 11
113 108 0
112 109 0
109 104 11
118 115 19
123 118 0
123 116 11
116 111 11
120 114 0
126 121 14
118 114 19
124 119 11
128 121 11
122 116 0
126 121 19
125 119 16
129 123 19
132 126 19
126 120 19
130 124 16
131 124 30
123 116 25
135 129 32
134 128 25
126 122 25
131 126 30
124 120 11
129 122 22
122 117 22
132 127 19
130 123 34
134 128 28
137 131 36
140 134 34
134 129 25
132 125 34
124 119 22
137 128 28
134 129 30
130 125 28
133 127 30
141 135 39
138 132 44
131 125 34
137 129 39
136 130 28
141 135 39
132 126 30
131 126 30
133 126 37
136 130 34
138 131 41
137 130 41
132 125 39
135 129 42
138 132 30
132 125 37
132 127 42
141 134 41
135 128 41
130 125 37
139 131 45
134 128 44
142 136 44
140 133 49
136 131 39
142 137 36
134 128 39
137 131 36
138 131 49
133 127 42
139 132 44
134 127 36
137 130 44
137 131 37
129 123 32
124 119 36
138 129 53
141 137 41
130 122 42
140 133 47
134 127 44
136 131 36
127 122 34
136 131 48
143 136 59
139 132 45
137 130 48
130 124 48
131 125 42
129 125 36
175 197 0
171 195 0
172 195 0
172 196 0
175 198 0
175 198 0
173 197 0
174 196 0
172 196 0
174 197 25
172 194 0
171 195 0
171 194 0
173 196 0
169 193 0
174 196 0
175 197 0
168 192 0
171 194 0
174 197 0
173 195 0
171 194 0
171 194 0
175 197 0
173 197 0
168 191 0
170 194 0
169 192 0
173 196 0
172 195 0
173 196 0
171 194 0
171 194 0
172 195 0
170 192 0
170 192 25
173 195 57
176 197 67
178 200 72
176 198 72
178 200 88
178 200 84
178 201 76
179 200 95
180 201 88
177 199 72
178 200 76
174 197 84
180 202 92
175 197 72
177 198 57
178 199 67
176 198 67
177 199 84
177 199 84
180 201 102
178 200 84
179 200 88
180 201 117
183 203 108
178 199 108
180 201 111
179 200 102
181 201 102
180 201 117
181 201 128
182 202 95
175 196 88
183 202 108
180 201 130
176 196 99
176 197 95
178 199 102
181 201 102
177 197 80
173 195 92
179 200 117
178 198 99
175 195 114
179 200 111
175 195 95
171 191 72
172 192 84
170 192 72
172 192 72
174 195 80
165 186 72
172 193 67
170 192 76
167 188 80
169 190 92
171 194 80
171 192 84
162 184 44
162 184 25
160 180 36
163 184 0
163 183 0
163 185 0
161 182 0
159 181 0
159 179 0
150 171 0
158 180 0
159 179 0
156 177 0
161 182 0
155 176 0
154 175 0
158 178 0
155 175 0
158 180 0
157 178 0
154 174 0
159 180 0
161 183 0
163 184 44
161 181 36
165 187 44
162 183 25
172 193 72
164 185 76
162 183 25
153 175 0
167 189 0
159 181 0
163 185 0
163 186 0
159 180 0
157 178 0
158 179 0
162 183 0
157 178 0
156 178 0
161 182 0
155 177 0
149 171 0
161 183 0
150 172 0
147 168 0
155 176 0
155 177 0
155 178 0
147 168 0
152 174 0
154 176 0
154 176 0
150 171 0
145 167 0
153 175 0
139 160 0
150 172 0
144 165 0
145 165 0
145 167 0
136 157 0
141 161 0
142 162 0
127 147 0
140 161 0
136 158 0
133 154 0
139 158 0
132 153 0
132 153 0
136 155 0
122 142 0
128 146 0
118 136 0
131 150 0
118 138 0
109 128 0
120 139 0
109 126 0
101 119 0
63 88 65
43 71 47
48 76 60
48 76 62
48 77 60
46 74 65
51 81 72
50 79 88
51 82 72
49 78 84
51 81 76
50 80 72
52 82 90
48 77 74
52 82 78
52 82 84
50 79 86
51 81 78
49 79 78
49 79 92
49 79 86
50 80 60
52 82 78
51 81 72
53 84 84
54 85 92
51 81 80
50 79 82
52 83 72
49 78 70
51 82 84
53 83 72
49 78 84
51 81 83
52 82 86
47 75 74
49 77 81
49 77 89
49 77 78
47 75 72
50 79 80
49 78 72
46 73 79
47 74 63
47 74 76
48 76 84
46 72 63
44 70 65
41 65 70
46 70 72
81 93 32
93 106 0
101 113 0
111 125 0
108 120 0
114 127 0
104 117 0
111 124 0
108 121 0
106 121 0
115 129 0
107 118 0
112 128 0
118 133 0
106 120 0
114 129 0
104 117 0
121 138 0
117 131 0
132 145 0
130 146 0
113 130 0
127 140 0
131 144 0
125 139 0
118 132 0
117 130 0
139 154 0
124 133 0
128 139 0
136 149 0
119 132 0
134 145 0
128 138 0
123 134 0
120 128 0
135 145 0
124 136 0
123 132 0
120 127 0
125 132 0
121 131 0
119 127 0
135 141 0
123 132 0
124 130 0
122 129 0
131 137 0
128 133 0
122 129 0
139 144 0
131 139 0
123 128 0
105 103 11
75 68 0
72 66 0
74 71 0
79 74 11
84 78 11
86 80 16
90 84 11
95 90 0
75 70 8
95 90 0
90 83 0
84 80 0
93 89 0
110 104 0
103 98 0
99 93 8
93 87 0
105 100 0
102 96 11
103 97 8
108 103 0
110 105 0
102 97 0
112 105 8
115 109 11
109 104 0
114 108 0
115 108 0
116 112 0
112 106 0
116 111 16
116 111 3
129 123 11
105 100 11
115 109 0
115 110 0
123 119 16
122 116 0
119 114 11
120 115 19
128 121 19
121 115 11
122 118 16
119 112 11
117 112 11
123 118 28
121 116 16
128 122 25
121 116 11
126 121 0
129 124 11
136 129 25
119 114 19
130 123 25
126 121 16
119 112 19
132 127 25
131 125 28
126 120 30
138 133 28
127 122 19
133 128 32
131 124 25
138 130 36
135 128 30
126 121 19
122 115 22
141 136 28
122 117 36
137 130 30
139 133 36
119 114 22
133 128 30
141 137 32
139 133 47
132 126 22
137 131 34
131 125 25
141 134 36
134 127 37
129 124 32
136 129 36
134 128 28
131 125 34
131 126 28
130 124 32
129 123 36
128 123 36
140 135 36
133 128 25
138 132 36
127 122 30
139 133 39
135 129 41
138 133 37
138 132 37
135 128 39
130 125 30
127 121 36
129 124 32
136 131 42
125 119 32
126 120 42
133 126 44
144 137 42
138 131 45
138 132 41
134 129 41
127 121 45
143 134 52
134 127 41
131 125 41
129 123 44
138 130 42
129 125 36
123 118 41
136 130 48
125 119 47
139 133 44
128 121 41
130 125 37
173 197 0
173 197 0
173 196 0
172 195 0
175 198 0
171 195 0
170 194 0
174 197 36
171 194 0
173 196 0
168 192 0
173 196 0
172 194 0
173 195 0
171 195 0
172 195 0
174 197 0
174 197 0
174 197 0
174 197 0
172 195 0
173 196 0
168 191 0
175 198 0
173 195 0
174 197 0
172 195 0
174 196 0
174 197 0
175 197 0
174 196 0
170 193 0
172 194 0
169 193 0
171 194 0
171 194 0
172 194 0
173 195 0
173 196 0
176 198 25
175 197 51
173 195 67
177 198 62
177 199 76
177 199 80
178 200 67
178 200 88
175 197 72
177 199 67
178 199 76
181 202 84
177 199 84
182 202 95
175 196 80
175 196 76
171 194 84
175 198 57
178 200 76
175 197 76
174 196 51
177 198 84
178 198 76
175 196 67
175 196 80
179 199 88
175 195 72
177 198 88
179 199 105
173 194 67
179 200 95
173 195 92
180 200 80
174 195 84
175 196 72
174 194 72
167 188 44
171 193 80
174 195 80
169 190 57
170 191 84
167 188 51
172 193 72
170 191 80
174 196 88
173 194 95
178 198 76
170 190 76
173 194 76
172 192 67
170 191 57
169 189 76
159 180 44
164 185 36
159 180 25
163 184 0
163 185 0
159 180 0
159 180 0
161 182 0
163 185 0
157 178 0
158 179 0
165 185 0
154 175 0
157 180 0
155 177 0
158 178 0
164 184 0
161 183 0
162 183 0
159 179 0
161 182 0
160 181 0
157 178 0
157 178 36
166 187 25
165 186 25
169 189 72
163 185 25
171 192 57
159 179 57
162 184 0
157 179 0
158 179 0
153 174 0
164 185 0
157 178 0
162 184 0
157 179 0
153 174 0
154 176 0
157 178 0
159 181 0
148 170 0
158 179 0
153 176 0
159 181 0
154 175 0
156 177 0
148 170 0
154 176 0
158 180 0
151 172 0
150 172 0
151 173 0
144 165 0
150 171 0
149 172 0
143 164 0
153 176 0
141 162 0
150 172 0
139 159 0
136 158 0
143 164 0
138 160 0
133 154 0
131 152 0
140 160 0
136 157 0
143 163 0
137 156 0
135 155 0
126 148 0
143 163 0
127 146 0
124 143 0
124 143 0
115 133 0
113 132 0
114 132 0
122 140 0
116 134 0
112 129 0
112 130 0
93 110 0
77 96 47
54 79 67
48 76 74
48 76 72
50 79 76
48 78 80
49 78 76
48 77 62
47 75 80
49 78 70
48 77 78
48 77 74
51 81 84
49 79 74
51 80 67
51 80 80
50 80 80
50 80 70
51 81 86
52 83 78
49 79 78
52 82 82
50 80 82
48 78 51
48 77 78
47 74 74
48 76 76
49 79 82
50 79 84
49 78 76
47 75 74
50 79 90
47 75 72
48 78 62
53 83 92
50 79 86
47 74 65
48 76 60
47 75 75
41 66 68
47 75 78
47 74 62
47 74 80
44 70 76
43 68 65
38 61 60
48 70 57
82 94 18
100 113 0
81 94 0
96 109 0
96 107 0
93 108 0
105 118 0
108 120 0
102 115 0
103 116 0
109 120 0
119 133 0
109 120 0
120 134 0
114 127 0
118 133 0
120 134 0
108 121 0
120 132 0
114 127 0
117 132 0
114 128 0
117 131 0
111 123 0
125 139 0
126 140 0
127 138 0
123 135 0
120 132 0
118 129 0
127 141 0
114 126 0
118 130 0
121 133 0
122 134 0
117 127 0
123 136 0
123 132 0
129 140 0
124 133 0
122 134 0
124 131 0
120 131 0
129 137 0
129 137 0
122 128 0
123 131 0
125 133 0
119 125 0
122 127 0
124 129 0
126 129 0
121 124 0
117 121 0
119 123 0
121 128 0
115 117 0
83 77 16
89 83 16
85 79 19
70 63 0
89 83 11
85 78 11
93 86 11
95 86 0
73 68 0
95 90 0
79 74 0
89 81 0
103 97 0
100 96 11
95 90 0
102 95 8
93 86 0
97 91 0
102 97 0
110 105 8
106 99 0
118 110 0
110 103 0
113 107 8
104 99 0
111 104 0
104 99 8
110 104 0
115 109 11
108 103 0
116 109 11
106 100 0
114 109 11
113 108 14
117 111 0
114 106 0
116 111 11
118 112 0
118 114 11
123 117 11
123 118 0
120 115 11
119 114 0
123 118 16
122 116 11
118 112 0
114 109 11
121 117 0
125 117 22
132 126 28
132 125 16
121 115 11
125 120 19
121 115 19
128 122 25
129 122 22
128 121 16
131 125 16
131 125 28
133 128 25
127 122 28
133 128 28
132 126 28
138 131 39
137 131 36
135 130 34
127 121 32
128 123 22
132 125 34
134 128 25
143 135 41
135 130 25
132 124 28
127 122 25
136 131 32
131 123 42
128 122 30
129 122 34
130 125 25
131 125 30
133 127 34
134 127 34
127 121 32
129 123 41
136 132 32
131 124 36
136 130 34
136 130 45
140 134 42
141 135 34
137 130 42
139 133 34
133 127 41
130 124 32
130 123 39
129 123 37
131 126 39
132 126 32
134 126 41
133 128 36
126 120 32
139 133 45
139 133 39
136 129 44
127 122 39
129 123 44
130 124 34
126 120 39
129 123 39
135 129 32
131 125 36
118 114 30
141 135 41
135 128 41
129 124 47
131 125 45
133 127 49
131 126 36
133 127 42
132 126 42
174 197 0
172 196 0
171 194 0
173 196 0
175 198 0
173 196 0
173 196 0
173 196 0
172 196 0
172 195 0
173 197 0
171 195 0
174 197 0
174 196 0
170 194 0
173 197 0
175 197 0
172 195 0
171 194 0
171 194 0
171 194 0
171 194 0
174 195 0
173 195 0
170 193 0
171 193 0
171 194 0
169 193 0
170 192 0
172 194 0
171 195 0
173 196 0
169 192 0
169 192 0
170 192 0
173 196 0
172 194 0
169 192 0
172 195 0
174 196 0
175 197 0
168 191 0
173 196 0
172 195 36
174 196 25
173 196 51
173 194 51
173 196 76
172 194 72
174 196 72
176 197 67
176 198 57
176 198 76
178 200 80
174 196 67
179 200 95
171 194 67
178 199 95
175 195 72
176 196 80
175 198 76
175 196 92
168 190 57
172 193 84
176 197 92
178 199 57
172 193 88
177 197 76
170 192 67
169 192 72
173 194 76
175 197 76
171 193 67
173 193 57
178 199 99
172 194 67
176 197 102
170 191 92
174 195 62
169 190 62
172 193 62
171 192 80
171 192 80
167 188 80
170 191 88
174 195 62
166 187 44
167 189 25
166 188 25
164 186 0
159 180 0
163 184 0
161 182 0
162 183 0
162 183 0
164 185 0
163 184 0
162 183 0
158 179 0
156 177 0
160 180 0
159 180 0
156 177 0
157 177 0
161 181 0
161 182 0
158 179 0
161 183 0
155 176 0
159 179 0
161 182 25
160 180 0
160 181 0
167 187 62
164 184 0
160 181 36
164 184 36
167 188 57
170 191 84
164 186 0
160 181 0
162 184 0
155 177 0
155 177 0
159 180 0
160 181 0
161 183 0
161 183 0
153 173 0
153 174 0
152 174 0
155 176 0
152 173 0
156 177 0
156 178 0
160 181 0
152 174 0
155 176 0
160 181 0
158 179 0
149 169 0
154 175 0
146 167 0
148 168 0
150 172 0
148 169 0
147 168 0
151 171 0
148 171 0
143 165 0
150 172 0
139 159 0
140 161 0
146 167 0
138 159 0
133 154 0
141 163 0
133 153 0
134 154 0
131 151 0
134 153 0
130 149 0
135 154 0
132 151 0
127 147 0
131 151 0
122 142 0
122 141 0
110 129 0
115 133 0
121 139 0
110 129 0
104 122 0
110 127 0
118 135 0
98 114 0
99 115 0
95 112 0
93 110 31
49 75 67
46 74 60
43 69 51
45 74 44
47 75 62
49 78 82
47 75 60
46 74 65
46 73 62
46 74 65
50 78 84
47 75 65
49 78 70
46 74 67
47 76 76
47 76 62
45 73 62
51 81 84
49 78 78
46 74 60
48 77 76
48 76 80
49 79 80
46 74 80
49 78 90
48 77 67
44 71 60
51 80 80
48 76 65
46 72 67
49 77 82
49 78 65
45 71 67
45 72 78
44 71 51
46 73 74
48 75 86
45 71 60
45 70 57
41 66 47
42 67 54
54 77 71
67 82 36
72 85 18
79 93 0
89 101 0
93 104 0
93 105 0
93 104 0
99 112 0
98 109 0
95 107 0
109 122 0
107 118 0
104 117 0
96 106 0
112 123 0
98 113 0
113 126 0
108 121 0
105 118 0
108 120 0
117 128 0
113 127 0
107 120 0
117 129 0
117 130 0
121 136 0
125 138 0
124 134 0
126 137 0
123 137 0
124 135 0
116 126 0
121 132 0
114 124 0
112 122 0
114 128 0
127 138 0
123 134 0
128 140 0
124 134 0
125 132 0
112 118 0
126 136 0
121 128 0
118 128 0
119 129 0
129 139 0
115 122 0
123 134 0
121 126 0
122 127 0
120 126 0
124 129 0
118 124 0
123 128 0
116 120 0
110 114 0
124 125 0
120 122 0
122 126 0
106 104 19
81 76 19
80 74 11
85 78 11
78 72 12
89 82 11
94 85 16
89 83 0
88 82 0
82 77 0
99 92 0
84 76 0
96 88 0
91 85 0
99 93 0
84 81 0
106 99 0
87 81 8
106 99 11
103 98 0
104 97 11
99 94 0
109 104 0
101 94 0
110 102 0
109 103 0
106 101 0
114 110 0
115 108 0
111 106 0
108 102 0
112 104 11
113 108 0
115 108 0
114 111 0
114 109 0
117 113 0
114 109 0
120 114 0
115 109 0
119 114 11
126 120 11
128 122 11
126 118 11
107 102 0
119 114 0
125 118 11
124 117 11
130 124 16
121 116 25
126 119 25
120 115 11
125 118 22
119 112 16
120 113 19
123 117 19
127 121 28
131 126 22
127 121 16
135 128 32
132 125 25
132 126 25
132 126 19
134 128 25
133 128 22
125 120 22
125 118 19
134 130 34
129 122 22
145 137 34
130 124 25
127 120 19
131 125 37
129 124 22
129 124 25
129 123 30
128 122 28
128 121 25
139 132 34
136 130 32
133 126 32
140 134 42
134 127 32
129 125 22
134 127 36
131 125 30
132 126 36
135 130 32
130 125 22
138 133 36
133 129 34
141 133 36
136 129 37
134 127 41
137 132 45
125 119 34
135 130 36
131 125 32
132 127 36
132 125 44
136 129 42
125 121 30
135 129 37
125 120 22
136 129 42
130 125 36
132 126 39
140 133 41
138 129 49
126 119 44
135 130 39
117 112 25
133 128 44
120 117 30
126 120 49
127 122 47
123 116 39
133 127 37
128 122 47
176 199 51
172 195 0
173 197 0
173 196 0
173 196 25
173 197 0
170 194 0
173 197 0
173 196 0
168 191 0
176 198 0
173 197 25
173 196 0
173 196 0
171 194 0
171 194 0
175 197 0
172 195 0
173 196 0
170 194 0
173 196 0
171 194 0
174 197 0
171 194 0
172 195 0
174 196 0
174 196 0
170 192 0
172 195 0
173 195 0
172 195 0
172 194 0
175 198 0
174 196 0
173 196 0
174 196 0
171 193 0
170 192 0
171 193 0
171 194 0
173 196 0
171 193 0
173 196 0
171 193 0
170 192 0
169 191 0
170 192 0
172 194 0
171 193 0
171 193 25
169 191 25
175 197 44
176 197 51
175 197 57
177 198 76
176 198 72
175 196 67
174 195 67
176 197 72
173 195 57
176 197 80
175 195 72
174 196 72
172 193 80
175 196 67
174 195 84
176 197 80
173 194 57
178 199 80
177 198 84
176 197 105
174 195 80
174 195 84
174 195 72
173 194 67
171 191 62
176 197 95
175 196 76
166 188 67
167 188 36
165 187 36
166 188 57
171 191 51
165 187 0
162 183 0
163 184 0
169 190 0
162 183 0
163 185 0
160 181 0
167 188 0
163 184 0
166 188 0
168 190 0
166 188 0
161 183 0
170 192 0
165 186 0
160 181 0
163 183 0
166 186 0
163 184 0
164 185 0
158 178 0
161 182 0
167 187 25
159 180 0
161 181 0
167 188 0
159 180 0
159 180 36
161 182 36
168 188 62
160 181 51
166 188 51
168 189 57
166 186 62
167 188 36
161 182 0
154 174 0
161 181 0
166 187 0
155 176 0
159 180 0
159 180 0
157 179 0
158 178 0
157 177 0
151 173 0
158 179 0
164 185 0
149 170 0
150 171 0
156 178 0
148 169 0
153 173 0
155 176 0
151 173 0
164 186 0
148 169 0
150 172 0
148 170 0
145 167 0
148 170 0
149 171 0
137 158 0
150 171 0
145 165 0
145 166 0
139 160 0
145 166 0
146 167 0
142 163 0
141 161 0
140 161 0
146 166 0
129 149 0
129 151 0
134 156 0
138 158 0
139 159 0
128 147 0
129 149 0
137 158 0
127 146 0
122 141 0
121 139 0
118 137 0
124 143 0
124 144 0
128 146 0
92 109 0
111 130 0
114 132 0
95 112 0
113 129 0
101 118 0
104 121 0
97 111 0
95 109 0
81 97 18
64 84 36
52 77 62
48 76 74
46 73 74
47 76 60
45 71 57
50 79 76
46 74 72
46 74 60
48 77 76
44 71 57
44 71 60
49 78 72
48 77 57
50 80 72
44 71 60
46 74 60
48 76 72
48 76 62
47 76 75
48 76 82
44 71 70
46 73 70
48 77 76
47 74 84
47 75 72
44 70 67
47 75 60
45 72 62
44 71 62
44 69 62
40 65 62
45 72 62
44 70 63
40 63 60
44 70 67
48 74 77
55 71 40
66 78 25
82 90 0
83 94 0
97 109 0
85 96 0
86 97 0
97 110 0
83 94 0
91 103 0
84 98 0
94 104 0
95 108 0
102 116 0
110 123 0
98 109 0
102 115 0
98 109 0
105 115 0
106 118 0
128 143 0
121 134 0
118 129 0
116 128 0
116 131 0
112 125 0
106 117 0
132 144 0
120 133 0
123 135 0
117 131 0
111 124 0
119 130 0
119 132 0
116 126 0
116 126 0
114 124 0
130 140 0
113 123 0
120 130 0
121 131 0
121 129 0
116 125 0
119 129 0
120 128 0
133 143 0
113 119 0
119 128 0
135 142 0
123 129 0
127 136 0
124 127 0
121 129 0
120 126 0
121 127 0
110 113 0
116 122 0
116 122 0
119 121 0
111 115 0
112 113 0
123 127 0
124 126 0
109 112 0
107 109 0
96 90 16
88 81 11
69 63 14
87 78 19
88 81 19
82 73 8
87 80 0
93 86 0
84 80 11
91 86 0
91 85 11
92 85 0
92 87 0
98 91 8
98 92 0
110 101 0
98 92 0
100 94 0
90 83 0
100 94 0
103 96 0
89 85 0
94 89 0
111 106 0
102 97 0
97 92 0
111 105 0
107 99 0
112 106 0
114 108 8
116 110 0
116 109 0
117 113 11
114 107 0
106 98 0
112 105 11
119 113 11
118 112 11
121 115 11
122 116 0
125 118 0
119 112 11
119 113 11
126 120 22
123 116 25
123 117 11
123 115 19
119 113 11
128 122 0
119 112 28
126 119 16
116 109 11
124 120 22
116 109 11
128 122 16
125 118 19
128 123 16
125 120 25
128 122 16
129 122 28
128 121 37
132 126 11
122 116 22
132 127 22
124 115 19
129 123 25
118 113 28
134 128 22
137 130 32
129 124 41
132 126 28
137 129 32
131 124 30
129 122 19
136 130 28
118 113 32
129 124 32
136 129 19
139 132 36
142 136 41
131 124 30
121 114 22
132 127 37
126 120 22
137 129 39
137 130 28
136 129 34
137 130 45
131 125 34
130 125 36
137 129 36
125 120 32
130 125 37
131 124 42
131 124 39
132 125 36
138 132 39
128 122 39
121 116 25
136 131 34
123 117 36
127 122 36
137 130 41
125 119 32
132 127 32
135 128 47
138 132 39
134 129 30
126 120 30
122 116 25
129 122 42
123 118 42
129 123 39
142 135 45
119 113 39
126 120 42
133 125 47
174 197 57
176 198 36
175 198 36
174 197 0
173 196 0
173 196 25
174 197 25
172 195 0
174 197 0
172 195 0
170 193 0
175 197 25
173 196 0
169 193 0
171 194 0
174 197 0
173 197 0
173 196 0
173 196 0
173 195 0
171 194 0
174 196 0
175 197 0
173 196 0
169 191 0
174 196 0
171 194 0
173 196 0
168 192 0
172 195 0
170 192 0
173 196 0
174 196 0
175 197 0
168 190 0
172 194 0
171 193 0
169 191 0
173 195 0
171 193 0
173 195 0
168 191 0
170 193 0
172 194 0
171 194 0
172 193 0
172 193 0
172 194 0
173 195 0
173 195 0
172 194 0
173 195 0
171 191 0
168 191 0
171 194 0
173 195 0
169 191 0
169 192 25
167 190 44
169 191 51
174 195 67
170 192 57
169 190 36
171 192 25
171 193 62
172 193 62
175 195 51
172 193 44
171 192 36
176 197 67
172 194 57
171 192 44
172 193 44
174 195 25
171 193 36
169 191 25
166 187 0
162 184 0
172 193 0
166 188 0
168 188 0
167 188 0
162 184 0
160 182 0
164 186 0
165 185 0
163 185 0
164 186 0
164 185 0
166 187 0
159 180 0
166 187 0
162 183 0
164 185 0
164 185 0
166 187 0
166 187 0
161 182 0
160 181 0
159 179 0
159 178 0
158 179 0
160 181 0
160 181 0
166 187 25
154 176 0
163 184 0
162 183 0
164 184 0
157 178 25
160 180 51
169 190 51
167 188 0
167 189 51
170 191 67
168 188 51
160 180 0
157 179 0
157 178 0
167 189 0
170 191 0
154 175 0
157 178 0
161 182 0
156 178 0
159 180 0
154 176 0
163 184 0
161 182 0
152 173 0
157 178 0
157 178 0
159 180 0
153 174 0
157 178 0
155 177 0
156 176 0
150 172 0
153 174 0
145 166 0
151 173 0
143 165 0
150 172 0
149 170 0
154 175 0
146 168 0
152 174 0
141 162 0
144 166 0
149 170 0
145 165 0
148 169 0
146 167 0
136 156 0
143 163 0
143 163 0
133 154 0
135 156 0
130 150 0
138 158 0
124 144 0
129 150 0
130 150 0
136 156 0
125 143 0
126 145 0
125 144 0
121 140 0
130 148 0
122 140 0
107 125 0
116 133 0
109 125 0
106 123 0
120 137 0
100 116 0
105 122 0
86 100 0
100 116 0
95 111 0
86 101 0
83 96 0
75 87 0
81 96 36
53 73 47
45 69 36
47 75 65
42 69 57
46 75 72
45 72 70
45 72 57
41 66 51
44 71 60
44 71 54
45 73 70
48 76 67
45 71 62
43 69 60
45 71 67
46 74 65
46 74 62
46 73 57
47 74 67
46 73 74
47 74 57
45 72 62
46 73 60
44 70 65
43 69 54
42 67 60
46 73 67
47 74 82
40 64 57
39 63 44
44 67 47
42 61 31
44 60 40
73 82 0
74 84 0
76 84 0
88 98 0
78 86 0
78 90 0
79 90 0
85 97 0
88 101 0
97 108 0
91 103 0
107 119 0
97 109 0
83 94 0
97 107 0
112 123 0
105 119 0
93 105 0
109 121 0
112 123 0
98 113 0
102 114 0
107 120 0
103 117 0
106 118 0
106 119 0
104 116 0
103 114 0
121 132 0
110 122 0
115 127 0
109 119 0
122 135 0
109 121 0
121 132 0
114 125 0
119 128 0
113 126 0
114 126 0
119 128 0
118 129 0
125 137 0
123 133 0
118 127 0
110 120 0
117 126 0
110 121 0
125 135 0
111 117 0
122 130 0
123 130 0
109 119 0
108 114 0
112 116 0
111 116 0
109 114 0
120 125 0
121 123 0
122 126 0
104 109 0
111 110 0
116 119 0
113 114 0
112 116 0
115 119 0
109 108 0
113 111 0
97 94 11
94 91 11
92 85 19
82 75 19
81 75 11
85 78 0
84 77 0
83 77 0
95 89 0
94 88 0
102 95 0
90 84 0
98 91 0
104 97 0
93 84 0
87 81 0
105 99 0
93 87 0
95 89 0
107 100 0
108 101 0
101 94 0
109 103 0
103 96 0
108 101 0
111 103 0
107 100 0
117 108 0
107 100 0
108 102 0
116 111 0
106 101 0
113 109 0
104 97 0
122 116 0
120 115 0
108 105 11
113 107 0
121 115 16
113 105 0
116 109 16
118 112 11
131 125 11
118 111 0
127 121 11
125 120 11
126 119 19
127 121 16
121 114 11
127 121 19
126 118 19
130 124 19
116 110 0
129 124 19
124 118 28
125 121 16
130 122 16
131 123 28
128 121 32
131 124 22
121 115 19
131 124 25
133 127 30
133 129 22
129 124 25
126 118 19
132 125 25
123 117 32
133 128 36
134 128 30
132 127 37
130 122 19
123 113 28
132 125 32
126 119 25
132 127 36
128 121 22
129 123 39
129 122 30
137 129 42
134 126 41
133 126 30
134 127 36
133 126 32
128 122 30
131 125 42
133 127 39
134 126 47
135 129 36
130 123 22
128 122 32
117 111 25
129 124 37
120 115 19
133 128 39
127 120 41
129 123 32
121 114 32
132 125 42
133 127 45
118 114 36
127 122 34
135 128 39
131 124 34
133 127 44
125 120 39
135 128 44
130 122 36
128 121 39
139 133 44
132 125 37
129 122 48
133 127 44
122 116 36
121 114 28
130 124 39
175 198 25
175 198 36
176 199 44
175 199 62
173 196 0
174 197 0
173 197 0
174 197 0
171 195 0
173 196 25
172 195 0
173 196 0
173 196 0
174 197 25
172 196 0
171 193 0
173 196 0
172 196 0
174 197 0
175 198 0
174 197 0
175 197 25
172 194 0
173 196 0
170 194 0
172 195 0
169 192 0
174 195 0
170 194 0
171 193 0
172 194 0
167 190 0
173 196 0
171 193 0
171 193 0
173 196 0
171 193 0
172 195 0
173 195 0
172 195 0
170 191 0
164 188 0
172 195 0
173 195 0
167 190 0
171 193 0
171 193 0
170 191 0
168 190 0
173 194 0
170 192 0
172 194 0
171 193 0
172 194 0
169 190 0
167 189 0
170 193 0
167 190 0
171 193 0
170 191 0
170 191 0
166 188 0
171 193 0
165 187 0
167 188 0
172 193 0
169 191 0
168 189 0
166 187 0
165 187 0
165 186 0
165 187 0
166 187 0
168 190 0
165 187 0
167 188 0
166 187 0
164 186 0
171 192 0
170 191 0
166 187 0
166 188 0
162 183 0
162 183 0
166 187 0
167 188 0
167 189 0
164 186 0
168 189 25
165 186 0
159 181 0
168 188 0
161 183 0
165 186 0
162 183 0
158 180 0
158 181 0
157 177 0
154 175 0
168 190 0
165 187 0
163 185 0
159 180 0
165 185 0
157 178 0
160 181 0
155 177 0
163 183 25
168 189 36
160 180 57
157 178 51
162 184 25
174 194 80
162 182 80
165 186 25
164 186 0
155 176 0
160 181 0
158 178 0
159 180 0
152 172 0
157 178 0
165 186 0
159 179 0
153 175 0
149 171 0
151 173 0
159 179 0
157 178 0
152 173 0
157 178 0
151 172 0
150 171 0
152 173 0
151 172 0
150 171 0
155 177 0
148 168 0
150 171 0
145 167 0
154 174 0
145 167 0
151 172 0
152 174 0
155 175 0
148 170 0
142 163 0
143 164 0
141 163 0
138 160 0
142 163 0
141 162 0
138 159 0
134 156 0
141 162 0
138 159 0
142 162 0
134 154 0
124 144 0
125 145 0
130 150 0
125 144 0
123 142 0
130 150 0
124 143 0
122 141 0
123 142 0
115 134 0
115 133 0
122 141 0
113 130 0
120 137 0
106 124 0
105 121 0
93 108 0
118 134 0
94 109 0
104 119 0
106 122 0
88 102 0
97 110 0
82 95 0
85 99 0
69 83 0
92 104 0
60 72 0
60 73 0
50 68 40
40 61 44
40 65 60
43 69 60
41 67 40
44 70 67
46 74 62
39 64 36
47 75 60
42 67 44
44 70 62
47 74 74
44 71 36
46 72 82
45 71 60
44 71 60
44 70 65
40 65 54
39 62 36
44 70 62
43 67 60
41 66 60
43 67 62
44 67 47
41 62 47
51 68 44
49 61 25
52 61 18
61 72 0
52 61 0
75 84 0
74 83 0
83 94 0
80 91 0
88 100 0
87 100 0
82 92 0
89 101 0
95 108 0
95 108 0
85 95 0
94 106 0
101 113 0
89 102 0
94 105 0
104 115 0
107 119 0
98 109 0
87 98 0
103 114 0
103 116 0
114 128 0
104 115 0
107 119 0
94 107 0
106 121 0
115 129 0
115 128 0
108 120 0
121 134 0
116 128 0
123 136 0
116 127 0
116 126 0
124 136 0
127 139 0
113 123 0
120 129 0
119 129 0
125 136 0
115 125 0
114 124 0
120 134 0
116 127 0
124 134 0
114 121 0
120 131 0
112 122 0
117 122 0
118 127 0
109 119 0
101 107 0
117 124 0
115 123 0
114 120 0
118 125 0
130 135 0
122 128 0
117 121 0
117 121 0
104 107 0
105 108 0
107 109 0
116 118 0
110 112 0
95 91 0
113 115 0
105 107 0
106 107 0
99 94 0
88 82 16
71 64 0
85 76 0
82 74 0
87 80 0
86 80 11
99 89 16
83 78 0
80 71 0
99 91 11
95 88 0
94 86 0
102 95 0
103 96 0
86 80 0
112 105 0
108 100 0
101 94 0
103 94 0
106 99 0
96 90 0
105 101 0
98 91 0
107 99 0
120 112 0
101 97 0
109 103 0
111 102 0
112 106 0
108 101 0
114 109 11
118 111 11
104 97 11
118 113 0
113 104 0
115 110 16
115 109 11
123 118 0
121 114 16
115 109 11
115 109 19
121 116 0
120 114 0
118 112 0
111 105 11
123 115 16
122 115 11
113 107 11
126 118 22
124 118 22
125 119 22
123 116 16
119 114 16
130 124 16
123 116 16
119 113 16
132 125 19
128 121 22
122 115 16
130 122 30
130 125 28
126 118 25
128 121 28
118 112 19
130 121 16
132 126 32
129 123 28
131 124 28
128 120 30
130 124 25
131 124 28
130 124 22
129 122 25
136 127 36
124 118 32
123 118 32
139 134 28
122 116 16
132 125 28
135 129 39
130 123 39
132 126 34
120 114 28
122 116 36
129 122 37
129 122 44
136 130 28
128 121 34
129 122 32
129 124 37
131 125 39
131 124 44
136 130 39
126 121 36
124 117 36
134 127 39
126 120 32
132 125 37
129 121 39
123 117 36
126 120 44
138 131 48
137 129 45
128 120 39
132 126 39
129 122 49
122 118 28
136 129 41
126 120 32
119 112 36
116 112 37
121 115 36
132 127 44
175 199 44
173 197 44
172 195 44
171 196 44
177 199 36
174 197 36
175 198 36
171 195 0
175 198 0
171 195 0
172 195 0
172 195 0
174 197 0
171 195 0
171 194 0
173 197 0
172 196 0
172 195 0
169 193 0
174 197 0
174 195 0
173 196 0
176 198 0
170 192 0
171 194 0
169 191 0
173 195 25
172 195 0
171 193 0
171 194 0
173 196 0
169 191 0
173 196 0
171 194 0
172 194 0
167 190 0
174 196 0
166 189 0
175 197 0
168 191 0
172 194 0
170 192 0
174 196 0
171 193 0
168 190 0
174 196 0
172 194 0
171 193 0
174 196 0
173 194 0
169 191 0
168 191 0
170 191 0
171 193 0
174 195 0
175 196 0
163 185 0
165 186 0
169 190 0
172 193 0
171 192 0
170 191 0
164 186 0
171 192 0
168 190 0
174 195 0
167 190 0
167 187 0
168 189 0
165 187 0
163 185 0
169 190 0
167 188 0
166 187 0
169 189 0
168 190 0
165 187 0
169 191 0
165 187 0
157 178 0
160 182 0
163 184 0
160 181 0
162 183 0
161 182 0
170 190 0
166 187 0
161 181 0
164 185 0
162 182 0
166 186 0
161 183 0
159 180 0
163 184 0
168 188 0
158 179 0
160 181 0
170 190 0
156 177 0
164 185 25
162 183 0
165 186 0
162 183 0
161 182 25
160 181 25
166 186 0
165 185 57
164 185 44
172 193 62
166 187 51
165 186 76
164 184 44
160 181 25
162 184 0
163 185 0
161 182 0
160 181 0
162 183 0
160 181 0
162 184 0
154 175 0
158 179 0
160 182 0
152 172 0
155 176 0
157 178 0
149 170 0
154 176 0
150 172 0
152 173 0
153 174 0
159 180 0
154 175 0
151 173 0
155 176 0
153 175 0
146 166 0
147 169 0
153 174 0
155 176 0
144 165 0
151 173 0
143 164 0
151 172 0
138 158 0
141 162 0
149 170 0
143 165 0
136 157 0
140 161 0
155 176 0
141 162 0
147 169 0
146 167 0
143 164 0
134 154 0
137 156 0
142 162 0
128 148 0
135 155 0
122 140 0
131 150 0
120 140 0
135 154 0
124 144 0
112 130 0
120 138 0
125 145 0
114 133 0
106 124 0
111 130 0
125 143 0
119 136 0
114 130 0
93 109 0
111 129 0
101 116 0
104 121 0
100 116 0
93 108 0
94 109 0
90 104 0
94 107 0
81 95 0
93 106 0
84 97 0
61 71 0
67 77 0
69 80 0
63 74 0
56 67 18
64 77 44
53 69 40
45 62 25
35 57 47
35 57 47
45 68 47
36 59 47
40 64 62
37 60 54
40 63 47
40 64 62
40 65 57
39 63 36
38 57 31
36 57 36
35 51 40
31 50 44
56 69 36
46 54 0
52 61 0
68 79 0
55 64 0
63 72 0
67 77 0
73 82 0
71 80 0
78 88 0
73 83 0
72 83 0
80 89 0
82 92 0
88 99 0
83 95 0
81 90 0
94 105 0
91 103 0
90 102 0
98 110 0
101 112 0
107 120 0
97 109 0
109 121 0
103 113 0
107 118 0
102 116 0
101 113 0
101 115 0
108 122 0
109 124 0
120 133 0
105 118 0
118 132 0
113 127 0
109 122 0
111 125 0
114 125 0
117 130 0
127 141 0
117 128 0
119 131 0
111 124 0
108 120 0
118 129 0
118 127 0
115 126 0
117 129 0
115 126 0
117 127 0
114 123 0
105 113 0
108 117 0
120 127 0
125 134 0
127 138 0
110 118 0
121 129 0
117 126 0
120 126 0
116 123 0
109 118 0
108 113 0
107 111 0
112 118 0
107 110 0
117 121 0
107 111 0
109 112 0
104 107 0
109 109 0
106 108 0
111 114 0
107 107 0
88 89 0
98 99 0
96 95 0
104 100 0
93 90 11
91 85 11
90 83 11
85 77 11
84 77 11
60 53 11
78 71 11
85 77 0
85 80 14
99 91 0
89 83 0
94 83 0
98 89 0
92 85 0
94 87 0
96 90 0
103 94 0
96 89 0
93 85 0
102 94 0
102 95 0
102 95 0
114 105 0
103 96 0
104 98 0
110 104 0
100 93 0
111 105 0
108 100 0
115 108 0
113 106 0
106 100 11
111 105 11
119 112 0
105 97 11
114 107 0
110 103 0
112 106 11
113 107 0
115 109 0
123 115 11
121 114 0
115 107 0
126 121 16
122 118 11
121 112 16
127 121 11
128 121 19
113 108 19
114 106 11
118 114 11
117 112 0
123 115 19
115 109 11
125 118 19
121 115 22
119 113 16
133 127 19
128 121 22
129 122 19
127 121 28
123 117 22
121 115 25
123 117 22
122 117 19
131 124 32
126 121 28
127 122 30
116 109 25
125 117 30
128 119 30
125 119 28
123 117 22
128 121 22
124 118 30
127 121 16
131 123 22
114 108 28
123 117 34
125 120 28
123 116 30
133 127 30
133 127 36
133 126 32
127 121 25
132 125 37
123 116 34
125 119 30
129 124 36
118 113 22
129 123 36
129 122 32
127 122 28
130 124 39
132 125 37
125 119 32
127 119 37
137 131 45
129 123 32
131 123 28
123 117 34
122 115 37
126 120 28
122 115 41
119 112 36
131 124 42
133 127 39
122 115 42
118 112 42
120 114 36
127 121 41
127 120 42
126 119 41
175 198 44
176 199 62
176 198 57
175 198 36
175 198 44
175 198 57
175 198 51
172 195 62
169 192 0
177 199 57
173 197 0
173 196 0
172 195 25
174 197 0
172 196 25
174 197 0
175 198 0
173 196 0
174 197 36
173 196 0
173 196 0
174 196 0
172 196 0
172 194 0
175 197 0
171 194 0
173 196 0
170 193 0
174 197 0
172 195 0
172 194 0
172 194 0
172 194 0
175 197 0
172 195 0
175 197 0
172 195 0
170 192 0
173 196 0
171 193 25
170 192 0
175 197 0
170 192 0
170 192 0
171 193 0
169 190 0
173 194 0
172 194 0
170 192 0
173 195 0
168 190 0
171 192 0
170 192 0
167 189 0
169 191 0
167 189 0
171 193 0
171 193 0
173 194 0
172 194 0
172 193 0
171 193 0
171 192 0
168 189 0
166 187 0
166 187 0
164 185 0
167 188 0
174 196 0
166 187 0
169 191 0
168 188 0
166 188 0
163 185 0
170 191 0
166 187 0
168 190 0
170 191 0
168 188 0
168 190 0
169 190 0
164 185 0
164 186 0
166 187 0
164 185 0
154 175 0
162 183 0
169 190 0
162 183 0
164 184 0
165 186 25
167 189 0
165 187 0
169 189 0
164 185 0
168 189 25
169 190 0
163 183 0
165 187 0
158 179 0
166 186 0
162 183 0
160 181 25
164 185 62
169 189 51
168 188 62
165 187 36
164 184 36
175 195 80
167 188 62
164 184 0
160 182 0
164 185 0
160 181 0
160 181 0
156 176 0
151 172 0
158 179 0
167 189 0
161 182 0
155 177 0
160 181 0
157 178 0
150 171 0
153 174 0
157 179 0
155 176 0
153 174 0
152 174 0
159 179 0
154 176 0
154 175 0
148 170 0
149 169 0
150 172 0
153 174 0
152 173 0
149 171 0
149 170 0
156 178 0
155 176 0
152 173 0
145 165 0
149 171 0
140 161 0
152 173 0
146 167 0
142 162 0
141 161 0
138 159 0
137 159 0
132 153 0
139 160 0
134 155 0
137 157 0
131 152 0
128 148 0
131 151 0
144 164 0
128 147 0
141 160 0
113 131 0
122 142 0
117 136 0
120 138 0
120 139 0
115 134 0
125 143 0
124 142 0
125 144 0
120 138 0
117 136 0
98 116 0
115 132 0
109 127 0
107 125 0
97 112 0
100 116 0
106 121 0
94 109 0
89 103 0
89 104 0
85 100 0
73 87 0
91 105 0
80 93 0
75 87 0
82 93 0
74 85 0
62 75 0
70 79 0
63 73 0
46 55 0
71 82 0
61 69 0
59 67 0
63 71 0
65 75 0
58 66 0
42 51 25
47 57 25
65 76 0
47 54 0
60 69 0
46 56 0
44 51 0
67 75 0
62 72 0
60 72 0
76 84 0
62 72 0
77 85 0
57 67 0
64 72 0
67 77 0
76 87 0
69 79 0
66 73 0
71 80 0
81 89 0
76 85 0
87 99 0
85 96 0
66 77 0
85 95 0
96 108 0
87 98 0
93 105 0
105 117 0
91 103 0
107 119 0
91 102 0
100 113 0
95 107 0
112 124 0
112 125 0
89 101 0
112 126 0
116 127 0
105 117 0
107 119 0
108 121 0
118 130 0
116 129 0
100 112 0
100 114 0
107 119 0
110 120 0
124 137 0
114 127 0
115 124 0
120 131 0
110 123 0
111 122 0
120 132 0
114 126 0
118 126 0
120 130 0
113 124 0
111 122 0
126 136 0
117 130 0
109 117 0
111 122 0
110 119 0
105 114 0
119 126 0
99 107 0
113 120 0
115 121 0
120 124 0
110 116 0
115 120 0
117 124 0
118 126 0
110 110 0
118 122 0
115 115 0
107 113 0
115 119 0
100 99 0
101 103 0
105 105 0
114 116 0
107 107 0
98 95 0
109 108 0
100 100 0
97 95 0
94 93 0
83 79 0
85 77 16
89 80 0
92 82 11
76 68 0
78 70 0
79 72 0
88 80 0
83 76 11
81 73 0
98 89 0
85 75 0
96 89 0
86 78 0
100 93 0
107 98 0
100 93 0
94 89 0
113 105 0
115 107 0
111 102 0
100 94 0
118 111 0
104 94 0
104 96 0
106 100 0
108 99 0
102 92 0
104 96 0
111 102 0
114 106 0
114 106 0
116 108 11
112 104 0
111 105 11
110 105 11
112 106 0
110 104 11
119 112 0
115 108 16
114 105 0
113 107 11
115 108 0
120 113 22
112 104 0
115 106 0
115 110 11
122 115 19
124 119 16
125 117 11
119 113 11
133 125 19
123 116 19
121 114 0
122 117 11
126 119 11
110 105 16
122 114 28
127 120 28
128 121 28
121 115 16
125 117 16
131 124 19
130 124 22
129 122 28
125 119 25
130 122 19
133 124 30
125 118 25
127 120 30
123 116 30
129 122 22
127 120 32
126 119 25
123 116 22
118 113 30
131 123 30
127 119 34
127 120 37
126 120 28
129 123 30
129 122 37
121 116 22
125 118 36
131 124 37
130 124 36
131 125 36
121 115 25
131 123 34
125 119 32
127 120 39
129 123 30
118 112 28
135 127 42
124 118 22
127 121 42
125 119 30
130 124 36
132 125 37
129 122 32
132 125 47
128 122 39
132 125 39
129 123 44
113 107 34
118 112 34
126 121 39
115 109 22
118 111 37
119 112 32
176 199 62
175 198 25
176 199 51
175 198 25
176 199 36
176 198 36
174 196 51
173 196 51
176 199 51
173 195 25
176 199 57
173 196 25
174 197 0
172 195 0
173 196 0
173 196 0
173 196 0
173 195 25
169 192 0
174 197 25
171 194 0
175 198 25
175 197 25
173 195 25
172 194 0
174 196 0
171 193 0
175 198 0
172 195 0
171 194 0
171 194 0
171 194 0
171 194 0
174 196 0
173 195 0
172 195 0
171 194 0
173 194 0
174 197 0
175 196 0
170 192 0
172 195 0
169 191 0
174 196 0
175 197 0
172 194 0
172 193 0
171 193 0
168 190 0
171 192 0
170 192 0
170 192 0
171 193 0
172 194 0
171 193 0
172 195 0
168 190 0
167 189 0
168 190 0
173 194 0
171 193 0
168 189 0
172 193 0
169 191 0
168 189 0
170 190 0
171 193 0
169 190 0
172 194 0
166 188 0
170 192 0
167 188 0
167 189 0
168 189 0
167 189 0
166 187 0
166 186 0
167 188 0
171 193 0
167 188 0
168 189 0
164 184 0
168 189 0
161 183 0
163 184 0
162 183 0
158 179 0
159 180 0
163 184 0
167 189 0
170 190 0
160 182 0
169 190 25
163 183 0
164 185 25
153 174 0
157 178 0
158 179 0
163 183 0
160 181 25
168 188 51
170 191 44
162 183 25
163 184 44
161 182 51
161 181 57
167 188 72
166 186 51
164 184 36
163 183 0
165 185 0
161 182 0
161 180 0
162 183 0
163 183 0
157 178 0
156 178 0
155 177 0
162 183 0
157 178 0
155 176 0
157 178 0
153 173 0
158 179 0
160 181 0
154 175 0
161 181 0
144 165 0
155 176 0
149 171 0
152 173 0
146 168 0
156 177 0
147 168 0
150 171 0
153 175 0
155 176 0
147 169 0
152 173 0
144 165 0
148 170 0
149 171 0
141 162 0
149 172 0
158 179 0
144 165 0
146 168 0
130 150 0
143 165 0
146 168 0
146 167 0
146 167 0
145 166 0
132 152 0
129 149 0
144 165 0
134 154 0
134 153 0
139 160 0
136 156 0
128 148 0
134 154 0
129 148 0
127 148 0
132 151 0
128 148 0
124 144 0
115 135 0
124 144 0
120 139 0
120 138 0
126 144 0
117 134 0
98 115 0
112 129 0
103 119 0
112 128 0
103 119 0
93 109 0
98 114 0
95 110 0
96 111 0
90 104 0
90 104 0
82 97 0
82 96 0
86 100 0
92 105 0
78 91 0
77 89 0
75 87 0
62 75 0
78 89 0
81 92 0
70 81 0
59 69 0
73 84 0
55 65 0
51 61 0
66 74 0
70 81 0
67 76 0
69 79 0
48 59 0
65 75 0
64 74 0
54 65 0
45 55 0
70 78 0
64 73 0
80 93 0
66 77 0
68 77 0
68 78 0
80 90 0
47 55 0
74 87 0
73 84 0
76 89 0
91 102 0
80 92 0
88 102 0
99 110 0
96 108 0
86 98 0
77 90 0
81 93 0
97 109 0
98 111 0
105 119 0
104 117 0
93 105 0
101 114 0
92 105 0
87 97 0
96 108 0
94 105 0
112 126 0
104 116 0
111 124 0
107 119 0
109 123 0
110 121 0
111 125 0
103 115 0
112 126 0
117 130 0
119 132 0
124 133 0
110 124 0
118 130 0
121 133 0
103 115 0
114 128 0
118 129 0
113 124 0
123 133 0
112 121 0
119 128 0
118 129 0
119 131 0
109 118 0
115 124 0
112 122 0
110 121 0
123 135 0
108 115 0
117 125 0
117 125 0
113 121 0
116 123 0
110 117 0
117 126 0
117 126 0
112 118 0
114 120 0
122 128 0
106 107 0
122 125 0
116 121 0
111 115 0
107 109 0
101 103 0
113 112 0
95 95 0
101 102 0
95 95 0
104 103 0
94 92 0
97 96 0
87 85 0
92 91 0
65 60 0
71 60 11
78 71 11
85 78 14
75 67 0
70 63 0
83 76 0
92 83 0
100 91 0
86 78 0
86 78 0
92 82 0
92 83 0
101 90 0
93 84 0
95 89 0
97 90 0
88 83 0
85 78 0
95 87 0
105 98 0
94 88 0
100 93 0
108 100 0
101 93 0
103 95 0
116 106 0
111 104 0
108 100 11
107 99 16
113 107 0
105 98 11
110 101 11
106 98 0
116 107 11
107 102 0
124 117 11
118 111 0
109 104 11
117 110 11
116 110 16
123 115 25
115 109 11
115 108 11
118 110 16
122 114 11
125 118 25
116 108 11
117 109 11
128 119 22
118 111 25
128 122 19
126 119 25
127 121 19
128 119 25
123 115 19
122 114 22
134 127 32
133 124 36
122 116 19
130 121 30
122 115 22
126 120 25
122 115 22
121 113 19
113 107 22
130 122 30
116 109 16
139 130 37
133 124 22
123 115 30
119 112 22
134 128 30
123 118 22
125 117 30
119 112 22
120 114 28
127 118 34
128 121 25
124 118 28
130 124 41
125 118 36
119 113 30
122 117 30
121 116 28
125 117 28
124 118 22
127 120 37
115 109 34
123 116 30
121 113 36
124 119 37
125 118 37
130 123 36
131 124 41
123 116 39
122 115 41
117 112 34
116 110 34
124 117 37
130 125 36
119 112 37
126 120 37
121 115 34
121 115 42
124 118 39
119 114 36
120 113 39
173 197 36
173 197 36
174 198 25
172 196 25
175 198 44
175 197 57
177 199 51
171 195 25
174 197 44
173 197 36
174 196 36
171 195 44
173 196 36
174 196 36
175 198 0
173 195 0
173 196 25
171 194 0
174 196 25
173 196 0
174 197 0
176 198 0
175 198 0
173 195 0
172 196 0
174 196 0
169 192 0
169 192 0
172 194 0
172 194 0
173 196 0
172 194 0
170 193 0
172 195 0
175 198 0
169 191 0
172 195 0
174 197 0
170 192 0
173 195 0
175 197 0
174 196 0
172 194 0
173 195 0
167 189 0
174 196 0
169 191 0
171 192 0
172 193 0
173 194 0
169 191 0
170 191 0
171 192 0
167 189 0
169 192 0
173 195 0
172 193 0
173 194 0
172 192 0
172 193 0
169 190 0
168 190 0
172 193 0
173 194 0
174 196 0
168 190 0
173 194 0
171 192 0
173 194 0
169 190 0
169 190 0
165 187 0
165 187 0
162 183 0
166 187 0
163 184 0
170 192 0
164 185 0
167 188 0
164 185 0
167 187 0
171 192 0
165 186 25
167 187 0
167 186 0
156 177 0
163 184 0
164 184 0
161 182 0
162 183 0
166 186 0
162 182 0
161 181 0
163 184 36
168 189 0
166 188 0
156 177 0
163 185 51
162 183 36
167 187 57
167 188 51
164 185 44
165 185 44
165 187 36
169 190 57
168 189 76
164 184 0
166 187 0
160 181 0
165 185 0
156 177 0
164 184 0
157 178 0
161 182 0
154 175 0
163 184 0
158 179 0
159 180 0
156 178 0
148 169 0
155 176 0
158 179 0
155 175 0
157 178 0
159 181 0
155 174 0
155 177 0
151 172 0
152 173 0
157 178 0
151 172 0
152 174 0
148 169 0
151 172 0
155 176 0
148 169 0
158 179 0
148 169 0
150 171 0
154 175 0
139 160 0
136 157 0
152 174 0
153 174 0
151 172 0
151 171 0
148 169 0
140 162 0
139 161 0
138 159 0
146 166 0
145 166 0
149 169 0
143 165 0
139 160 0
134 155 0
134 154 0
137 157 0
138 159 0
131 152 0
133 154 0
109 129 0
126 146 0
133 152 0
128 146 0
115 133 0
120 139 0
113 132 0
125 143 0
119 138 0
111 129 0
105 122 0
113 131 0
113 131 0
108 126 0
101 119 0
92 111 0
119 134 0
91 106 0
105 121 0
92 109 0
85 102 0
84 99 0
87 101 0
70 86 0
89 102 0
81 95 0
85 98 0
84 97 0
90 104 0
85 96 0
80 91 0
82 95 0
74 86 0
85 96 0
76 87 0
79 89 0
77 89 0
53 63 0
60 69 0
60 70 0
78 88 0
69 79 0
65 76 0
74 82 0
64 77 0
63 75 0
70 79 0
87 98 0
82 92 0
70 81 0
79 89 0
53 63 0
80 91 0
77 87 0
78 91 0
88 100 0
77 89 0
80 92 0
78 90 0
92 103 0
92 104 0
96 109 0
102 116 0
95 107 0
95 107 0
90 99 0
96 107 0
91 103 0
106 118 0
87 98 0
97 108 0
88 97 0
113 128 0
98 111 0
100 112 0
94 107 0
106 116 0
109 122 0
105 118 0
97 109 0
109 122 0
117 129 0
112 125 0
118 132 0
126 138 0
108 121 0
119 133 0
111 124 0
102 112 0
126 138 0
114 127 0
120 133 0
120 133 0
106 118 0
122 135 0
121 133 0
125 139 0
129 140 0
121 130 0
121 130 0
118 129 0
118 129 0
120 130 0
114 124 0
118 128 0
118 128 0
107 115 0
111 118 0
108 117 0
123 130 0
121 127 0
118 124 0
111 120 0
118 124 0
114 121 0
102 104 0
106 110 0
114 119 0
106 110 0
107 111 0
111 118 0
108 110 0
110 110 0
94 93 0
103 102 0
92 90 0
84 82 0
98 99 0
101 99 0
93 90 0
100 97 0
80 74 0
93 90 0
76 72 11
71 63 0
70 62 0
89 78 11
79 70 8
81 76 0
82 72 0
86 77 0
94 86 0
85 76 0
87 76 0
85 76 0
101 92 0
94 85 0
96 88 0
96 89 0
99 92 0
106 98 0
106 98 0
98 90 0
99 92 0
111 103 0
103 95 0
98 90 0
103 97 0
101 94 0
117 111 0
102 94 0
107 98 0
108 101 0
106 98 0
106 98 0
114 107 0
110 103 0
115 108 0
107 99 0
121 113 19
112 105 19
108 101 0
114 105 11
119 109 16
115 108 11
120 113 19
117 111 11
115 108 0
112 104 11
124 118 19
118 112 11
120 113 0
116 109 11
122 116 19
123 114 16
123 115 11
129 121 30
115 108 0
120 114 19
123 114 19
125 119 25
120 114 16
120 112 25
119 113 19
123 116 25
125 117 22
117 111 16
127 120 22
122 115 25
126 117 22
119 112 22
125 119 22
125 119 30
125 117 25
128 122 28
130 123 36
137 128 44
127 120 39
129 122 25
122 114 36
122 113 30
120 112 25
131 124 28
123 117 28
120 115 25
131 125 34
107 103 11
126 118 37
116 111 34
124 119 32
129 122 39
119 112 34
129 122 41
124 117 37
119 112 41
120 115 36
114 106 25
124 118 41
122 114 36
121 117 30
121 115 36
115 109 22
113 106 36
125 119 32
122 116 34
130 125 39
117 111 36
112 107 36
122 116 34
180 201 76
175 197 36
171 195 25
175 198 51
175 198 44
175 199 51
174 197 44
174 197 36
176 198 51
177 200 62
174 196 57
173 196 36
176 199 44
174 197 36
174 197 44
174 197 25
173 196 25
174 197 0
174 197 0
173 197 0
175 198 0
170 193 0
174 196 25
172 194 0
174 197 0
175 197 0
172 194 0
172 195 0
171 194 25
173 195 25
172 195 0
171 194 0
172 194 0
170 193 25
171 193 0
173 194 0
173 196 0
172 193 0
172 194 0
173 195 0
174 196 25
170 192 0
174 195 0
169 190 0
171 193 0
175 196 0
172 194 0
175 197 0
169 191 0
170 192 0
172 194 0
169 191 0
170 191 0
172 193 0
167 189 0
173 194 0
168 190 0
173 195 0
171 192 0
173 194 0
172 192 0
174 195 0
170 191 0
168 189 0
169 190 0
166 187 0
171 192 0
168 188 0
169 190 0
165 187 0
162 182 0
171 193 0
172 193 0
169 191 0
166 187 0
170 192 0
159 179 0
163 185 0
170 190 0
170 191 0
169 190 0
168 188 0
162 183 0
162 183 0
161 183 0
164 185 0
162 183 0
165 186 0
169 190 0
164 185 25
163 185 0
161 183 0
162 183 0
166 187 0
165 187 36
169 189 25
168 189 67
165 185 25
163 183 44
167 188 36
168 189 0
162 183 62
169 190 62
163 185 44
169 189 0
167 188 0
158 178 0
161 182 0
159 180 0
157 177 0
160 182 0
158 179 0
163 184 0
156 177 0
155 176 0
158 178 0
159 181 0
157 178 0
153 173 0
155 176 0
160 181 0
160 181 0
155 177 0
151 172 0
156 178 0
152 172 0
149 170 0
153 174 0
153 174 0
149 169 0
158 178 0
137 158 0
157 178 0
144 166 0
153 174 0
147 168 0
138 159 0
150 171 0
143 165 0
140 160 0
153 174 0
149 170 0
151 172 0
138 160 0
134 156 0
145 165 0
143 165 0
137 157 0
142 163 0
146 166 0
143 162 0
146 168 0
144 165 0
140 160 0
144 165 0
131 152 0
137 157 0
134 156 0
129 149 0
135 155 0
130 150 0
125 145 0
124 142 0
127 147 0
135 154 0
124 143 0
116 135 0
129 149 0
117 135 0
113 132 0
109 128 0
112 131 0
103 121 0
115 133 0
122 140 0
108 126 0
116 133 0
111 128 0
110 126 0
87 104 0
104 120 0
98 113 0
100 116 0
97 112 0
91 105 0
99 112 0
87 102 0
88 102 0
93 108 0
76 89 0
93 106 0
92 106 0
85 98 0
69 81 0
76 88 0
81 95 0
79 90 0
95 108 0
81 94 0
55 67 0
68 80 0
72 83 0
70 81 0
74 85 0
65 75 0
69 80 0
82 95 0
81 92 0
73 85 0
73 83 0
73 84 0
84 97 0
84 95 0
67 79 0
81 95 0
81 93 0
92 104 0
92 103 0
91 104 0
88 100 0
94 107 0
94 108 0
82 92 0
100 112 0
100 114 0
86 100 0
96 108 0
100 112 0
95 109 0
91 105 0
97 107 0
100 112 0
109 120 0
101 115 0
116 130 0
105 118 0
106 117 0
114 126 0
101 112 0
107 121 0
114 127 0
107 119 0
104 115 0
119 134 0
116 127 0
126 140 0
111 125 0
111 124 0
126 138 0
118 132 0
118 130 0
116 128 0
113 127 0
114 125 0
125 137 0
123 136 0
121 133 0
122 134 0
120 132 0
128 141 0
125 137 0
122 131 0
116 126 0
126 138 0
116 127 0
114 124 0
122 131 0
114 123 0
110 118 0
119 127 0
116 123 0
108 111 0
110 115 0
116 122 0
119 126 0
121 128 0
115 119 0
118 121 0
110 113 0
121 127 0
103 107 0
104 107 0
112 113 0
123 127 0
110 111 0
92 91 0
101 103 0
105 107 0
98 93 0
87 86 0
85 88 0
105 103 0
93 89 0
99 96 0
85 80 0
85 82 0
82 76 0
76 69 11
71 60 0
73 63 0
74 65 0
78 67 0
93 86 11
83 73 0
85 75 0
84 78 8
87 78 0
94 89 0
90 82 0
86 76 0
97 89 0
97 91 0
102 93 0
95 87 0
103 94 0
107 100 0
101 96 0
101 94 0
109 101 0
104 96 0
100 92 0
110 101 0
111 103 0
97 91 0
111 103 0
103 97 0
107 98 11
99 91 0
114 106 0
117 110 11
109 101 11
113 105 16
117 108 11
120 112 11
114 106 19
113 104 0
112 104 11
122 113 11
125 116 22
117 107 0
120 111 16
113 105 0
121 112 16
118 111 22
115 108 16
121 113 16
124 117 16
125 116 22
113 105 16
117 108 19
115 107 28
122 114 16
120 113 16
125 118 19
116 112 16
127 119 19
127 121 30
119 110 19
126 119 22
120 112 30
122 115 19
129 121 30
119 112 19
124 118 25
119 112 16
119 112 22
126 121 19
121 115 28
119 113 19
118 110 34
125 119 30
119 114 32
118 111 28
120 115 19
125 119 32
117 111 28
129 122 34
120 113 32
128 121 36
126 119 30
131 123 34
121 113 36
125 118 36
123 116 32
129 121 36
119 113 34
125 118 32
116 110 36
120 114 41
122 114 34
114 109 28
127 119 42
121 116 34
127 121 36
113 106 36
121 115 39
121 113 39
124 116 41
121 114 44
118 112 37
182 204 111
188 208 144
185 206 120
181 203 84
174 198 51
174 197 0
176 198 57
175 198 36
174 197 44
175 197 36
175 199 57
175 198 44
173 197 36
174 197 44
174 197 57
176 199 44
175 198 36
174 196 36
178 200 67
172 195 0
174 196 0
172 195 0
174 196 0
173 195 0
173 196 0
173 195 0
170 193 0
174 197 0
175 197 0
172 193 0
171 194 0
175 197 0
170 194 0
170 191 0
175 196 0
172 194 0
172 193 0
178 199 0
170 192 0
175 197 0
170 192 0
172 194 0
175 196 0
172 194 0
169 191 25
174 196 0
175 197 0
172 194 0
175 196 25
171 192 0
174 196 0
173 196 0
173 194 0
171 193 25
171 193 0
169 190 0
167 189 0
167 188 0
172 194 0
165 187 0
167 187 0
171 192 25
169 190 0
169 191 0
167 188 0
169 190 0
168 189 0
170 192 25
171 192 0
168 188 25
169 190 25
170 192 0
167 188 0
172 193 0
165 186 0
167 188 0
168 188 0
167 188 0
162 184 0
163 183 25
166 186 0
171 190 0
168 189 0
166 186 0
162 184 25
167 187 0
161 182 0
163 184 0
167 188 0
167 188 25
160 182 0
165 185 25
167 188 25
168 189 72
170 190 62
164 185 36
165 186 44
168 189 44
165 187 67
172 192 80
162 183 62
163 182 36
164 184 0
169 190 0
159 180 0
157 178 0
154 175 0
159 179 0
161 181 0
164 184 0
161 181 0
152 173 0
161 182 0
163 183 0
152 174 0
155 177 0
155 176 0
150 172 0
154 175 0
158 178 0
154 175 0
154 175 0
159 180 0
158 179 0
158 179 0
163 185 0
145 165 0
156 177 0
156 178 0
150 172 0
144 165 0
150 170 0
146 167 0
149 170 0
144 165 0
146 168 0
149 170 0
150 171 0
155 176 0
146 169 0
147 169 0
144 165 0
148 169 0
150 171 0
145 165 0
148 169 0
150 170 0
151 172 0
136 156 0
145 167 0
145 166 0
139 159 0
135 156 0
137 158 0
140 161 0
139 160 0
135 155 0
134 155 0
134 154 0
139 159 0
129 149 0
131 150 0
121 141 0
138 157 0
120 139 0
120 139 0
116 134 0
133 153 0
133 152 0
132 152 0
125 143 0
109 127 0
119 137 0
102 119 0
119 138 0
107 125 0
115 133 0
111 129 0
93 110 0
107 125 0
93 110 0
116 132 0
107 122 0
90 104 0
105 121 0
95 110 0
88 104 0
87 102 0
90 104 0
81 97 0
89 103 0
88 104 0
68 83 0
95 109 0
82 96 0
88 101 0
82 94 0
85 99 0
80 93 0
99 114 0
79 93 0
80 93 0
77 90 0
72 85 0
72 84 0
101 115 0
82 95 0
83 96 0
100 114 0
99 114 0
86 99 0
90 104 0
88 100 0
90 104 0
79 92 0
90 104 0
92 105 0
97 110 0
86 100 0
90 104 0
86 100 0
97 111 0
102 113 0
90 103 0
104 116 0
111 124 0
98 112 0
96 110 0
105 119 0
91 105 0
109 123 0
101 116 0
107 119 0
96 109 0
109 123 0
106 120 0
97 108 0
111 123 0
106 119 0
105 118 0
122 133 0
110 121 0
113 125 0
110 123 0
106 118 0
109 124 0
119 131 0
113 126 0
115 128 0
111 123 0
123 137 0
123 136 0
117 130 0
115 126 0
114 125 0
115 127 0
126 138 0
116 127 0
119 130 0
125 137 0
125 137 0
120 129 0
114 125 0
114 124 0
124 134 0
127 136 0
113 124 0
108 116 0
127 138 0
127 137 0
117 125 0
111 119 0
110 120 0
118 124 0
113 121 0
116 122 0
113 120 0
109 114 0
115 123 0
117 119 0
114 119 0
103 106 0
120 127 0
109 112 0
102 102 0
101 101 0
102 105 0
102 102 0
105 105 0
100 98 0
106 104 0
96 97 0
106 104 0
102 99 0
88 86 0
92 85 0
81 76 0
89 85 0
84 78 0
76 69 0
73 65 0
71 64 0
79 68 11
78 69 0
82 74 0
85 75 0
81 71 0
97 86 0
98 90 11
88 78 0
98 86 0
94 85 0
95 87 0
91 81 0
93 85 0
99 89 0
93 88 0
109 99 0
102 95 0
102 93 0
99 91 0
117 108 11
101 93 0
103 95 0
104 95 11
109 98 0
106 99 0
101 94 0
107 100 0
110 101 11
101 94 0
113 105 11
112 105 0
109 100 11
115 107 0
110 103 0
112 104 16
107 100 16
116 107 0
112 104 19
115 107 22
119 112 11
120 113 22
118 110 11
118 110 16
115 109 11
127 119 30
114 106 19
118 111 25
109 104 16
129 121 30
117 109 25
124 116 11
113 104 16
120 114 0
118 111 19
120 113 25
125 119 16
114 107 19
118 111 19
120 115 22
119 112 22
128 123 30
122 114 25
116 110 16
114 109 25
123 114 30
116 110 19
120 114 30
127 121 28
115 108 16
127 119 25
129 123 32
126 119 28
122 114 36
122 116 34
123 114 37
119 113 32
115 108 25
112 105 32
127 120 30
129 122 25
112 108 25
123 116 34
127 120 39
117 111 32
116 110 36
116 109 25
114 109 32
129 121 37
129 121 44
114 109 16
122 115 37
111 103 37
122 116 45
113 108 30
119 112 34
108 102 44
113 106 36
121 125 28
172 195 0
177 199 51
180 202 92
187 207 128
189 209 137
179 201 95
175 198 36
175 198 0
174 197 25
175 198 36
172 195 25
174 196 36
174 197 44
172 194 36
175 198 51
174 197 62
176 198 44
175 198 57
172 196 57
176 198 57
174 197 51
172 195 25
173 196 0
170 194 0
170 194 0
174 197 0
170 193 0
176 198 0
173 196 0
171 194 0
174 196 0
173 195 25
172 194 0
174 195 25
173 195 0
173 195 0
171 193 0
173 195 0
174 195 0
174 196 0
170 193 0
172 194 0
175 197 25
171 193 25
174 196 0
165 187 0
173 194 0
168 189 0
172 194 0
174 196 0
173 194 36
171 192 0
172 194 0
172 193 0
172 194 0
172 194 0
172 193 0
167 189 0
172 193 25
164 185 0
171 192 0
175 197 0
173 194 0
170 191 0
170 190 0
170 191 0
166 188 0
170 192 0
169 189 0
174 195 0
172 192 25
168 189 0
171 192 0
172 193 0
169 190 0
168 188 0
166 186 0
169 191 0
169 189 25
171 191 0
165 186 0
167 189 0
171 193 0
162 183 0
165 185 0
166 187 0
169 190 0
165 187 25
169 189 36
164 186 51
170 190 57
167 187 51
163 184 36
163 184 25
161 182 36
162 182 51
172 191 72
169 189 57
167 188 44
162 183 0
158 179 0
160 182 0
163 183 0
163 185 0
159 180 0
152 174 0
163 184 0
166 187 0
164 185 0
160 180 0
157 178 0
156 177 0
167 188 0
157 178 0
161 182 0
152 173 0
151 173 0
151 173 0
154 176 0
154 176 0
155 176 0
154 174 0
155 176 0
155 175 0
157 178 0
154 175 0
155 176 0
150 170 0
147 168 0
155 177 0
153 174 0
145 167 0
155 176 0
148 169 0
152 174 0
147 168 0
153 175 0
148 170 0
150 172 0
151 172 0
142 165 0
143 164 0
150 171 0
141 162 0
138 158 0
150 170 0
145 166 0
139 160 0
145 167 0
137 158 0
141 162 0
145 167 0
133 155 0
131 152 0
134 155 0
139 160 0
131 151 0
129 149 0
130 150 0
139 158 0
124 144 0
144 164 0
126 146 0
123 142 0
126 146 0
127 147 0
124 143 0
129 147 0
129 148 0
118 138 0
123 141 0
117 137 0
123 141 0
104 122 0
103 120 0
109 127 0
106 125 0
101 118 0
109 126 0
107 124 0
111 128 0
105 122 0
87 103 0
109 123 0
108 126 0
102 119 0
99 114 0
108 124 0
91 106 0
92 105 0
94 109 0
86 102 0
100 116 0
84 97 0
91 106 0
99 111 0
102 117 0
81 95 0
77 90 0
89 104 0
93 108 0
86 99 0
94 107 0
98 109 0
79 92 0
74 88 0
100 113 0
86 99 0
95 110 0
94 108 0
86 98 0
72 84 0
92 106 0
96 109 0
93 105 0
94 107 0
91 104 0
94 108 0
97 111 0
81 94 0
105 121 0
88 102 0
110 124 0
94 108 0
91 105 0
93 107 0
91 103 0
103 115 0
107 121 0
104 119 0
107 122 0
93 107 0
121 135 0
106 120 0
103 118 0
100 112 0
116 129 0
118 131 0
117 131 0
116 129 0
123 135 0
122 137 0
122 136 0
111 124 0
111 123 0
107 121 0
113 125 0
134 150 0
109 123 0
109 122 0
132 148 0
117 128 0
122 135 0
125 139 0
118 133 0
134 147 0
110 123 0
127 140 0
117 129 0
120 132 0
125 134 0
123 132 0
123 134 0
126 138 0
117 127 0
121 129 0
116 126 0
118 126 0
128 138 0
115 122 0
110 118 0
111 118 0
127 137 0
120 128 0
116 123 0
118 124 0
116 122 0
116 123 0
109 113 0
113 121 0
125 130 0
114 116 0
104 107 0
122 124 0
107 110 0
104 103 0
121 124 0
114 115 0
112 112 0
100 100 0
96 91 0
103 106 0
112 111 0
89 90 0
86 84 0
103 98 0
76 74 0
87 84 0
87 85 0
77 70 0
88 83 0
75 68 0
80 73 0
61 54 0
77 67 0
80 71 0
75 65 0
80 71 0
89 80 0
89 77 0
82 73 0
83 75 0
82 75 0
95 87 0
97 89 0
92 82 0
105 97 0
92 82 0
101 91 0
93 85 0
101 91 0
86 79 0
94 87 0
101 95 0
103 97 0
109 99 11
101 93 0
112 103 0
114 107 11
111 105 0
102 96 0
94 87 0
95 88 0
107 99 0
119 111 11
112 105 0
112 105 0
112 104 11
119 111 11
110 100 22
105 99 0
106 99 11
115 108 19
114 104 11
107 100 11
125 116 19
119 111 16
110 102 19
115 107 19
113 104 11
114 105 19
107 101 19
116 108 16
114 105 19
116 109 22
111 104 19
117 109 22
126 119 30
121 112 30
117 109 22
122 115 28
117 109 16
123 115 19
122 113 22
116 110 28
117 109 30
125 118 30
125 118 28
113 106 19
122 115 32
129 121 32
119 113 28
110 104 19
125 118 16
117 110 22
115 107 34
118 112 25
121 113 36
126 120 28
113 105 39
122 114 30
115 110 28
126 118 32
120 112 34
131 123 41
111 105 32
113 108 28
109 102 28
119 113 36
124 117 36
122 114 25
116 111 34
104 98 28
121 115 37
115 109 41
111 103 34
113 113 25
150 160 19
159 176 11
169 190 0
172 196 0
176 199 0
173 197 0
172 195 0
176 199 51
181 202 88
188 208 133
187 208 133
181 203 99
176 198 67
176 199 44
174 197 36
172 195 44
172 196 44
177 199 44
175 197 44
175 197 44
178 200 57
172 195 25
174 197 44
172 195 51
176 198 36
176 198 51
173 195 36
178 199 44
173 195 36
174 197 36
174 195 36
177 199 36
173 196 0
173 195 0
175 197 0
170 192 0
172 194 0
175 197 0
172 194 0
173 195 0
175 196 0
173 195 0
172 193 0
174 196 0
175 197 0
175 197 0
174 195 25
172 193 0
170 191 0
172 194 0
173 194 0
175 197 0
172 193 0
174 196 0
172 194 0
173 195 36
175 196 0
173 194 0
170 191 0
173 194 0
171 193 0
174 195 0
165 186 0
173 194 0
168 189 0
169 190 0
172 192 0
172 192 0
171 192 0
174 195 25
170 192 0
167 188 0
167 188 0
169 190 0
165 186 0
166 185 0
167 188 0
169 189 25
166 186 0
166 188 0
167 188 0
170 191 25
167 187 0
165 187 0
161 182 0
167 189 25
163 185 25
169 190 36
162 183 36
160 181 36
168 189 36
164 186 44
174 193 51
161 181 36
165 186 44
173 194 36
172 192 80
167 187 67
168 189 51
159 181 0
163 184 0
162 184 0
159 179 0
163 184 0
159 178 0
165 185 0
165 185 0
163 184 0
156 177 0
156 176 0
163 183 0
158 178 0
156 176 0
159 178 0
157 179 0
154 175 0
164 185 0
156 177 0
159 180 0
154 175 0
158 179 0
156 177 0
156 177 0
157 178 0
154 175 0
153 174 0
149 171 0
155 176 0
157 178 0
147 169 0
156 178 0
149 170 0
149 171 0
145 167 0
157 179 0
158 179 0
150 171 0
156 178 0
151 173 0
154 175 0
157 177 0
149 170 0
149 171 0
145 166 0
146 167 0
146 166 0
147 167 0
152 173 0
145 167 0
141 163 0
134 154 0
132 153 0
140 161 0
138 158 0
137 158 0
140 162 0
137 157 0
137 159 0
127 148 0
119 139 0
136 156 0
128 149 0
140 160 0
135 156 0
135 156 0
138 158 0
131 151 0
128 147 0
139 159 0
125 144 0
123 141 0
113 132 0
126 145 0
128 147 0
117 136 0
118 137 0
116 135 0
115 133 0
117 135 0
110 128 0
105 123 0
124 142 0
107 125 0
108 125 0
108 125 0
100 118 0
102 119 0
110 126 0
100 117 0
101 118 0
106 121 0
101 117 0
98 113 0
103 118 0
105 120 0
100 115 0
95 111 0
83 97 0
109 125 0
97 114 0
102 118 0
91 106 0
101 116 0
76 90 0
92 106 0
101 115 0
86 99 0
94 109 0
93 107 0
91 104 0
91 106 0
97 112 0
93 106 0
82 93 0
95 109 0
90 104 0
84 101 0
103 116 0
106 120 0
96 110 0
96 110 0
98 112 0
98 113 0
92 107 0
113 128 0
105 120 0
99 112 0
94 109 0
107 120 0
110 122 0
108 122 0
113 126 0
114 128 0
102 114 0
104 119 0
108 122 0
114 128 0
112 123 0
117 131 0
111 124 0
103 116 0
112 125 0
121 133 0
113 124 0
114 128 0
106 119 0
113 128 0
112 126 0
107 121 0
113 125 0
115 129 0
127 139 0
129 143 0
123 135 0
116 130 0
118 129 0
119 131 0
135 148 0
120 133 0
117 130 0
120 134 0
121 133 0
124 136 0
126 136 0
129 140 0
122 135 0
112 123 0
119 129 0
126 140 0
118 128 0
120 129 0
108 117 0
122 133 0
110 119 0
116 124 0
122 130 0
107 116 0
115 122 0
123 131 0
112 118 0
115 122 0
117 123 0
118 123 0
121 125 0
129 134 0
117 123 0
120 124 0
102 104 0
114 120 0
105 108 0
102 101 0
106 104 0
106 108 0
100 101 0
108 109 0
100 100 0
95 94 0
96 93 0
104 104 0
89 83 0
86 84 0
84 81 0
91 88 0
90 85 0
73 67 0
79 71 0
88 86 0
74 69 0
69 61 0
73 62 0
86 76 0
77 67 0
79 71 0
87 78 0
86 78 0
88 76 0
90 81 0
94 84 0
92 83 0
93 85 0
98 91 0
92 84 0
102 92 0
106 94 0
97 86 0
104 95 0
100 92 0
103 94 0
113 104 0
107 99 0
105 97 0
112 103 0
106 97 11
100 90 0
110 100 11
105 96 11
109 101 11
111 101 11
108 99 19
112 105 16
108 100 11
114 106 11
122 113 19
111 104 0
115 107 16
115 106 16
106 98 11
114 108 0
107 100 16
108 101 0
126 116 22
118 109 11
117 111 11
107 100 16
117 108 25
118 110 11
112 105 16
111 103 11
124 116 22
113 107 19
113 105 22
121 114 19
124 116 19
119 110 25
124 118 28
112 104 25
116 109 19
119 109 22
122 116 30
119 111 19
117 111 11
126 118 28
108 102 32
125 117 28
111 105 22
105 98 16
118 110 28
116 110 25
117 111 11
123 116 19
117 110 25
121 115 34
122 114 37
121 114 36
115 107 32
119 112 19
116 109 30
124 115 37
109 104 22
119 112 32
113 106 25
101 94 19
123 115 41
119 111 37
118 112 41
110 104 30
120 119 32
138 147 22
167 184 19
168 187 0
168 186 0
168 189 0
168 189 0
172 196 0
172 196 0
175 198 0
173 195 0
174 197 0
173 195 0
173 196 0
172 196 0
180 202 88
190 210 142
189 209 135
180 202 88
175 198 57
174 197 57
174 198 44
174 197 25
175 197 57
175 197 44
174 197 36
172 195 44
174 196 44
177 200 67
177 198 44
175 198 25
175 198 25
175 197 36
174 196 51
173 195 25
173 196 25
178 200 57
173 195 36
171 194 25
177 199 44
174 196 25
175 197 0
175 197 36
170 193 0
173 196 0
171 194 0
177 198 0
175 196 0
169 191 25
172 195 0
177 197 0
173 195 0
173 195 0
172 194 0
170 192 36
174 195 0
171 192 0
171 193 0
171 193 0
170 191 0
173 193 0
173 195 0
170 190 25
170 192 0
167 189 0
170 192 0
171 193 0
166 187 0
173 194 0
168 189 0
170 191 0
170 191 25
177 198 0
175 196 0
169 191 0
168 189 25
171 191 0
170 191 0
169 190 0
168 188 0
168 189 0
164 186 0
171 192 25
174 194 25
168 189 0
163 184 44
168 189 51
168 188 36
173 193 62
165 186 25
164 184 44
164 186 25
164 185 25
163 184 0
168 189 57
165 186 25
162 183 36
167 188 44
170 191 57
169 189 57
166 186 0
162 184 0
162 183 0
165 186 0
170 191 0
161 182 0
171 192 0
163 184 0
160 181 0
163 184 0
156 177 0
162 183 0
156 177 0
166 186 0
158 179 0
163 184 0
159 180 0
156 177 0
158 180 0
161 182 0
162 183 0
156 178 0
156 177 0
151 171 0
159 180 0
154 176 0
146 167 0
158 180 0
155 176 0
158 179 0
157 178 0
148 169 0
158 180 0
153 175 0
157 178 0
150 172 0
153 175 0
148 171 0
155 176 0
153 173 0
147 168 0
154 176 0
149 171 0
150 172 0
151 172 0
144 166 0
150 172 0
154 176 0
137 158 0
146 167 0
147 168 0
153 174 0
151 172 0
145 166 0
146 167 0
141 161 0
140 161 0
137 157 0
140 160 0
145 167 0
145 166 0
130 150 0
142 162 0
146 167 0
138 159 0
131 151 0
132 154 0
142 162 0
138 159 0
127 148 0
132 153 0
144 164 0
132 152 0
126 146 0
126 146 0
126 146 0
113 132 0
124 143 0
110 129 0
116 135 0
116 133 0
128 148 0
124 142 0
109 128 0
109 127 0
114 131 0
116 133 0
105 122 0
121 140 0
112 129 0
103 120 0
89 106 0
103 120 0
104 120 0
97 113 0
100 116 0
94 111 0
100 116 0
105 120 0
101 117 0
103 119 0
91 107 0
91 106 0
113 128 0
95 110 0
92 108 0
100 115 0
95 111 0
95 110 0
97 112 0
111 125 0
86 101 0
77 91 0
92 107 0
106 119 0
95 110 0
103 118 0
93 108 0
103 119 0
84 98 0
100 115 0
87 101 0
108 123 0
95 108 0
101 117 0
106 121 0
99 112 0
106 121 0
101 116 0
106 120 0
101 116 0
113 127 0
105 119 0
111 124 0
109 124 0
112 127 0
109 122 0
107 121 0
115 130 0
117 132 0
108 122 0
108 122 0
110 125 0
108 122 0
117 134 0
115 132 0
104 119 0
123 136 0
115 128 0
106 119 0
115 128 0
116 130 0
119 133 0
124 139 0
123 135 0
114 127 0
126 141 0
127 139 0
120 133 0
126 139 0
122 135 0
131 145 0
117 130 0
118 131 0
128 138 0
134 147 0
121 134 0
129 140 0
108 120 0
111 121 0
118 129 0
119 128 0
126 138 0
132 146 0
112 123 0
126 135 0
118 129 0
120 128 0
122 130 0
123 135 0
119 128 0
131 142 0
114 123 0
118 123 0
124 131 0
123 131 0
113 116 0
117 126 0
105 110 0
130 138 0
113 117 0
109 114 0
115 118 0
116 118 0
102 107 0
101 103 0
113 115 0
106 108 0
113 115 0
106 109 0
106 107 0
96 94 0
94 92 0
93 91 0
102 102 0
97 94 0
88 85 0
91 88 0
102 99 0
99 95 0
73 65 0
84 76 0
70 64 0
85 81 0
75 66 0
76 72 0
70 61 0
81 69 0
81 73 0
81 73 0
88 75 0
85 75 0
100 89 0
86 76 0
88 80 0
90 81 0
94 86 0
92 82 0
99 91 0
98 91 0
92 85 0
99 90 0
95 87 16
100 91 0
94 85 0
105 96 11
105 95 11
101 95 11
112 101 0
107 97 0
107 98 16
104 98 0
105 94 11
101 94 11
108 98 11
110 104 11
115 107 11
113 105 16
117 108 22
111 104 19
109 101 16
111 103 16
109 101 11
108 100 11
120 111 0
114 107 22
121 113 19
121 113 16
107 100 11
113 104 11
109 102 22
106 99 19
118 108 16
97 91 25
113 104 22
108 101 19
118 110 22
120 112 28
113 105 19
122 115 30
115 109 22
110 102 25
117 109 30
114 107 22
120 111 22
119 112 28
114 106 16
121 114 25
120 111 30
122 113 32
116 109 19
112 103 16
111 104 25
117 110 28
113 104 19
115 109 25
114 107 28
111 106 28
110 104 16
117 111 30
113 106 30
117 109 32
118 111 34
114 107 30
106 100 28
107 101 32
111 105 30
127 125 28
145 152 28
161 175 16
165 182 0
169 187 0
168 187 0
168 187 0
169 189 0
164 182 0
164 182 0
175 197 0
172 195 0
173 197 0
174 198 0
169 193 0
171 195 0
173 197 0
172 195 0
171 194 0
169 193 0
171 195 36
180 202 92
184 205 120
185 206 117
182 203 114
183 204 99
177 200 67
175 197 25
175 198 57
173 195 25
174 197 57
171 194 36
172 195 44
173 195 36
177 198 57
176 198 51
176 199 44
173 195 36
175 197 44
174 196 51
175 197 51
175 198 51
171 193 36
173 196 57
175 197 36
175 197 62
174 196 44
176 197 51
169 191 25
171 194 0
177 197 44
169 191 0
174 196 25
175 196 0
173 194 0
174 195 0
168 189 0
170 192 0
172 194 0
172 193 0
169 191 0
172 193 0
171 192 0
174 195 25
170 192 0
172 193 25
169 190 0
168 190 0
173 194 25
175 196 0
172 193 0
175 195 0
169 190 0
171 191 0
173 194 0
176 197 25
169 189 25
171 192 0
174 194 36
174 195 51
169 190 0
169 189 25
165 186 25
173 193 51
169 189 62
172 193 44
172 192 25
168 188 25
166 186 36
168 189 51
168 189 0
167 188 36
167 187 36
167 188 44
167 188 44
166 187 25
170 191 67
172 193 57
165 187 36
161 182 0
166 187 0
161 182 0
161 182 0
166 187 0
164 184 0
163 186 0
160 181 0
160 181 0
164 185 0
163 183 0
159 180 0
158 180 0
159 181 0
160 181 0
162 183 0
158 179 0
161 182 0
155 175 0
157 178 0
162 184 0
157 178 0
153 174 0
161 182 0
161 183 0
161 183 0
164 185 0
158 179 0
155 177 0
149 170 0
153 175 0
149 170 0
158 179 0
156 177 0
159 181 0
149 170 0
153 174 0
154 175 0
148 169 0
160 181 0
148 169 0
150 172 0
154 174 0
148 169 0
153 174 0
159 181 0
152 173 0
152 174 0
149 170 0
151 172 0
146 166 0
149 170 0
149 170 0
142 163 0
146 168 0
143 164 0
144 165 0
145 166 0
145 167 0
140 161 0
143 164 0
149 171 0
145 166 0
140 160 0
139 161 0
148 169 0
129 149 0
137 159 0
133 153 0
126 146 0
131 151 0
140 161 0
131 151 0
133 152 0
131 151 0
128 149 0
128 148 0
126 145 0
134 154 0
123 142 0
132 152 0
118 137 0
120 139 0
124 142 0
127 145 0
122 141 0
108 127 0
116 136 0
127 145 0
125 144 0
115 133 0
102 120 0
112 131 0
111 129 0
121 138 0
107 125 0
115 132 0
106 123 0
99 117 0
113 130 0
109 125 0
98 115 0
100 115 0
115 131 0
114 130 0
102 119 0
114 130 0
100 116 0
101 117 0
97 112 0
116 130 0
93 108 0
95 110 0
103 119 0
89 104 0
102 117 0
91 107 0
98 113 0
95 109 0
101 115 0
103 120 0
108 123 0
98 112 0
105 119 0
89 104 0
108 123 0
127 143 0
104 119 0
101 115 0
100 115 0
101 117 0
99 114 0
116 132 0
102 118 0
103 120 0
104 119 0
104 118 0
117 132 0
99 115 0
111 126 0
102 114 0
113 127 0
117 133 0
105 120 0
119 135 0
128 142 0
109 125 0
115 128 0
116 131 0
124 139 0
105 118 0
126 141 0
118 131 0
114 127 0
106 121 0
119 135 0
119 133 0
119 131 0
120 135 0
116 128 0
122 137 0
112 128 0
134 150 0
120 132 0
120 132 0
115 126 0
127 141 0
128 142 0
131 144 0
125 137 0
134 147 0
125 136 0
122 134 0
128 142 0
121 134 0
123 136 0
122 131 0
123 137 0
126 139 0
119 128 0
123 131 0
111 122 0
114 124 0
122 132 0
124 134 0
126 134 0
127 134 0
134 142 0
119 127 0
109 116 0
111 120 0
124 132 0
123 131 0
120 125 0
120 125 0
117 123 0
111 117 0
121 122 0
112 115 0
117 119 0
101 103 0
114 119 0
113 113 0
115 117 0
99 97 0
109 110 0
106 107 0
108 105 0
101 100 0
95 95 0
103 103 0
106 104 0
95 94 0
106 101 0
85 81 0
97 94 0
94 89 0
90 88 0
94 91 0
75 69 0
92 85 0
78 68 0
76 67 0
83 76 0
77 67 0
74 64 0
72 65 0
69 63 0
81 73 0
85 77 0
92 82 0
90 80 0
90 82 0
90 82 0
82 73 0
96 85 0
96 89 11
102 93 0
94 88 0
104 93 11
100 93 0
110 100 11
102 94 0
92 83 11
103 93 0
107 100 0
101 94 0
97 88 0
111 102 0
104 93 0
103 94 11
109 102 0
113 105 11
106 97 19
109 101 0
104 94 0
113 103 16
103 95 16
110 101 19
110 101 30
108 100 11
103 95 16
108 98 22
112 104 25
114 105 19
123 114 22
122 114 25
116 107 16
115 106 25
116 110 16
113 105 19
119 112 25
116 109 19
112 102 19
119 109 28
121 114 28
107 99 25
96 89 28
114 108 16
109 100 28
120 112 22
114 107 32
119 111 30
118 110 16
114 106 22
114 106 32
112 104 16
114 107 30
116 108 28
105 98 32
119 112 28
110 103 25
108 100 28
112 107 32
101 93 28
107 100 22
106 99 34
106 102 22
131 136 25
146 158 19
162 181 0
169 189 0
168 185 0
168 187 0
167 186 0
164 182 0
166 185 0
170 188 0
166 186 0
164 183 0
169 189 0
172 195 0
174 197 0
173 196 0
171 195 0
173 197 0
174 197 0
171 195 0
174 197 0
172 195 0
173 196 0
172 195 0
173 197 0
172 196 0
172 195 0
172 196 0
180 202 84
183 204 108
179 200 99
187 207 130
183 204 114
177 199 76
171 194 36
172 195 44
174 197 36
172 196 44
175 198 57
174 196 44
172 194 67
173 196 44
176 198 36
175 197 51
174 196 25
172 195 36
175 196 51
172 194 36
170 192 25
175 197 44
173 195 0
171 194 36
172 193 44
180 200 51
178 199 36
178 199 36
176 197 51
172 193 36
176 198 44
176 197 51
171 192 57
173 194 25
173 195 0
177 198 51
172 193 36
172 193 0
172 194 25
174 195 0
171 192 36
170 191 51
172 192 25
173 194 44
171 191 51
171 192 36
174 194 36
172 192 44
172 192 25
168 190 36
175 196 36
174 193 62
171 192 25
171 192 36
172 193 44
172 193 36
171 191 25
166 187 44
170 190 25
172 192 57
174 194 36
166 187 44
170 190 44
174 194 57
175 195 51
172 192 25
177 197 76
172 192 72
168 189 62
174 194 62
173 194 57
168 188 0
167 187 0
170 190 0
161 182 0
157 178 0
161 181 0
170 190 0
167 188 0
161 182 0
160 182 0
167 188 0
160 181 0
160 181 0
161 181 0
164 185 0
163 184 0
158 178 0
158 179 0
163 184 0
160 181 0
163 184 0
163 184 0
159 180 0
148 169 0
157 179 0
153 174 0
157 178 0
164 185 0
157 179 0
156 178 0
157 179 0
153 174 0
159 182 0
148 170 0
153 174 0
151 173 0
152 174 0
153 175 0
153 175 0
158 179 0
154 176 0
146 168 0
154 176 0
158 178 0
152 173 0
156 178 0
154 175 0
148 169 0
149 170 0
141 163 0
148 171 0
148 169 0
141 163 0
150 171 0
146 168 0
148 170 0
150 171 0
134 156 0
151 172 0
133 155 0
137 158 0
141 162 0
138 160 0
145 167 0
145 167 0
137 158 0
141 161 0
134 155 0
147 168 0
140 160 0
132 153 0
131 152 0
146 167 0
135 155 0
137 157 0
125 144 0
126 146 0
130 150 0
131 151 0
131 151 0
113 133 0
124 144 0
126 146 0
132 151 0
116 134 0
116 136 0
118 138 0
117 137 0
116 136 0
129 148 0
122 140 0
119 138 0
125 144 0
114 131 0
126 144 0
107 124 0
110 127 0
116 135 0
108 127 0
120 138 0
105 123 0
114 132 0
103 120 0
113 129 0
111 128 0
119 137 0
113 130 0
104 121 0
109 127 0
105 120 0
108 124 0
107 121 0
110 126 0
100 117 0
104 121 0
115 132 0
100 115 0
108 125 0
94 109 0
108 124 0
101 118 0
91 105 0
109 124 0
102 117 0
118 133 0
107 123 0
111 126 0
107 122 0
98 112 0
108 124 0
111 127 0
110 125 0
118 133 0
99 114 0
112 127 0
115 129 0
110 126 0
104 117 0
112 127 0
106 120 0
106 121 0
121 137 0
116 131 0
120 137 0
121 135 0
123 139 0
113 126 0
114 128 0
125 143 0
119 136 0
114 129 0
127 142 0
114 129 0
117 133 0
114 130 0
125 141 0
121 134 0
108 122 0
112 127 0
123 139 0
105 121 0
115 129 0
128 145 0
124 137 0
121 136 0
130 145 0
125 139 0
117 128 0
113 125 0
114 125 0
117 130 0
127 142 0
112 126 0
123 138 0
136 151 0
126 139 0
127 141 0
129 144 0
123 137 0
119 131 0
125 136 0
127 140 0
117 127 0
123 133 0
114 124 0
117 128 0
118 128 0
126 138 0
127 138 0
120 131 0
124 133 0
126 133 0
122 131 0
123 133 0
106 113 0
126 135 0
126 131 0
116 121 0
121 126 0
122 128 0
125 130 0
114 117 0
107 111 0
105 106 0
114 116 0
110 116 0
103 103 0
113 114 0
109 111 0
101 102 0
114 113 0
97 96 0
118 118 0
107 105 0
103 102 0
106 104 0
108 106 0
96 91 0
83 81 0
95 96 0
96 92 0
88 83 0
100 97 0
90 87 0
91 89 0
89 85 0
82 80 0
91 83 0
77 69 0
76 65 0
81 74 0
71 59 0
86 76 0
95 85 11
82 73 0
86 77 11
91 83 0
86 77 0
84 75 0
87 76 0
86 76 11
94 86 0
97 87 0
90 81 0
103 93 11
85 78 0
96 89 11
101 93 16
99 92 11
109 100 16
111 104 0
101 93 11
111 101 16
109 100 19
104 95 0
101 94 11
101 93 11
101 94 0
111 102 11
114 105 0
107 97 11
101 91 11
112 102 19
105 97 0
112 101 11
108 99 11
100 93 16
109 101 0
110 103 11
118 111 28
111 104 16
110 103 19
109 101 19
107 99 25
116 110 28
115 106 11
108 100 19
113 103 25
120 112 28
110 102 19
108 100 22
113 107 25
104 96 19
112 104 16
106 99 22
113 106 25
109 101 22
112 104 28
108 99 32
109 102 28
112 102 34
108 99 22
111 102 28
104 97 22
119 113 36
123 117 41
116 113 32
129 131 30
138 146 22
160 172 11
160 178 0
162 179 0
163 181 0
161 179 0
162 181 0
167 186 0
168 185 0
165 184 0
162 178 0
165 184 0
167 185 0
167 186 0
166 184 0
163 182 0
174 197 0
175 198 0
171 194 0
172 195 0
175 197 0
173 195 0
171 195 0
170 194 0
175 198 0
173 196 0
170 193 0
174 196 0
174 197 0
173 196 0
172 195 0
174 197 0
174 197 0
173 197 0
173 196 0
176 198 67
179 200 92
185 206 125
185 206 120
176 197 80
178 201 80
176 197 57
173 196 25
172 195 25
176 199 51
175 198 51
171 193 44
172 195 44
175 197 51
174 197 57
174 196 44
177 199 51
170 192 36
172 194 44
170 192 25
175 196 51
171 193 51
173 195 25
173 195 36
173 195 25
174 195 44
175 197 62
173 195 25
173 194 44
172 194 36
176 197 36
171 193 25
176 197 44
174 194 51
173 194 44
173 194 36
176 196 36
168 188 51
172 193 62
172 193 36
175 196 25
170 190 57
174 195 36
173 194 36
173 193 25
164 186 0
174 196 57
172 193 25
177 198 25
177 198 44
174 195 0
172 193 25
171 192 25
172 193 51
165 186 36
172 193 44
171 192 25
169 190 36
175 195 72
171 191 51
170 191 57
167 188 57
166 186 0
163 185 0
161 182 0
169 190 0
166 187 0
163 184 0
166 187 0
166 187 0
164 184 0
163 184 0
166 186 0
163 185 0
160 182 0
161 182 0
156 177 0
159 181 0
162 184 0
163 184 0
161 182 0
169 190 0
162 184 0
166 187 0
165 187 0
156 178 0
152 174 0
157 177 0
159 180 0
150 172 0
149 171 0
149 170 0
165 187 0
158 180 0
154 175 0
159 181 0
146 167 0
157 178 0
155 176 0
164 185 0
153 175 0
155 176 0
152 174 0
156 177 0
156 177 0
150 171 0
156 177 0
153 175 0
150 172 0
158 179 0
155 177 0
151 173 0
151 173 0
149 170 0
148 170 0
151 173 0
157 179 0
149 170 0
151 172 0
153 176 0
146 168 0
154 176 0
144 166 0
141 162 0
149 171 0
145 165 0
148 170 0
137 157 0
134 154 0
137 158 0
143 164 0
143 164 0
135 156 0
140 161 0
143 164 0
140 161 0
140 160 0
143 164 0
143 164 0
140 160 0
132 152 0
141 163 0
131 153 0
128 148 0
123 143 0
130 150 0
141 161 0
132 151 0
117 137 0
138 158 0
125 146 0
131 150 0
130 150 0
109 129 0
124 143 0
124 143 0
135 154 0
124 143 0
122 141 0
114 131 0
119 138 0
126 144 0
116 135 0
109 125 0
121 138 0
117 136 0
104 121 0
112 130 0
113 129 0
101 118 0
109 126 0
109 126 0
111 129 0
106 125 0
102 120 0
114 131 0
111 129 0
109 125 0
91 109 0
109 126 0
111 126 0
117 133 0
103 120 0
109 125 0
112 129 0
98 114 0
119 135 0
103 119 0
114 129 0
108 124 0
106 121 0
112 128 0
107 122 0
116 131 0
106 122 0
107 122 0
106 121 0
105 119 0
107 121 0
111 127 0
110 126 0
104 120 0
111 127 0
109 126 0
124 140 0
115 130 0
109 124 0
105 119 0
124 140 0
105 121 0
119 133 0
124 140 0
119 136 0
107 123 0
108 123 0
113 128 0
114 130 0
116 130 0
118 134 0
135 151 0
124 141 0
120 137 0
121 137 0
115 129 0
120 135 0
130 145 0
119 134 0
121 137 0
118 132 0
117 131 0
115 129 0
124 139 0
119 131 0
120 134 0
137 151 0
110 122 0
119 135 0
124 136 0
123 136 0
123 135 0
123 132 0
131 145 0
133 147 0
124 136 0
126 138 0
118 129 0
131 145 0
125 136 0
127 139 0
134 146 0
131 142 0
128 139 0
126 137 0
123 131 0
128 137 0
128 138 0
119 126 0
121 132 0
122 133 0
137 149 0
120 127 0
132 141 0
121 130 0
114 122 0
131 140 0
116 123 0
123 130 0
114 119 0
110 115 0
118 124 0
115 119 0
118 124 0
116 120 0
105 108 0
117 119 0
115 116 0
107 106 0
117 120 0
111 112 0
105 104 0
108 107 0
110 111 0
104 101 0
108 108 0
106 105 0
104 99 0
108 106 0
104 100 0
88 80 0
100 96 0
93 88 0
82 79 0
94 86 0
88 80 0
76 69 0
89 87 0
78 73 0
79 73 0
86 78 0
88 85 0
72 62 0
77 68 11
90 81 0
77 68 0
81 70 11
93 80 11
87 77 0
80 71 11
94 82 0
85 77 0
99 90 0
95 85 0
91 80 0
97 86 0
105 95 11
104 94 11
110 100 11
97 89 0
91 83 11
94 84 0
102 92 0
101 91 0
96 89 0
108 98 16
99 90 16
98 89 16
97 89 11
102 93 11
98 89 11
103 93 22
104 95 16
110 101 16
108 97 22
113 104 11
109 100 19
111 102 22
104 97 22
106 98 25
105 98 22
108 100 19
120 110 19
100 91 11
108 102 28
109 101 28
109 99 28
120 110 16
107 98 19
93 85 28
115 105 28
108 100 32
98 90 25
107 98 19
109 101 25
113 104 34
101 93 25
108 101 22
112 105 39
112 103 25
106 102 16
127 130 22
130 134 25
143 149 22
152 164 0
163 178 0
164 181 0
162 177 0
167 183 0
166 182 0
167 187 0
168 187 0
170 189 0
167 184 0
168 185 0
164 180 0
172 189 0
168 185 0
167 184 0
167 184 0
167 186 0
164 184 0
164 182 0
174 197 0
174 197 0
171 195 0
172 195 0
171 193 0
172 195 0
173 196 0
171 194 0
174 197 0
174 197 0
174 197 0
172 196 0
170 194 0
174 196 0
173 195 0
172 194 0
175 198 0
171 193 0
173 197 0
174 197 0
173 196 0
174 197 0
174 197 0
174 197 51
174 196 25
181 202 84
176 196 95
182 204 99
184 204 114
182 202 88
181 203 92
183 204 108
173 195 51
174 197 25
171 194 0
175 197 44
174 196 25
174 196 44
173 195 36
173 195 25
172 194 0
176 197 57
174 196 44
177 199 62
173 194 57
176 197 44
170 191 44
173 194 36
171 193 36
175 196 57
176 197 36
177 198 25
174 196 25
176 197 51
175 196 51
174 195 44
175 196 25
172 193 36
171 192 25
170 192 36
175 196 36
171 192 44
172 193 44
174 194 51
174 195 36
174 194 36
170 192 36
166 187 36
173 195 51
169 189 72
171 191 57
170 190 51
170 192 36
176 196 84
175 193 76
175 194 67
172 192 25
167 187 0
172 193 0
159 179 0
167 187 0
166 188 0
170 191 0
167 188 0
168 189 0
165 186 0
166 186 0
165 187 0
162 184 0
163 184 0
161 182 0
159 179 0
158 179 0
162 184 0
161 181 0
162 183 0
157 178 0
161 182 0
157 178 0
163 185 0
159 180 0
164 184 0
159 180 0
159 180 0
158 180 0
164 185 0
153 176 0
161 182 0
154 176 0
164 185 0
166 187 0
153 175 0
158 180 0
158 179 0
156 177 0
156 177 0
157 177 0
153 175 0
154 175 0
149 170 0
162 183 0
157 178 0
155 177 0
148 170 0
154 174 0
158 180 0
155 177 0
153 174 0
151 173 0
154 175 0
153 175 0
147 168 0
157 179 0
151 172 0
154 175 0
149 171 0
151 172 0
152 174 0
146 167 0
143 164 0
152 174 0
152 173 0
155 177 0
152 174 0
140 162 0
141 162 0
143 165 0
139 160 0
152 174 0
138 160 0
143 165 0
136 157 0
146 167 0
139 161 0
142 164 0
128 148 0
136 158 0
141 161 0
138 159 0
138 158 0
123 143 0
137 157 0
132 153 0
126 146 0
137 158 0
145 165 0
135 155 0
130 151 0
128 147 0
125 144 0
129 149 0
129 150 0
121 139 0
118 138 0
123 142 0
122 142 0
123 141 0
124 142 0
115 135 0
121 140 0
124 143 0
117 134 0
116 133 0
125 142 0
122 141 0
103 121 0
113 132 0
121 140 0
114 132 0
107 126 0
108 126 0
115 133 0
120 138 0
104 120 0
112 127 0
112 130 0
111 129 0
113 130 0
111 128 0
98 114 0
116 133 0
111 129 0
111 128 0
111 126 0
104 120 0
108 123 0
110 127 0
103 120 0
104 120 0
104 122 0
115 130 0
100 115 0
115 130 0
119 135 0
109 125 0
97 112 0
104 118 0
107 124 0
98 115 0
113 127 0
111 127 0
110 126 0
107 124 0
117 132 0
124 141 0
122 137 0
120 136 0
104 118 0
106 120 0
110 128 0
127 145 0
117 132 0
117 132 0
118 134 0
116 132 0
131 147 0
126 144 0
116 132 0
122 136 0
120 134 0
119 135 0
119 136 0
122 137 0
113 129 0
117 132 0
131 148 0
114 128 0
127 143 0
119 135 0
129 146 0
118 132 0
124 139 0
121 135 0
123 138 0
129 144 0
126 141 0
126 139 0
129 143 0
132 146 0
119 133 0
132 145 0
128 141 0
136 150 0
135 150 0
118 129 0
127 138 0
131 143 0
129 143 0
129 142 0
120 130 0
122 132 0
127 141 0
127 140 0
132 141 0
114 123 0
118 130 0
127 137 0
133 143 0
128 139 0
122 130 0
127 136 0
132 142 0
123 134 0
117 125 0
121 130 0
127 133 0
120 125 0
119 124 0
129 137 0
118 125 0
127 135 0
127 131 0
128 134 0
112 114 0
113 115 0
122 126 0
113 113 0
120 122 0
118 122 0
113 112 0
118 122 0
119 120 0
110 109 0
107 108 0
104 103 0
109 106 0
110 109 0
108 104 0
98 93 0
106 103 0
118 113 0
103 96 0
97 93 0
91 86 0
105 100 0
92 86 0
96 93 0
92 87 0
87 77 0
92 85 0
85 78 0
91 82 0
106 101 0
93 88 0
91 84 0
88 77 0
92 83 0
79 69 0
79 69 0
88 75 0
95 84 11
81 71 0
85 74 11
91 81 11
87 75 0
94 84 0
103 91 16
87 78 0
94 84 11
103 93 11
104 94 16
115 104 25
105 96 19
99 89 16
97 88 11
108 99 11
93 83 11
101 94 16
104 95 11
110 101 19
103 97 19
105 94 22
105 97 0
105 96 11
91 83 16
101 92 16
103 92 19
99 90 22
97 89 11
92 85 0
95 89 19
108 102 22
102 96 19
99 89 11
108 99 30
110 102 30
110 102 25
100 93 25
108 101 25
112 105 30
100 93 32
119 115 28
115 114 19
125 123 22
138 145 0
155 166 16
155 167 11
166 180 0
161 174 0
155 168 0
163 176 0
155 167 0
160 176 0
164 177 0
159 174 0
162 178 0
163 180 0
159 175 0
163 180 0
160 178 0
165 182 0
163 180 0
168 187 0
162 179 0
166 182 0
163 181 0
166 183 0
164 181 0
166 183 0
168 187 0
173 196 0
171 195 0
172 196 0
175 198 0
173 196 0
172 195 0
175 197 0
172 195 0
174 196 0
172 196 0
173 196 0
174 197 0
174 197 0
171 195 0
171 194 0
173 195 0
175 198 0
174 197 0
172 194 0
171 193 0
173 196 0
172 195 0
174 196 0
173 196 0
175 197 0
174 196 0
170 193 0
173 196 0
175 196 0
174 196 25
174 195 57
176 197 84
178 199 88
176 197 92
177 198 84
179 200 84
178 199 88
178 199 67
181 202 88
172 194 72
181 202 102
178 199 72
176 198 62
172 195 72
177 198 62
175 197 36
170 192 36
170 192 0
171 192 44
176 198 44
169 191 36
175 196 36
172 194 36
171 193 0
171 193 25
178 198 44
174 195 44
177 197 62
176 197 72
176 197 62
178 199 76
175 195 72
175 196 62
175 196 88
176 198 76
171 191 72
177 197 72
180 200 84
178 197 84
176 196 51
166 187 0
169 190 0
166 187 0
171 191 0
169 190 0
165 186 0
168 189 0
170 191 0
166 186 0
174 193 0
167 188 0
161 182 0
169 190 0
165 186 0
172 193 0
170 191 0
162 183 0
171 191 0
158 178 0
163 184 0
163 184 0
162 183 0
163 184 0
158 179 0
160 181 0
165 186 0
160 181 0
162 183 0
163 184 0
159 181 0
167 187 0
164 185 0
167 187 0
154 176 0
160 181 0
161 182 0
155 177 0
162 183 0
159 180 0
154 176 0
153 175 0
162 184 0
159 180 0
159 181 0
153 175 0
150 171 0
154 176 0
156 176 0
158 180 0
155 177 0
148 169 0
151 173 0
155 177 0
160 183 0
157 178 0
156 177 0
157 179 0
160 182 0
155 177 0
151 172 0
150 172 0
155 177 0
158 180 0
146 168 0
153 175 0
148 170 0
140 161 0
146 168 0
141 162 0
150 172 0
152 173 0
141 162 0
149 171 0
161 183 0
149 172 0
140 162 0
148 169 0
137 158 0
136 159 0
140 161 0
140 160 0
137 159 0
139 160 0
146 167 0
143 165 0
140 160 0
134 155 0
143 164 0
141 162 0
148 168 0
136 156 0
143 164 0
136 157 0
143 164 0
136 156 0
129 150 0
138 158 0
128 148 0
133 154 0
126 146 0
131 151 0
125 145 0
126 146 0
129 149 0
136 156 0
111 131 0
121 141 0
114 134 0
118 137 0
119 137 0
125 143 0
125 144 0
124 143 0
120 139 0
112 132 0
128 146 0
120 139 0
101 120 0
108 127 0
112 131 0
124 143 0
119 136 0
117 135 0
109 127 0
120 138 0
112 130 0
105 123 0
118 136 0
99 116 0
104 120 0
114 131 0
105 124 0
117 132 0
119 135 0
119 137 0
113 129 0
129 147 0
104 121 0
112 130 0
112 130 0
101 118 0
116 134 0
115 132 0
121 138 0
115 131 0
110 127 0
108 125 0
122 140 0
111 127 0
114 130 0
119 134 0
123 138 0
120 137 0
117 133 0
110 124 0
120 136 0
125 143 0
116 132 0
112 128 0
121 138 0
113 129 0
125 139 0
117 135 0
124 142 0
125 143 0
126 143 0
115 129 0
128 143 0
120 137 0
129 145 0
122 137 0
122 137 0
118 134 0
125 142 0
121 135 0
125 138 0
121 136 0
127 143 0
121 137 0
121 135 0
130 147 0
123 138 0
124 140 0
115 127 0
123 138 0
130 144 0
126 142 0
137 151 0
126 141 0
129 144 0
119 133 0
135 150 0
123 136 0
123 137 0
122 135 0
127 142 0
124 137 0
129 141 0
123 136 0
119 131 0
116 128 0
133 144 0
120 128 0
131 144 0
114 126 0
122 133 0
124 136 0
128 138 0
125 134 0
113 122 0
118 125 0
114 120 0
126 135 0
121 127 0
132 142 0
131 144 0
122 129 0
119 128 0
127 135 0
112 119 0
123 130 0
117 123 0
131 136 0
111 114 0
119 123 0
116 121 0
123 126 0
114 119 0
113 115 0
117 121 0
123 126 0
124 126 0
106 107 0
115 116 0
113 114 0
107 110 0
106 108 0
108 105 0
118 118 0
113 115 0
117 116 0
108 107 0
100 98 0
104 100 0
99 94 0
97 94 0
97 92 0
101 98 0
93 89 0
98 95 0
92 87 0
100 92 0
112 108 0
108 106 0
91 84 0
97 90 0
92 86 0
96 87 0
116 112 0
92 86 0
109 106 0
89 85 0
102 91 0
97 87 16
85 77 0
94 82 0
105 97 11
84 74 0
88 78 16
86 79 0
99 88 0
87 79 11
84 76 0
86 74 0
98 87 0
85 77 11
106 97 19
110 101 11
89 82 11
98 90 16
93 85 22
94 86 22
106 96 22
99 90 19
93 83 16
108 100 22
99 90 16
96 88 16
94 86 22
103 94 16
102 92 22
101 95 11
110 104 19
95 93 16
115 112 0
116 117 0
125 125 16
130 133 19
143 148 0
140 145 0
144 151 0
154 164 0
156 167 0
162 173 0
156 165 0
153 166 0
154 165 0
160 171 0
160 173 0
153 164 0
158 170 0
155 168 0
160 174 0
164 181 0
160 176 0
164 179 0
162 178 0
159 175 0
163 178 0
158 175 0
165 182 0
169 184 0
166 185 0
166 184 0
162 177 0
164 182 0
161 176 0
167 187 0
165 182 0
162 179 0
174 197 0
172 195 0
175 197 0
170 194 0
172 196 0
174 197 0
172 195 0
170 193 0
172 195 0
171 194 0
173 196 0
173 196 0
173 197 0
172 195 0
175 197 0
175 197 0
175 197 0
171 194 0
173 196 0
175 197 0
174 196 0
174 197 0
171 194 0
174 197 0
175 198 0
173 196 0
173 194 0
173 195 0
171 194 0
175 197 0
169 192 0
172 194 0
170 193 0
173 195 0
175 197 0
174 196 0
173 195 0
175 196 0
172 194 0
175 196 36
173 195 51
173 195 51
177 198 36
173 194 57
177 198 51
179 200 72
177 198 72
180 200 88
182 202 92
179 199 88
181 201 76
180 200 76
181 201 80
181 201 76
177 197 67
177 197 62
175 195 72
173 194 51
168 189 51
170 191 25
177 197 44
176 196 0
171 192 0
171 192 0
168 188 0
164 185 0
170 191 0
172 193 0
174 194 0
171 192 0
170 191 0
169 190 0
169 191 0
167 189 0
170 190 0
172 192 0
170 191 0
164 185 0
171 192 0
170 191 0
166 187 0
165 185 0
171 192 0
163 183 0
167 187 0
164 185 0
167 188 0
158 180 0
166 187 0
161 182 0
169 190 0
167 187 0
157 178 0
163 184 0
158 179 0
164 185 0
170 190 0
165 187 0
159 180 0
158 179 0
151 173 0
158 180 0
159 180 0
163 184 0
158 180 0
159 180 0
159 181 0
155 177 0
154 175 0
155 176 0
163 184 0
160 181 0
155 177 0
157 179 0
150 171 0
164 184 0
149 170 0
156 178 0
151 172 0
159 181 0
158 178 0
147 169 0
149 171 0
154 176 0
149 171 0
156 178 0
151 171 0
155 178 0
150 172 0
151 173 0
150 173 0
156 177 0
153 175 0
147 168 0
148 171 0
149 171 0
134 156 0
143 165 0
152 174 0
157 179 0
157 179 0
148 169 0
149 170 0
144 167 0
147 169 0
142 164 0
144 165 0
148 170 0
140 161 0
138 159 0
142 162 0
131 152 0
141 162 0
150 171 0
132 154 0
140 161 0
143 163 0
137 158 0
140 161 0
138 159 0
133 154 0
138 158 0
126 147 0
136 154 0
132 152 0
130 151 0
139 159 0
133 153 0
130 150 0
126 146 0
125 144 0
134 153 0
127 147 0
128 147 0
124 143 0
119 139 0
129 149 0
133 153 0
124 141 0
129 148 0
129 148 0
120 139 0
128 148 0
121 139 0
130 148 0
123 142 0
119 138 0
114 132 0
119 137 0
118 137 0
106 125 0
125 144 0
124 143 0
133 152 0
118 136 0
111 130 0
113 131 0
118 137 0
112 130 0
109 126 0
111 129 0
115 131 0
111 129 0
112 130 0
126 143 0
117 135 0
102 117 0
106 124 0
123 140 0
103 119 0
110 127 0
120 137 0
118 134 0
121 139 0
110 125 0
116 133 0
115 132 0
115 131 0
112 129 0
109 126 0
117 133 0
128 146 0
115 130 0
113 129 0
111 127 0
119 136 0
120 136 0
118 135 0
133 150 0
113 129 0
112 127 0
127 145 0
117 133 0
126 142 0
123 141 0
118 133 0
120 137 0
110 124 0
129 144 0
122 140 0
124 139 0
133 147 0
124 140 0
115 131 0
130 148 0
128 143 0
129 145 0
132 148 0
128 143 0
119 135 0
134 149 0
131 145 0
127 143 0
126 142 0
131 144 0
128 145 0
130 147 0
139 153 0
132 148 0
124 139 0
117 132 0
126 140 0
133 146 0
129 142 0
131 145 0
132 145 0
124 138 0
134 146 0
123 136 0
135 150 0
125 138 0
130 143 0
133 145 0
130 140 0
127 139 0
128 140 0
120 132 0
117 126 0
118 127 0
126 135 0
123 132 0
131 140 0
123 132 0
127 137 0
131 139 0
124 132 0
118 128 0
130 138 0
130 140 0
122 131 0
127 137 0
127 132 0
124 131 0
111 119 0
124 130 0
114 117 0
127 133 0
119 121 0
117 121 0
112 115 0
118 122 0
114 118 0
113 111 0
120 123 0
107 106 0
103 103 0
123 123 0
123 121 0
107 105 0
105 106 0
108 105 0
112 109 0
103 99 0
104 103 0
108 103 0
108 108 0
107 105 0
112 111 0
109 106 0
96 92 0
111 107 0
99 97 0
107 103 0
110 104 0
111 105 0
112 109 0
106 101 0
107 102 0
95 89 0
107 101 0
105 100 0
101 95 0
106 101 0
104 97 0
112 111 0
104 98 0
119 116 0
119 118 0
110 104 0
113 107 11
109 103 0
112 109 0
107 101 0
107 101 11
115 111 16
119 115 0
107 103 11
118 116 11
119 117 0
110 106 0
115 112 11
116 113 0
120 118 0
122 122 0
120 118 11
128 127 11
130 134 0
125 128 16
127 130 0
139 142 0
141 143 0
144 150 0
146 150 0
140 145 0
153 160 0
144 150 0
149 155 0
149 153 0
162 174 0
145 151 0
149 158 0
153 162 0
151 161 0
160 169 0
159 171 0
157 168 0
152 166 0
153 164 0
156 168 0
150 162 0
156 170 0
158 173 0
164 179 0
156 168 0
161 174 0
163 175 0
163 175 0
162 178 0
160 176 0
161 177 0
161 176 0
162 178 0
164 179 0
161 176 0
164 182 0
165 180 0
167 184 0
164 182 0
168 187 0
165 181 0
172 195 0
173 196 0
171 193 0
171 194 0
174 196 0
173 196 0
171 194 0
171 194 0
174 197 0
170 193 0
174 197 0
170 193 0
173 196 0
175 198 0
174 197 0
173 196 0
174 196 0
173 196 0
172 195 0
172 195 0
174 196 0
174 196 0
172 195 0
175 198 0
175 197 0
175 197 0
174 196 0
175 197 0
176 197 0
169 191 0
173 196 0
174 196 0
172 194 0
174 196 0
170 192 0
175 196 0
175 196 0
171 193 0
171 193 0
175 196 0
175 197 0
172 193 0
173 194 0
173 195 0
170 193 0
173 194 0
176 197 0
170 192 0
175 195 0
176 197 0
169 190 0
175 196 0
171 191 0
174 194 0
174 194 0
169 190 0
169 190 0
171 192 0
170 191 0
171 192 0
173 194 0
167 189 0
173 194 0
162 183 0
168 189 0
172 192 0
167 188 0
170 190 0
166 187 0
169 189 0
171 192 0
168 189 0
164 185 0
164 185 0
169 189 0
164 184 0
164 185 0
169 190 0
167 187 0
167 188 0
164 184 0
164 185 0
161 182 0
161 181 0
165 186 0
166 188 0
168 189 0
162 183 0
162 182 0
165 186 0
165 186 0
161 183 0
160 180 0
166 187 0
162 184 0
163 184 0
161 182 0
156 178 0
163 184 0
163 184 0
158 180 0
157 179 0
166 187 0
157 178 0
160 181 0
157 178 0
157 179 0
158 180 0
162 184 0
160 182 0
158 179 0
155 176 0
161 182 0
157 179 0
152 173 0
156 178 0
150 172 0
158 180 0
158 181 0
159 180 0
151 172 0
156 178 0
149 170 0
151 174 0
157 180 0
157 178 0
159 181 0
156 178 0
158 179 0
147 169 0
154 175 0
156 177 0
149 171 0
147 168 0
147 169 0
150 171 0
149 171 0
150 171 0
146 167 0
153 174 0
153 174 0
142 165 0
135 157 0
149 170 0
146 167 0
141 163 0
145 167 0
132 153 0
146 168 0
141 163 0
138 159 0
141 163 0
131 153 0
148 169 0
147 169 0
143 164 0
149 170 0
147 167 0
131 151 0
141 162 0
132 153 0
133 154 0
135 156 0
128 147 0
130 150 0
131 151 0
125 144 0
127 147 0
129 150 0
139 160 0
135 155 0
138 158 0
125 145 0
130 151 0
132 153 0
141 161 0
127 147 0
115 135 0
134 155 0
129 149 0
120 140 0
122 141 0
130 149 0
118 137 0
117 136 0
123 142 0
126 146 0
116 136 0
117 135 0
123 142 0
124 142 0
108 126 0
111 130 0
119 138 0
126 144 0
122 141 0
122 141 0
105 120 0
130 149 0
114 132 0
112 129 0
107 125 0
121 140 0
122 139 0
100 116 0
120 138 0
114 131 0
126 144 0
110 128 0
118 135 0
110 128 0
107 124 0
131 147 0
117 135 0
123 141 0
121 138 0
132 150 0
125 143 0
114 131 0
126 142 0
115 132 0
123 142 0
120 138 0
118 134 0
123 141 0
120 136 0
121 135 0
122 140 0
128 145 0
131 149 0
127 145 0
113 129 0
133 149 0
126 141 0
120 137 0
132 148 0
122 139 0
125 142 0
122 138 0
128 145 0
113 129 0
130 147 0
124 140 0
133 148 0
120 136 0
119 134 0
123 139 0
127 142 0
129 145 0
120 137 0
132 148 0
123 139 0
133 149 0
132 146 0
129 144 0
135 150 0
139 157 0
118 133 0
132 147 0
119 133 0
123 137 0
120 133 0
128 143 0
127 141 0
133 148 0
128 140 0
130 145 0
119 130 0
127 141 0
131 143 0
130 143 0
139 153 0
130 140 0
134 146 0
130 141 0
125 135 0
135 148 0
124 138 0
133 147 0
131 143 0
120 130 0
126 138 0
129 136 0
125 135 0
126 135 0
128 137 0
123 132 0
131 136 0
127 135 0
121 126 0
120 128 0
124 132 0
129 136 0
132 141 0
122 126 0
128 133 0
118 124 0
119 127 0
130 135 0
115 120 0
122 125 0
120 122 0
119 125 0
116 119 0
125 126 0
120 125 0
115 119 0
119 120 0
121 123 0
116 118 0
120 121 0
121 123 0
105 105 0
124 124 0
110 107 0
121 120 0
105 104 0
108 106 0
120 119 0
108 105 0
113 108 0
112 110 0
110 107 0
112 110 0
106 101 0
113 109 0
113 108 0
110 107 0
95 88 0
112 109 0
96 92 0
102 98 0
114 112 0
114 112 0
104 97 0
112 107 0
106 100 0
114 112 0
103 98 0
116 113 0
117 113 0
118 115 0
125 125 0
117 114 0
125 124 0
119 119 0
119 118 0
131 129 0
132 135 0
132 133 0
133 133 0
137 138 0
123 124 0
146 147 0
135 136 0
132 133 0
147 149 0
135 138 0
141 143 0
149 155 0
139 142 0
146 152 0
137 142 0
147 151 0
150 158 0
152 160 0
148 154 0
149 156 0
150 159 0
146 156 0
154 161 0
156 164 0
149 159 0
151 159 0
155 165 0
158 170 0
156 165 0
153 165 0
162 175 0
157 168 0
155 167 0
158 169 0
160 174 0
156 165 0
158 169 0
164 177 0
161 174 0
163 177 0
166 180 0
157 171 0
163 176 0
161 176 0
163 178 0
163 178 0
166 183 0
162 178 0
162 179 0
165 181 0
166 184 0
166 183 0
174 197 0
173 196 0
172 195 0
171 195 0
173 195 0
171 194 0
174 197 0
175 197 0
175 197 0
173 196 0
173 196 0
171 194 0
174 197 0
173 195 0
170 193 0
171 194 0
173 195 0
171 193 0
171 194 0
171 194 0
174 196 0
170 193 0
177 199 0
172 195 0
173 195 0
173 195 0
175 197 0
171 193 0
174 196 0
172 194 0
170 192 0
175 197 0
172 194 0
174 195 0
175 196 0
176 197 0
169 191 0
170 192 0
174 195 0
171 193 0
173 195 0
172 193 0
170 192 0
171 192 0
175 196 0
174 196 0
170 192 0
172 193 0
173 194 0
174 194 0
173 195 0
169 189 0
173 194 0
171 192 0
172 193 0
168 189 0
170 191 0
168 189 0
168 187 0
169 190 0
174 195 0
173 193 0
170 192 0
167 189 0
171 191 0
170 191 0
172 192 0
174 194 0
167 187 0
169 190 0
169 189 0
173 194 0
167 189 0
168 188 0
167 188 0
167 188 0
165 187 0
167 187 0
164 184 0
169 189 0
166 188 0
163 185 0
160 181 0
162 183 0
163 183 0
161 182 0
162 183 0
168 189 0
164 184 0
162 183 0
159 180 0
160 180 0
167 188 0
155 176 0
159 180 0
165 186 0
153 175 0
164 186 0
156 177 0
159 181 0
155 176 0
160 182 0
153 174 0
161 182 0
158 179 0
159 180 0
165 187 0
155 176 0
150 172 0
155 176 0
149 172 0
152 173 0
155 178 0
156 178 0
152 173 0
158 180 0
158 180 0
157 178 0
151 173 0
152 174 0
158 179 0
151 173 0
154 175 0
149 171 0
152 174 0
155 177 0
154 176 0
144 166 0
152 174 0
149 171 0
150 172 0
149 170 0
149 171 0
143 166 0
154 176 0
150 171 0
153 175 0
152 174 0
142 163 0
145 167 0
147 169 0
148 170 0
138 160 0
145 167 0
149 170 0
141 163 0
144 166 0
139 160 0
150 172 0
139 160 0
138 159 0
152 173 0
147 167 0
145 166 0
147 168 0
137 159 0
139 161 0
139 160 0
139 161 0
137 158 0
135 156 0
133 155 0
135 156 0
135 155 0
128 148 0
139 161 0
135 156 0
135 156 0
133 154 0
134 155 0
128 147 0
118 139 0
135 155 0
133 153 0
125 146 0
127 147 0
128 147 0
131 152 0
128 148 0
134 153 0
123 143 0
118 137 0
134 153 0
124 143 0
121 141 0
132 150 0
124 144 0
125 145 0
121 139 0
112 131 0
118 138 0
102 119 0
119 137 0
124 143 0
134 153 0
132 151 0
126 145 0
125 143 0
110 128 0
113 132 0
120 139 0
119 138 0
121 138 0
119 137 0
120 137 0
129 150 0
120 138 0
118 136 0
124 142 0
115 133 0
117 135 0
127 145 0
121 137 0
124 140 0
121 139 0
126 142 0
117 134 0
128 147 0
112 129 0
126 143 0
114 130 0
122 139 0
109 126 0
128 145 0
116 132 0
117 135 0
125 142 0
132 147 0
110 128 0
121 137 0
131 150 0
116 131 0
118 135 0
129 146 0
116 134 0
122 139 0
122 139 0
124 141 0
125 142 0
132 151 0
117 132 0
122 137 0
126 142 0
130 145 0
125 140 0
128 144 0
127 143 0
128 145 0
128 145 0
131 150 0
131 148 0
124 138 0
131 147 0
121 137 0
126 140 0
130 147 0
126 142 0
125 141 0
132 147 0
119 132 0
129 144 0
129 143 0
130 145 0
130 145 0
132 147 0
133 148 0
132 147 0
128 142 0
129 141 0
136 151 0
128 143 0
129 144 0
130 143 0
138 151 0
119 132 0
119 132 0
132 146 0
127 136 0
132 145 0
127 138 0
126 135 0
128 141 0
126 139 0
135 146 0
136 147 0
131 143 0
119 130 0
129 138 0
131 142 0
120 128 0
126 133 0
128 135 0
129 137 0
128 135 0
125 130 0
127 136 0
132 140 0
121 129 0
131 140 0
126 134 0
121 129 0
128 134 0
119 121 0
119 122 0
125 131 0
119 120 0
123 125 0
111 113 0
113 117 0
123 125 0
123 126 0
128 129 0
122 126 0
113 112 0
125 124 0
112 111 0
124 122 0
107 106 0
116 111 0
102 101 0
116 117 0
114 109 0
110 108 0
110 107 0
114 114 0
107 103 0
104 100 0
119 118 0
114 113 0
114 109 0
106 101 0
117 112 0
108 105 0
108 106 0
114 108 0
116 115 0
112 110 0
112 108 0
112 107 0
120 114 0
110 103 0
106 101 0
127 122 0
107 103 0
121 120 0
128 125 0
122 121 0
134 133 0
127 126 0
135 134 0
131 131 0
135 135 0
138 137 0
134 134 0
138 138 0
144 146 0
136 139 0
132 132 0
134 138 0
141 147 0
142 146 0
142 147 0
144 148 0
149 155 0
137 143 0
146 153 0
146 151 0
154 163 0
149 156 0
148 156 0
147 156 0
151 161 0
155 165 0
151 159 0
144 149 0
151 160 0
161 172 0
150 160 0
158 170 0
165 178 0
156 165 0
155 165 0
159 170 0
162 176 0
161 171 0
157 171 0
158 171 0
161 171 0
159 170 0
163 179 0
160 175 0
162 175 0
163 178 0
162 177 0
165 180 0
164 180 0
165 182 0
164 181 0
164 179 0
165 179 0
171 194 0
171 195 0
171 195 0
170 194 0
172 195 0
174 196 0
173 196 0
170 193 0
172 195 0
175 197 0
173 195 0
174 196 0
177 199 0
168 192 0
173 195 0
169 191 0
172 195 0
173 195 0
172 195 0
175 197 0
175 197 0
175 198 0
167 190 0
172 194 0
172 194 0
171 193 0
173 195 0
173 194 0
175 197 0
176 198 0
174 196 0
173 195 0
174 196 0
173 194 0
175 197 0
171 193 0
174 196 0
175 196 0
174 195 0
172 194 0
170 191 0
174 195 0
172 194 0
175 195 0
172 193 0
170 192 0
171 192 0
173 194 0
172 193 0
173 194 0
168 190 0
173 194 0
169 190 0
173 193 0
169 190 0
172 193 0
176 196 0
167 188 0
169 190 0
170 191 0
174 194 0
173 194 0
170 191 0
174 195 0
164 184 0
167 187 0
167 188 0
170 191 0
172 193 0
171 190 0
165 185 0
166 186 0
165 185 0
168 188 0
168 189 0
168 189 0
164 186 0
166 187 0
160 181 0
162 183 0
158 179 0
162 184 0
167 188 0
166 187 0
165 187 0
166 187 0
163 185 0
164 185 0
159 180 0
160 182 0
163 185 0
155 176 0
160 182 0
163 185 0
159 181 0
155 177 0
159 181 0
161 184 0
166 188 0
161 182 0
161 182 0
160 181 0
164 185 0
160 181 0
159 182 0
154 177 0
154 175 0
162 184 0
153 175 0
148 170 0
160 183 0
161 184 0
155 176 0
158 181 0
156 178 0
162 184 0
157 179 0
155 177 0
161 184 0
152 173 0
158 181 0
153 176 0
150 172 0
147 168 0
151 173 0
158 180 0
153 174 0
144 167 0
149 171 0
152 174 0
140 161 0
156 177 0
150 172 0
151 172 0
152 173 0
156 178 0
154 176 0
147 169 0
150 172 0
153 174 0
154 175 0
145 167 0
144 166 0
151 172 0
145 167 0
152 173 0
148 169 0
145 167 0
143 166 0
145 167 0
141 163 0
149 169 0
141 163 0
136 157 0
140 161 0
152 173 0
142 164 0
145 167 0
140 160 0
144 165 0
143 164 0
141 162 0
140 160 0
132 154 0
136 157 0
135 155 0
134 156 0
143 163 0
138 159 0
131 152 0
132 153 0
131 151 0
135 155 0
131 150 0
134 154 0
130 151 0
127 147 0
130 150 0
129 148 0
129 148 0
125 145 0
121 141 0
120 140 0
135 155 0
120 140 0
120 138 0
128 148 0
126 145 0
121 141 0
130 150 0
123 141 0
119 137 0
126 147 0
123 141 0
129 148 0
124 143 0
124 143 0
121 139 0
124 144 0
115 134 0
123 142 0
127 146 0
122 141 0
137 156 0
119 139 0
130 149 0
119 137 0
118 137 0
132 151 0
128 147 0
117 134 0
116 133 0
124 142 0
123 138 0
127 145 0
121 138 0
131 150 0
124 143 0
126 144 0
121 138 0
112 131 0
129 145 0
124 142 0
121 139 0
123 139 0
130 146 0
128 145 0
121 137 0
126 142 0
127 143 0
129 146 0
127 145 0
116 132 0
129 147 0
129 147 0
125 142 0
134 151 0
125 141 0
117 136 0
120 136 0
126 144 0
128 145 0
124 140 0
129 146 0
132 148 0
130 146 0
126 142 0
125 141 0
136 153 0
125 139 0
125 139 0
122 140 0
124 140 0
137 153 0
135 151 0
130 146 0
130 146 0
129 147 0
118 133 0
127 142 0
134 151 0
138 153 0
132 148 0
132 147 0
136 151 0
128 144 0
135 149 0
135 149 0
133 148 0
132 146 0
135 148 0
127 138 0
130 142 0
122 137 0
128 141 0
137 151 0
128 140 0
127 138 0
129 144 0
132 144 0
120 130 0
135 146 0
129 141 0
133 146 0
128 138 0
130 140 0
128 136 0
128 139 0
131 137 0
133 143 0
124 134 0
138 149 0
122 131 0
128 137 0
130 135 0
131 135 0
128 136 0
137 145 0
124 130 0
119 126 0
127 134 0
124 129 0
120 122 0
129 134 0
118 121 0
122 125 0
128 132 0
136 142 0
118 122 0
121 124 0
127 133 0
124 126 0
128 131 0
129 131 0
127 128 0
123 126 0
117 117 0
123 122 0
113 113 0
127 126 0
113 111 0
110 108 0
106 103 0
113 111 0
109 110 0
112 108 0
104 101 0
116 114 0
113 109 0
116 115 0
109 104 0
118 116 0
112 109 0
108 105 0
114 112 0
117 113 0
112 109 0
126 125 0
120 117 0
120 119 0
124 120 0
123 119 0
127 125 0
116 114 0
117 112 0
126 126 0
126 126 0
120 116 0
135 131 0
125 121 0
123 119 0
129 126 0
128 126 0
128 127 0
141 142 0
141 142 0
139 141 0
139 141 0
144 147 0
142 145 0
139 141 0
138 143 0
145 148 0
143 144 0
144 149 0
141 146 0
141 146 0
151 159 0
148 155 0
151 156 0
147 154 0
156 164 0
153 162 0
148 155 0
155 165 0
150 156 0
155 165 0
157 167 0
150 158 0
154 166 0
152 160 0
160 170 0
157 169 0
157 169 0
157 167 0
154 165 0
160 174 0
163 179 0
162 176 0
166 183 0
167 183 0
163 177 0
160 174 0
157 170 0
157 170 0
160 174 0
156 172 0
161 175 0
166 184 0
163 179 0
171 194 0
169 192 0
171 194 0
172 194 0
173 196 0
172 195 0
173 196 0
175 198 0
175 197 0
169 192 0
172 194 0
175 197 0
171 195 0
171 194 0
175 196 0
174 197 0
173 195 0
172 195 0
170 192 0
172 195 0
173 196 0
172 195 0
172 194 0
174 196 0
172 194 0
173 195 0
177 198 0
170 191 0
174 195 0
174 196 0
171 192 0
171 193 0
173 195 0
173 194 0
172 192 0
170 192 0
173 194 0
174 196 0
174 196 0
170 192 0
175 196 0
176 197 0
173 194 0
172 193 0
174 195 0
170 192 0
172 193 0
170 191 0
170 191 0
174 195 0
171 192 0
175 196 0
172 192 0
170 191 0
173 194 0
170 191 0
170 190 0
172 193 0
170 192 0
171 191 0
172 192 0
168 189 0
174 194 0
172 194 0
170 191 0
168 189 0
168 189 0
169 188 0
168 189 0
170 192 0
163 184 0
168 188 0
170 192 0
167 188 0
168 190 0
166 186 0
169 189 0
167 189 0
166 186 0
167 188 0
169 190 0
160 182 0
164 186 0
169 190 0
163 184 0
166 188 0
168 188 0
165 185 0
164 185 0
166 187 0
163 185 0
160 182 0
158 179 0
165 186 0
158 180 0
159 181 0
161 183 0
160 181 0
164 185 0
162 184 0
161 183 0
164 186 0
160 182 0
156 178 0
150 172 0
153 175 0
152 174 0
161 183 0
160 182 0
161 182 0
161 182 0
159 181 0
157 179 0
158 181 0
160 181 0
165 186 0
156 178 0
153 174 0
158 179 0
149 171 0
156 179 0
158 180 0
152 175 0
160 182 0
150 172 0
160 181 0
157 179 0
154 174 0
153 175 0
149 171 0
148 171 0
158 180 0
155 177 0
160 181 0
149 171 0
142 165 0
146 168 0
150 171 0
148 170 0
149 171 0
142 165 0
149 172 0
152 175 0
148 170 0
148 169 0
146 167 0
151 173 0
140 162 0
142 163 0
145 165 0
142 164 0
153 174 0
140 162 0
149 171 0
145 168 0
146 167 0
137 158 0
136 157 0
137 158 0
149 171 0
133 154 0
136 156 0
140 161 0
147 168 0
147 168 0
133 153 0
132 153 0
138 159 0
136 157 0
129 149 0
131 151 0
130 152 0
134 155 0
131 151 0
137 158 0
135 156 0
134 154 0
135 156 0
124 144 0
127 147 0
129 148 0
122 141 0
119 139 0
131 150 0
128 150 0
119 138 0
130 150 0
123 142 0
129 150 0
122 140 0
126 145 0
130 150 0
124 144 0
131 152 0
126 145 0
128 147 0
118 138 0
129 148 0
129 147 0
124 143 0
127 146 0
123 142 0
121 140 0
133 152 0
128 147 0
126 144 0
122 140 0
127 146 0
126 145 0
127 144 0
126 143 0
123 141 0
141 160 0
132 150 0
125 144 0
112 131 0
125 144 0
130 148 0
131 150 0
123 140 0
127 145 0
112 129 0
122 140 0
139 156 0
133 153 0
119 138 0
121 137 0
130 146 0
135 153 0
126 144 0
123 140 0
137 155 0
121 139 0
126 142 0
125 143 0
134 151 0
129 149 0
126 143 0
135 151 0
136 154 0
123 141 0
123 141 0
132 149 0
132 148 0
124 139 0
132 151 0
134 150 0
131 147 0
139 156 0
121 136 0
128 143 0
133 150 0
129 144 0
127 145 0
138 154 0
133 149 0
121 135 0
125 140 0
127 143 0
127 144 0
139 153 0
125 141 0
130 146 0
141 155 0
131 145 0
132 147 0
135 152 0
143 157 0
138 153 0
133 149 0
127 138 0
139 153 0
132 144 0
125 139 0
140 156 0
136 149 0
125 136 0
121 134 0
137 151 0
136 148 0
137 149 0
133 143 0
129 143 0
134 147 0
130 143 0
127 136 0
132 141 0
131 142 0
131 141 0
137 147 0
133 143 0
131 139 0
128 140 0
129 138 0
120 129 0
129 138 0
130 138 0
124 128 0
128 135 0
137 142 0
123 129 0
132 141 0
124 131 0
136 142 0
126 132 0
120 125 0
127 131 0
117 121 0
127 134 0
118 121 0
131 135 0
125 130 0
126 130 0
124 124 0
131 132 0
127 130 0
115 115 0
106 105 0
119 118 0
125 126 0
128 130 0
123 128 0
125 128 0
121 120 0
116 115 0
124 127 0
123 124 0
119 118 0
112 109 0
106 105 0
120 117 0
117 114 0
119 116 0
124 122 0
115 111 0
118 117 0
113 112 0
116 114 0
127 129 0
113 110 0
122 119 0
110 109 0
119 119 0
116 114 0
120 115 0
128 125 0
132 131 0
127 125 0
134 132 0
134 135 0
144 145 0
130 131 0
133 135 0
129 130 0
130 129 0
140 140 0
136 139 0
139 143 0
142 147 0
125 126 0
140 141 0
143 146 0
140 140 0
139 142 0
147 153 0
148 152 0
145 148 0
145 150 0
145 150 0
144 148 0
147 154 0
153 159 0
147 152 0
146 152 0
150 156 0
147 154 0
152 160 0
157 164 0
155 163 0
150 161 0
151 161 0
154 164 0
155 164 0
150 159 0
160 173 0
154 165 0
155 165 0
161 172 0
159 171 0
154 165 0
163 179 0
159 172 0
159 173 0
161 175 0
164 177 0
159 172 0
161 175 0
164 180 0
157 168 0
164 179 0
170 194 0
170 192 0
171 195 0
172 195 0
170 193 0
170 193 0
174 195 0
174 197 0
173 196 0
172 196 0
174 196 0
174 196 0
175 197 0
170 192 0
172 195 0
172 194 0
173 196 0
176 197 0
175 198 0
171 194 0
173 196 0
173 195 0
174 195 0
172 195 0
174 196 0
176 197 0
174 195 0
172 194 0
174 195 0
173 195 0
169 191 0
172 194 0
171 194 0
172 193 0
168 189 0
172 194 0
174 196 0
173 194 0
170 192 0
176 197 0
171 193 0
174 195 0
170 192 0
171 191 0
174 195 0
172 194 0
171 193 0
174 195 0
174 194 0
167 187 0
172 194 0
172 193 0
174 195 0
172 194 0
175 195 0
170 191 0
168 189 0
167 187 0
168 187 0
166 187 0
169 192 0
167 188 0
173 194 0
170 190 0
170 191 0
165 187 0
173 194 0
169 191 0
166 186 0
168 189 0
168 189 0
166 187 0
167 186 0
166 188 0
161 182 0
168 189 0
164 183 0
167 188 0
166 188 0
165 186 0
164 184 0
167 187 0
166 187 0
161 183 0
160 181 0
158 181 0
164 186 0
164 185 0
164 186 0
160 182 0
167 188 0
158 180 0
164 185 0
161 183 0
160 182 0
161 183 0
160 182 0
161 183 0
158 180 0
162 184 0
163 184 0
158 180 0
161 183 0
156 177 0
159 181 0
150 173 0
162 184 0
159 181 0
153 176 0
156 178 0
165 186 0
161 183 0
155 176 0
154 177 0
151 174 0
157 179 0
154 175 0
155 177 0
155 177 0
153 175 0
159 181 0
156 178 0
155 178 0
157 178 0
156 178 0
155 177 0
153 176 0
145 168 0
152 174 0
148 170 0
149 171 0
151 173 0
154 176 0
159 182 0
152 174 0
146 169 0
156 177 0
149 171 0
151 173 0
154 175 0
154 176 0
146 167 0
151 174 0
151 172 0
143 165 0
155 177 0
149 170 0
154 175 0
147 169 0
141 162 0
148 170 0
143 164 0
134 156 0
140 161 0
140 161 0
135 157 0
134 155 0
146 169 0
140 162 0
141 161 0
143 164 0
140 160 0
137 158 0
141 161 0
140 161 0
147 168 0
136 157 0
140 161 0
134 155 0
131 152 0
139 159 0
137 156 0
147 168 0
128 149 0
137 158 0
131 152 0
133 152 0
125 143 0
137 156 0
134 154 0
124 144 0
128 148 0
120 141 0
139 158 0
120 140 0
133 153 0
130 150 0
130 149 0
123 143 0
132 151 0
120 139 0
118 137 0
126 144 0
131 150 0
116 134 0
132 153 0
131 151 0
129 148 0
123 142 0
120 137 0
134 155 0
115 133 0
126 145 0
131 151 0
119 139 0
127 145 0
134 153 0
123 141 0
123 142 0
128 147 0
132 149 0
133 152 0
133 152 0
127 145 0
122 138 0
127 146 0
126 143 0
128 145 0
123 141 0
120 138 0
121 140 0
121 139 0
118 134 0
127 144 0
117 134 0
125 144 0
133 151 0
132 150 0
124 142 0
128 146 0
113 129 0
133 152 0
132 152 0
125 144 0
121 140 0
128 147 0
121 136 0
137 155 0
137 154 0
132 149 0
136 154 0
122 137 0
125 144 0
125 143 0
133 149 0
138 153 0
125 141 0
135 151 0
129 143 0
132 149 0
131 149 0
134 150 0
136 150 0
137 154 0
131 147 0
129 145 0
139 158 0
136 154 0
137 154 0
135 151 0
140 156 0
130 146 0
140 155 0
133 148 0
132 147 0
127 141 0
132 146 0
138 154 0
133 148 0
136 151 0
132 146 0
129 142 0
126 142 0
131 147 0
133 148 0
136 149 0
131 145 0
140 157 0
128 139 0
131 145 0
131 142 0
142 156 0
133 145 0
136 149 0
129 142 0
130 145 0
135 148 0
129 140 0
130 139 0
127 139 0
122 131 0
130 141 0
132 144 0
143 153 0
137 146 0
125 133 0
138 149 0
125 134 0
131 140 0
127 133 0
127 134 0
126 135 0
128 136 0
124 131 0
123 129 0
126 131 0
134 140 0
136 146 0
123 127 0
129 133 0
125 128 0
129 134 0
122 122 0
126 130 0
132 136 0
124 127 0
129 129 0
123 124 0
128 131 0
123 125 0
120 121 0
110 112 0
118 117 0
122 120 0
135 136 0
126 124 0
130 133 0
118 118 0
125 124 0
116 115 0
124 124 0
123 124 0
126 125 0
121 118 0
132 131 0
123 122 0
119 119 0
117 117 0
118 115 0
115 115 0
128 126 0
128 127 0
125 122 0
117 114 0
125 122 0
125 123 0
125 124 0
120 119 0
133 134 0
123 120 0
127 127 0
128 128 0
129 128 0
128 129 0
129 126 0
130 132 0
130 133 0
130 131 0
146 148 0
140 142 0
135 136 0
136 140 0
143 149 0
140 141 0
134 139 0
145 152 0
141 145 0
144 151 0
150 155 0
146 151 0
146 151 0
153 160 0
147 152 0
153 160 0
156 164 0
153 161 0
148 155 0
154 164 0
151 161 0
157 165 0
156 167 0
150 159 0
157 166 0
150 160 0
155 164 0
157 169 0
153 164 0
158 168 0
160 171 0
159 168 0
153 164 0
162 178 0
158 172 0
155 166 0
156 168 0
162 175 0
158 172 0
163 177 0
161 176 0
162 174 0
175 198 0
173 196 0
174 196 0
174 197 0
175 198 0
175 197 0
177 198 0
172 195 0
173 197 0
172 195 0
172 195 0
175 196 0
174 195 0
174 196 0
174 197 0
173 195 0
172 195 0
173 194 0
172 194 0
173 196 0
173 195 0
172 193 0
174 196 0
172 195 0
175 197 0
171 193 0
173 196 0
173 195 0
172 193 0
174 196 0
176 197 0
170 193 0
170 192 0
171 193 0
175 197 0
171 192 0
174 194 0
174 195 0
173 194 0
175 197 0
175 196 0
175 196 0
168 189 0
172 192 0
174 195 0
173 193 0
168 189 0
168 189 0
171 193 0
171 193 0
171 193 0
170 192 0
173 193 0
170 191 0
169 190 0
169 190 0
167 187 0
168 189 0
172 193 0
170 192 0
168 188 0
172 193 0
172 193 0
167 188 0
169 190 0
169 190 0
169 191 0
167 187 0
168 190 0
170 191 0
169 189 0
162 183 0
171 191 0
168 189 0
163 184 0
162 183 0
166 187 0
166 186 0
163 184 0
169 189 0
166 187 0
167 188 0
168 190 0
167 189 0
163 184 0
161 183 0
159 181 0
157 179 0
164 184 0
159 180 0
164 186 0
162 185 0
163 184 0
160 183 0
161 182 0
151 173 0
156 178 0
157 179 0
157 178 0
159 181 0
166 187 0
158 179 0
153 174 0
161 182 0
154 176 0
156 178 0
160 181 0
155 176 0
154 176 0
163 185 0
155 178 0
164 185 0
162 184 0
144 166 0
156 178 0
158 179 0
161 183 0
157 180 0
156 178 0
157 179 0
155 176 0
147 170 0
155 177 0
151 174 0
152 174 0
149 170 0
154 176 0
155 177 0
157 179 0
151 173 0
150 171 0
146 168 0
151 173 0
148 170 0
147 168 0
151 173 0
151 173 0
152 175 0
148 170 0
146 169 0
150 171 0
155 176 0
147 169 0
147 169 0
152 173 0
153 174 0
150 172 0
145 166 0
154 176 0
145 167 0
141 163 0
151 173 0
135 155 0
145 166 0
149 171 0
148 169 0
138 159 0
141 162 0
138 161 0
142 163 0
143 164 0
132 154 0
138 159 0
137 158 0
139 160 0
143 164 0
150 170 0
141 162 0
133 154 0
144 165 0
142 164 0
133 155 0
143 163 0
125 146 0
144 165 0
135 156 0
132 153 0
123 145 0
129 151 0
128 148 0
134 154 0
134 154 0
131 152 0
123 143 0
126 146 0
134 154 0
138 159 0
129 150 0
131 151 0
120 141 0
125 144 0
134 154 0
135 153 0
119 139 0
118 137 0
128 148 0
125 144 0
120 140 0
125 145 0
118 137 0
118 136 0
124 143 0
133 153 0
133 151 0
132 150 0
126 146 0
121 140 0
130 149 0
136 155 0
120 137 0
123 143 0
119 137 0
132 152 0
125 142 0
124 142 0
123 141 0
125 144 0
124 142 0
127 144 0
133 151 0
142 161 0
122 138 0
124 143 0
119 137 0
127 146 0
127 146 0
134 153 0
126 144 0
119 134 0
128 145 0
121 139 0
136 155 0
138 155 0
125 144 0
130 148 0
120 136 0
133 150 0
133 152 0
129 146 0
123 139 0
126 144 0
135 153 0
126 143 0
126 142 0
128 145 0
125 142 0
124 141 0
132 150 0
131 148 0
138 155 0
137 154 0
131 147 0
135 152 0
134 151 0
133 148 0
139 157 0
127 143 0
134 151 0
134 148 0
134 150 0
129 146 0
127 142 0
136 153 0
133 149 0
128 144 0
132 146 0
134 149 0
136 150 0
137 152 0
130 144 0
136 149 0
129 142 0
132 144 0
136 152 0
130 145 0
146 160 0
131 146 0
130 146 0
135 147 0
138 151 0
130 143 0
137 153 0
134 146 0
127 137 0
135 147 0
140 152 0
138 150 0
134 143 0
137 150 0
137 149 0
134 147 0
126 135 0
129 140 0
139 150 0
132 144 0
129 139 0
139 150 0
136 147 0
126 135 0
133 142 0
135 145 0
128 137 0
139 146 0
128 135 0
136 143 0
133 140 0
131 139 0
117 126 0
129 133 0
120 126 0
128 134 0
124 128 0
127 130 0
129 132 0
127 132 0
122 126 0
124 126 0
125 126 0
124 128 0
120 123 0
132 137 0
126 130 0
130 135 0
133 136 0
116 118 0
126 125 0
129 133 0
127 127 0
127 127 0
126 127 0
118 119 0
119 118 0
121 119 0
119 120 0
125 125 0
121 119 0
127 128 0
124 123 0
126 126 0
131 131 0
126 121 0
129 132 0
118 115 0
130 130 0
127 130 0
132 133 0
131 132 0
129 130 0
132 135 0
137 135 0
126 125 0
135 135 0
137 138 0
141 143 0
130 131 0
131 132 0
130 127 0
135 136 0
133 134 0
137 140 0
136 141 0
137 137 0
137 135 0
137 139 0
139 141 0
141 141 0
138 141 0
146 152 0
141 144 0
138 144 0
148 154 0
151 157 0
143 147 0
146 151 0
155 162 0
149 157 0
149 157 0
146 154 0
149 157 0
151 159 0
155 166 0
155 165 0
153 162 0
155 165 0
152 163 0
154 165 0
154 165 0
156 167 0
151 162 0
157 168 0
160 172 0
161 172 0
159 172 0
158 169 0
162 175 0
157 169 0
165 180 0
164 178 0
163 175 0
156 169 0
175 197 0
171 194 0
172 195 0
172 195 0
174 197 0
174 196 0
175 197 0
169 192 0
175 197 0
174 196 0
171 193 0
176 198 0
171 193 0
171 194 0
172 194 0
172 195 0
173 196 0
172 195 0
171 194 0
174 196 0
173 194 0
173 195 0
174 196 0
175 197 0
173 194 0
173 195 0
174 195 0
171 192 0
174 195 0
171 194 0
175 197 0
172 194 0
175 197 0
173 195 0
175 197 0
174 195 0
175 197 0
170 192 0
172 192 0
171 193 0
175 197 0
168 189 0
172 193 0
171 192 0
168 189 0
172 193 0
174 195 0
174 194 0
173 193 0
170 192 0
168 189 0
169 191 0
173 194 0
176 197 0
169 190 0
173 193 0
168 189 0
168 190 0
166 187 0
168 190 0
170 191 0
169 190 0
172 193 0
166 187 0
169 191 0
168 189 0
171 192 0
170 190 0
168 189 0
171 192 0
164 185 0
166 188 0
168 190 0
165 186 0
168 190 0
167 187 0
165 187 0
166 188 0
161 182 0
165 187 0
167 188 0
161 183 0
158 180 0
162 183 0
164 185 0
166 189 0
163 183 0
165 187 0
160 181 0
162 184 0
156 179 0
160 180 0
160 182 0
168 189 0
162 183 0
155 176 0
165 186 0
153 174 0
156 178 0
158 180 0
160 181 0
159 180 0
154 176 0
161 184 0
162 184 0
161 183 0
152 174 0
160 181 0
160 181 0
152 173 0
152 174 0
160 181 0
155 178 0
159 181 0
149 171 0
157 180 0
154 177 0
153 175 0
155 178 0
152 174 0
154 175 0
152 175 0
152 173 0
149 171 0
151 173 0
153 175 0
154 176 0
153 174 0
160 182 0
148 170 0
149 171 0
148 170 0
149 171 0
157 180 0
152 174 0
156 178 0
152 175 0
152 174 0
158 180 0
150 172 0
157 179 0
158 179 0
140 162 0
144 164 0
151 173 0
141 163 0
147 169 0
147 167 0
151 173 0
144 166 0
144 165 0
150 171 0
151 172 0
137 159 0
137 157 0
146 168 0
131 153 0
139 160 0
145 166 0
146 168 0
146 167 0
143 164 0
140 161 0
135 157 0
138 160 0
139 160 0
133 155 0
140 160 0
136 158 0
140 160 0
141 161 0
139 159 0
129 149 0
134 155 0
138 159 0
136 156 0
138 158 0
143 162 0
140 160 0
136 155 0
140 161 0
130 150 0
134 155 0
132 153 0
137 157 0
130 151 0
142 160 0
132 152 0
132 151 0
131 151 0
130 148 0
125 145 0
128 147 0
125 145 0
134 153 0
128 147 0
131 150 0
124 143 0
133 151 0
138 157 0
134 154 0
134 153 0
131 150 0
140 160 0
125 143 0
134 155 0
133 152 0
134 152 0
130 149 0
119 138 0
134 155 0
133 151 0
132 151 0
125 145 0
142 161 0
119 138 0
127 145 0
142 161 0
127 145 0
127 145 0
136 154 0
130 150 0
132 150 0
128 145 0
121 138 0
123 141 0
134 152 0
127 145 0
116 136 0
125 142 0
138 156 0
128 145 0
117 135 0
126 142 0
126 143 0
132 151 0
119 135 0
119 138 0
132 150 0
118 135 0
135 152 0
141 160 0
124 141 0
132 151 0
129 147 0
134 152 0
133 149 0
133 151 0
130 148 0
130 146 0
144 161 0
124 139 0
130 147 0
134 152 0
134 152 0
128 145 0
131 147 0
135 152 0
146 165 0
136 154 0
133 150 0
138 153 0
133 150 0
134 149 0
126 141 0
131 148 0
125 140 0
137 152 0
134 149 0
136 152 0
139 155 0
131 145 0
128 142 0
131 145 0
137 152 0
138 154 0
138 152 0
133 147 0
134 148 0
137 152 0
135 149 0
130 147 0
144 160 0
135 146 0
137 152 0
138 151 0
132 143 0
136 147 0
135 147 0
137 148 0
128 141 0
135 148 0
136 147 0
121 132 0
141 151 0
133 142 0
137 148 0
136 148 0
129 140 0
137 146 0
135 142 0
125 131 0
134 142 0
139 150 0
124 130 0
128 136 0
139 146 0
137 145 0
132 140 0
131 136 0
132 137 0
129 133 0
138 144 0
131 139 0
123 127 0
122 128 0
130 136 0
126 131 0
123 127 0
128 134 0
131 134 0
128 133 0
126 128 0
122 125 0
127 130 0
132 134 0
127 129 0
127 132 0
117 118 0
121 122 0
124 128 0
129 129 0
125 126 0
131 131 0
130 132 0
116 116 0
134 138 0
121 121 0
127 128 0
129 130 0
132 136 0
136 138 0
133 134 0
127 125 0
121 121 0
122 123 0
123 126 0
129 131 0
131 131 0
135 137 0
125 126 0
121 123 0
133 135 0
132 134 0
134 134 0
140 141 0
130 133 0
139 143 0
144 145 0
134 135 0
139 143 0
144 148 0
135 140 0
145 145 0
132 136 0
145 150 0
149 154 0
152 162 0
140 145 0
148 153 0
146 153 0
144 148 0
149 155 0
149 156 0
149 154 0
149 157 0
154 162 0
148 158 0
149 157 0
146 154 0
155 164 0
152 161 0
148 156 0
152 160 0
161 171 0
156 168 0
153 160 0
157 167 0
152 163 0
159 169 0
159 169 0
154 167 0
157 169 0
157 167 0
150 161 0
158 172 0
157 171 0
165 179 0
162 177 0
162 173 0
172 195 0
173 195 0
170 194 0
171 194 0
174 196 0
172 195 0
171 193 0
175 197 0
175 198 0
171 194 0
174 195 0
172 195 0
173 196 0
171 193 0
173 195 0
174 197 0
173 195 0
172 194 0
173 195 0
173 196 0
171 194 0
172 195 0
176 197 0
173 196 0
171 192 0
170 193 0
173 195 0
173 194 0
174 196 0
169 191 0
173 195 0
174 196 0
173 194 0
174 196 0
172 194 0
178 199 0
171 193 0
173 194 0
173 194 0
169 190 0
174 195 0
173 194 0
173 195 0
173 194 0
170 191 0
168 188 0
169 190 0
172 194 0
170 192 0
173 194 0
171 192 0
175 195 0
172 193 0
170 191 0
169 190 0
169 190 0
168 190 0
171 191 0
170 191 0
171 193 0
171 192 0
174 195 0
169 191 0
168 190 0
170 192 0
171 192 0
165 186 0
171 193 0
171 191 0
168 189 0
169 191 0
168 189 0
165 187 0
169 190 0
165 187 0
165 186 0
167 189 0
165 187 0
167 188 0
168 189 0
161 183 0
164 185 0
161 183 0
161 183 0
162 184 0
162 184 0
161 184 0
159 180 0
156 178 0
166 188 0
159 181 0
165 187 0
165 187 0
156 177 0
164 186 0
157 180 0
162 184 0
162 184 0
157 179 0
164 185 0
160 182 0
153 175 0
160 181 0
155 178 0
154 176 0
159 181 0
158 181 0
160 183 0
160 182 0
155 178 0
152 174 0
154 177 0
162 183 0
151 173 0
157 181 0
155 178 0
159 181 0
159 182 0
161 183 0
160 183 0
155 176 0
158 180 0
159 181 0
157 179 0
159 181 0
152 174 0
151 173 0
154 177 0
155 177 0
156 178 0
157 180 0
154 176 0
151 174 0
153 176 0
150 172 0
142 164 0
154 176 0
154 177 0
150 172 0
143 164 0
150 172 0
152 172 0
152 174 0
151 175 0
142 164 0
145 166 0
149 171 0
138 160 0
145 166 0
140 162 0
148 170 0
156 177 0
150 172 0
136 159 0
139 161 0
141 161 0
146 167 0
141 163 0
140 162 0
137 158 0
142 164 0
147 169 0
143 165 0
132 153 0
141 162 0
138 158 0
145 166 0
138 158 0
134 154 0
136 157 0
140 162 0
145 167 0
134 153 0
123 144 0
137 157 0
132 153 0
131 152 0
133 153 0
135 156 0
128 147 0
138 158 0
136 157 0
131 151 0
128 150 0
124 143 0
138 158 0
131 150 0
130 150 0
133 153 0
131 151 0
129 150 0
132 150 0
133 152 0
129 149 0
130 151 0
143 163 0
129 149 0
126 146 0
129 148 0
133 153 0
130 152 0
146 166 0
135 155 0
118 135 0
117 135 0
122 142 0
124 142 0
133 153 0
132 151 0
133 152 0
131 151 0
124 142 0
136 155 0
129 148 0
129 148 0
140 160 0
129 148 0
130 148 0
127 146 0
133 153 0
135 154 0
128 147 0
122 140 0
130 148 0
138 157 0
136 154 0
126 143 0
138 156 0
120 137 0
133 152 0
131 149 0
134 153 0
126 145 0
133 152 0
139 157 0
134 152 0
128 145 0
144 163 0
132 152 0
130 148 0
131 149 0
129 148 0
141 160 0
133 151 0
141 157 0
135 154 0
131 148 0
132 151 0
133 149 0
126 143 0
133 149 0
123 140 0
126 142 0
129 145 0
130 146 0
139 157 0
133 148 0
142 160 0
137 154 0
139 155 0
128 145 0
140 157 0
141 156 0
120 135 0
138 157 0
127 143 0
142 156 0
138 153 0
130 145 0
134 151 0
142 158 0
138 150 0
132 148 0
136 152 0
131 146 0
135 150 0
133 146 0
139 153 0
140 153 0
133 148 0
134 147 0
136 150 0
128 143 0
138 151 0
134 147 0
134 147 0
133 146 0
138 151 0
130 143 0
130 138 0
130 141 0
131 144 0
139 151 0
141 154 0
138 150 0
140 154 0
128 138 0
136 146 0
130 139 0
140 152 0
132 142 0
131 141 0
134 142 0
137 146 0
134 143 0
147 155 0
135 147 0
125 131 0
132 143 0
133 141 0
130 137 0
131 140 0
131 141 0
128 134 0
137 142 0
132 137 0
139 147 0
136 142 0
142 146 0
124 129 0
124 130 0
131 131 0
133 137 0
126 125 0
127 130 0
126 132 0
128 132 0
143 145 0
131 135 0
129 132 0
133 138 0
130 130 0
126 127 0
124 124 0
128 129 0
132 134 0
133 134 0
125 124 0
126 125 0
133 134 0
132 130 0
132 131 0
135 135 0
135 138 0
130 132 0
136 138 0
134 136 0
126 124 0
137 140 0
129 129 0
133 131 0
130 130 0
134 135 0
130 132 0
134 136 0
138 143 0
129 129 0
139 141 0
136 136 0
132 133 0
138 140 0
145 148 0
139 142 0
148 154 0
138 141 0
137 141 0
145 148 0
147 151 0
142 145 0
144 149 0
149 155 0
150 157 0
149 154 0
144 151 0
148 153 0
152 157 0
150 158 0
149 158 0
151 158 0
147 152 0
150 156 0
154 161 0
156 166 0
149 157 0
158 168 0
157 167 0
156 167 0
151 159 0
157 164 0
154 163 0
157 169 0
154 166 0
159 172 0
161 173 0
154 168 0
163 175 0
155 163 0
158 170 0
162 173 0
161 173 0
174 196 0
175 198 0
173 197 0
171 193 0
172 195 0
173 196 0
171 194 0
173 195 0
172 195 0
173 196 0
173 195 0
175 197 0
175 196 0
173 196 0
172 195 0
173 194 0
173 194 0
172 194 0
174 196 0
173 194 0
172 194 0
176 198 0
170 193 0
175 197 0
172 193 0
172 194 0
172 193 0
169 191 0
172 194 0
173 194 0
177 198 0
173 194 0
171 192 0
168 191 0
172 193 0
172 192 0
172 194 0
170 192 0
172 193 0
169 191 0
171 193 0
170 193 0
172 193 0
171 192 0
170 191 0
174 195 0
170 191 0
169 190 0
171 193 0
170 191 0
172 193 0
170 192 0
172 193 0
170 192 0
168 188 0
169 191 0
170 192 0
169 190 0
165 187 0
168 189 0
172 193 0
172 193 0
165 186 0
169 191 0
169 191 0
168 189 0
163 183 0
164 185 0
167 188 0
168 191 0
163 184 0
169 190 0
160 182 0
173 195 0
164 186 0
164 186 0
164 186 0
165 186 0
163 185 0
162 184 0
163 185 0
162 183 0
167 190 0
161 183 0
159 181 0
162 184 0
164 186 0
161 182 0
161 183 0
160 182 0
158 180 0
163 185 0
163 184 0
163 184 0
163 185 0
160 183 0
157 179 0
166 188 0
161 183 0
158 180 0
162 184 0
161 183 0
161 183 0
156 178 0
149 171 0
159 182 0
157 179 0
159 180 0
151 174 0
153 176 0
157 179 0
152 175 0
168 190 0
153 176 0
153 175 0
157 179 0
157 179 0
151 173 0
149 172 0
154 176 0
154 176 0
153 175 0
151 174 0
149 171 0
150 172 0
158 180 0
149 172 0
152 174 0
150 172 0
154 177 0
156 179 0
153 175 0
154 175 0
152 175 0
152 174 0
146 168 0
156 178 0
145 167 0
156 178 0
157 179 0
152 174 0
155 177 0
143 163 0
149 171 0
142 164 0
146 167 0
139 160 0
142 164 0
139 162 0
145 167 0
148 170 0
145 167 0
144 167 0
147 168 0
149 170 0
149 170 0
136 157 0
147 170 0
140 161 0
151 171 0
141 163 0
142 163 0
139 161 0
141 161 0
142 164 0
137 158 0
131 153 0
146 167 0
141 163 0
142 163 0
135 156 0
142 162 0
137 157 0
140 162 0
142 163 0
142 163 0
148 168 0
130 151 0
137 159 0
147 168 0
136 156 0
136 154 0
132 152 0
128 148 0
135 155 0
135 157 0
135 154 0
127 148 0
131 152 0
137 157 0
120 140 0
130 150 0
128 148 0
129 148 0
134 154 0
121 140 0
134 154 0
137 157 0
132 152 0
130 150 0
130 149 0
138 159 0
125 145 0
133 151 0
126 145 0
123 143 0
134 153 0
123 141 0
128 147 0
128 146 0
125 145 0
125 144 0
121 140 0
128 147 0
121 139 0
126 147 0
132 152 0
130 149 0
139 159 0
132 151 0
136 156 0
126 147 0
133 152 0
126 144 0
128 149 0
140 158 0
137 157 0
125 143 0
123 142 0
139 159 0
134 152 0
128 146 0
131 150 0
123 142 0
139 157 0
128 144 0
134 152 0
133 151 0
126 143 0
133 152 0
129 147 0
130 148 0
132 150 0
129 146 0
129 147 0
135 152 0
128 146 0
128 145 0
130 146 0
140 157 0
134 150 0
131 149 0
138 155 0
147 163 0
143 162 0
137 153 0
140 157 0
131 149 0
137 155 0
140 158 0
133 150 0
134 151 0
138 154 0
138 156 0
129 144 0
140 156 0
138 155 0
136 152 0
141 156 0
135 149 0
131 149 0
135 150 0
136 152 0
142 156 0
139 156 0
132 147 0
130 144 0
128 145 0
142 157 0
127 140 0
135 149 0
133 149 0
128 141 0
141 156 0
137 151 0
128 144 0
141 156 0
132 144 0
130 144 0
132 146 0
134 146 0
142 155 0
140 151 0
125 137 0
127 136 0
142 157 0
129 138 0
136 147 0
145 157 0
134 144 0
144 154 0
136 145 0
132 143 0
136 147 0
130 138 0
133 141 0
128 135 0
136 143 0
124 132 0
138 145 0
142 155 0
140 148 0
127 132 0
133 138 0
137 142 0
130 137 0
133 140 0
127 131 0
133 140 0
133 138 0
129 134 0
131 137 0
136 142 0
135 138 0
120 123 0
133 137 0
131 134 0
139 145 0
135 142 0
132 135 0
131 133 0
127 132 0
132 136 0
133 138 0
127 130 0
126 128 0
133 140 0
125 129 0
129 130 0
122 122 0
135 138 0
123 126 0
131 133 0
132 134 0
138 141 0
125 124 0
132 135 0
137 138 0
138 142 0
129 130 0
132 135 0
146 149 0
137 139 0
131 131 0
142 146 0
137 141 0
126 129 0
137 140 0
134 134 0
139 139 0
135 138 0
141 144 0
144 149 0
136 140 0
142 146 0
147 154 0
140 144 0
144 148 0
140 146 0
141 148 0
147 151 0
141 146 0
144 147 0
146 153 0
147 150 0
150 155 0
151 157 0
143 149 0
146 153 0
149 157 0
151 158 0
152 163 0
147 157 0
150 157 0
153 162 0
148 155 0
154 162 0
160 171 0
154 164 0
161 173 0
159 168 0
155 164 0
157 166 0
154 164 0
154 165 0
154 165 0
163 175 0
159 170 0
159 169 0
155 166 0
172 195 0
175 197 0
172 194 0
169 192 0
177 198 0
175 197 0
173 195 0
172 195 0
172 194 0
173 196 0
173 195 0
171 194 0
172 194 0
168 190 0
175 197 0
170 192 0
172 194 0
168 191 0
170 192 0
174 196 0
174 196 0
173 195 0
172 193 0
174 196 0
172 193 0
171 192 0
172 194 0
175 197 0
178 199 0
175 195 0
173 194 0
175 196 0
173 195 0
173 195 0
172 193 0
173 195 0
173 194 0
175 196 0
171 192 0
172 194 0
172 193 0
169 192 0
171 193 0
174 194 0
174 195 0
176 197 0
174 196 0
170 191 0
172 193 0
174 194 0
169 190 0
171 193 0
169 190 0
172 193 0
170 192 0
172 193 0
168 190 0
165 187 0
166 187 0
169 191 0
170 191 0
169 192 0
166 188 0
166 187 0
168 190 0
167 189 0
169 190 0
166 188 0
166 187 0
170 191 0
167 189 0
166 187 0
163 185 0
167 189 0
169 191 0
162 184 0
164 185 0
162 184 0
163 185 0
161 183 0
158 179 0
161 183 0
161 183 0
161 182 0
159 181 0
157 179 0
161 183 0
165 186 0
162 184 0
159 180 0
163 186 0
161 183 0
158 181 0
161 183 0
165 188 0
159 181 0
161 182 0
162 184 0
159 182 0
158 181 0
157 179 0
157 179 0
165 186 0
157 179 0
158 180 0
159 181 0
158 180 0
156 178 0
154 177 0
157 179 0
163 185 0
157 180 0
154 176 0
155 178 0
147 170 0
157 179 0
152 174 0
155 177 0
151 174 0
149 170 0
155 178 0
156 178 0
155 178 0
157 180 0
155 178 0
154 178 0
149 171 0
154 176 0
155 177 0
151 173 0
146 168 0
155 176 0
154 176 0
147 170 0
153 176 0
148 170 0
154 176 0
151 173 0
155 176 0
147 170 0
147 168 0
154 177 0
150 172 0
149 170 0
148 170 0
149 172 0
139 161 0
150 172 0
149 170 0
142 165 0
149 172 0
139 161 0
143 165 0
147 168 0
148 171 0
137 158 0
146 167 0
145 167 0
140 161 0
145 167 0
144 166 0
147 169 0
142 165 0
141 161 0
140 162 0
140 162 0
139 161 0
139 160 0
134 155 0
137 158 0
141 161 0
135 156 0
142 163 0
135 156 0
133 154 0
138 159 0
147 167 0
144 165 0
140 162 0
142 163 0
142 162 0
132 152 0
145 165 0
139 159 0
129 148 0
132 151 0
128 149 0
135 154 0
132 152 0
133 153 0
141 162 0
137 156 0
133 152 0
139 159 0
135 155 0
129 149 0
119 138 0
132 152 0
133 152 0
139 159 0
141 160 0
128 147 0
142 163 0
128 145 0
127 147 0
140 160 0
136 155 0
133 152 0
133 154 0
134 152 0
134 153 0
143 163 0
128 148 0
133 153 0
140 158 0
126 145 0
130 148 0
128 146 0
135 154 0
137 156 0
132 151 0
134 154 0
120 139 0
125 144 0
129 148 0
129 148 0
133 151 0
137 155 0
132 152 0
128 145 0
130 150 0
134 153 0
134 150 0
133 152 0
126 144 0
138 155 0
138 156 0
141 159 0
134 153 0
133 153 0
139 157 0
140 159 0
143 161 0
128 146 0
135 154 0
139 157 0
143 163 0
142 163 0
131 151 0
134 152 0
140 157 0
135 154 0
142 160 0
129 144 0
127 144 0
136 152 0
139 155 0
130 145 0
129 147 0
141 158 0
141 156 0
135 152 0
139 154 0
134 151 0
140 157 0
136 154 0
129 145 0
143 161 0
132 149 0
137 152 0
138 155 0
134 151 0
140 156 0
131 145 0
133 145 0
142 158 0
132 147 0
138 152 0
135 150 0
141 157 0
140 154 0
147 165 0
132 144 0
140 152 0
148 163 0
142 154 0
137 152 0
135 149 0
135 149 0
132 146 0
138 152 0
137 152 0
136 149 0
138 150 0
132 144 0
135 149 0
131 142 0
133 143 0
141 152 0
135 148 0
135 143 0
142 153 0
129 139 0
140 151 0
142 153 0
132 141 0
135 143 0
134 144 0
140 150 0
134 143 0
140 147 0
141 150 0
129 135 0
134 141 0
123 132 0
144 156 0
129 135 0
128 133 0
124 131 0
140 147 0
139 145 0
139 146 0
125 134 0
138 142 0
135 139 0
134 138 0
138 147 0
137 143 0
134 142 0
128 133 0
141 148 0
130 135 0
137 141 0
134 137 0
137 141 0
127 127 0
137 140 0
141 142 0
131 134 0
132 136 0
140 145 0
126 128 0
126 125 0
134 137 0
129 131 0
137 139 0
141 146 0
136 138 0
134 136 0
128 131 0
126 129 0
140 145 0
140 142 0
135 133 0
136 137 0
131 134 0
130 132 0
129 132 0
131 136 0
141 146 0
134 136 0
134 136 0
142 144 0
134 137 0
146 149 0
144 147 0
146 151 0
142 147 0
144 150 0
136 140 0
143 148 0
142 146 0
147 152 0
147 153 0
146 151 0
157 165 0
138 142 0
149 157 0
142 149 0
144 151 0
149 157 0
141 149 0
146 150 0
148 158 0
153 158 0
161 172 0
155 162 0
149 158 0
158 171 0
160 170 0
160 170 0
154 165 0
154 165 0
156 166 0
152 161 0
156 169 0
154 165 0
158 169 0
162 174 0
163 175 0
172 196 0
173 195 0
174 196 0
174 196 0
175 197 0
173 195 0
174 196 0
173 195 0
173 195 0
174 196 0
172 195 0
173 195 0
174 196 0
172 195 0
171 194 0
174 196 0
175 197 0
169 192 0
175 197 0
174 195 0
172 195 0
173 195 0
177 198 0
172 195 0
172 194 0
170 192 0
172 193 0
172 194 0
170 192 0
172 193 0
175 196 0
172 194 0
174 196 0
172 194 0
173 194 0
171 193 0
173 195 0
169 190 0
174 195 0
170 191 0
172 193 0
172 193 0
171 192 0
168 189 0
171 193 0
172 193 0
174 195 0
173 194 0
171 193 0
168 189 0
162 183 0
171 192 0
169 190 0
170 192 0
172 193 0
172 194 0
165 187 0
169 190 0
169 190 0
170 192 0
169 190 0
169 191 0
172 194 0
166 187 0
162 183 0
170 190 0
166 188 0
165 188 0
170 192 0
162 184 0
163 184 0
166 188 0
162 183 0
168 189 0
163 185 0
164 185 0
165 187 0
160 182 0
165 187 0
170 192 0
164 187 0
165 187 0
164 187 0
160 182 0
158 180 0
162 185 0
159 181 0
162 184 0
164 186 0
160 182 0
163 185 0
161 183 0
165 187 0
160 182 0
161 183 0
156 177 0
165 187 0
158 180 0
162 184 0
161 183 0
161 184 0
158 180 0
155 177 0
158 181 0
160 183 0
159 182 0
157 180 0
153 174 0
149 171 0
153 176 0
156 178 0
159 182 0
162 184 0
158 180 0
155 177 0
158 180 0
161 183 0
161 184 0
156 177 0
159 181 0
162 185 0
158 181 0
155 177 0
157 178 0
148 170 0
152 174 0
151 174 0
155 177 0
151 172 0
151 173 0
158 180 0
160 182 0
143 164 0
141 163 0
156 179 0
149 170 0
154 177 0
155 176 0
145 166 0
147 169 0
149 170 0
149 170 0
151 174 0
144 167 0
157 179 0
148 170 0
146 168 0
152 174 0
153 176 0
150 171 0
144 167 0
141 162 0
148 170 0
144 167 0
145 166 0
143 164 0
149 172 0
148 169 0
147 169 0
136 157 0
150 171 0
146 167 0
147 167 0
139 161 0
145 166 0
139 160 0
152 172 0
136 155 0
139 160 0
136 157 0
141 161 0
142 164 0
143 164 0
141 161 0
138 160 0
135 156 0
144 165 0
146 167 0
134 156 0
139 158 0
139 161 0
138 161 0
139 158 0
135 156 0
124 145 0
142 162 0
138 159 0
144 165 0
133 153 0
131 151 0
132 153 0
141 160 0
135 154 0
133 152 0
131 150 0
123 141 0
140 159 0
135 154 0
136 156 0
131 152 0
135 155 0
129 149 0
128 148 0
125 144 0
137 156 0
130 149 0
134 153 0
134 154 0
135 155 0
144 163 0
134 155 0
139 158 0
140 161 0
135 153 0
141 159 0
136 154 0
125 145 0
137 157 0
122 140 0
126 145 0
136 156 0
134 152 0
133 153 0
138 157 0
136 155 0
138 158 0
137 155 0
134 154 0
129 146 0
129 146 0
132 149 0
125 142 0
137 156 0
133 151 0
134 151 0
139 160 0
132 151 0
129 147 0
133 151 0
133 150 0
127 145 0
139 158 0
137 154 0
122 140 0
131 150 0
136 154 0
131 148 0
140 158 0
126 143 0
138 158 0
137 154 0
129 147 0
131 150 0
137 153 0
135 153 0
140 159 0
131 148 0
132 150 0
147 165 0
136 153 0
132 146 0
138 156 0
142 157 0
138 156 0
135 152 0
135 152 0
132 147 0
132 150 0
127 143 0
145 161 0
147 164 0
144 161 0
144 161 0
132 148 0
141 160 0
146 163 0
142 158 0
135 149 0
131 145 0
141 157 0
137 153 0
143 159 0
130 146 0
138 153 0
143 158 0
137 150 0
138 148 0
139 153 0
143 157 0
137 150 0
137 151 0
139 155 0
138 152 0
144 157 0
138 150 0
131 141 0
141 155 0
137 151 0
141 154 0
133 147 0
136 147 0
135 147 0
133 145 0
138 149 0
138 148 0
140 151 0
135 147 0
134 145 0
137 151 0
132 145 0
133 142 0
132 140 0
139 148 0
132 141 0
138 145 0
129 135 0
139 148 0
135 143 0
137 145 0
142 149 0
133 142 0
135 141 0
137 141 0
143 151 0
145 152 0
131 137 0
123 128 0
126 131 0
133 139 0
139 144 0
141 147 0
132 136 0
131 135 0
132 135 0
137 145 0
118 123 0
141 145 0
134 137 0
131 133 0
130 134 0
138 142 0
134 139 0
130 133 0
134 139 0
134 138 0
138 140 0
136 140 0
138 141 0
136 138 0
136 140 0
141 144 0
133 137 0
145 149 0
140 143 0
135 139 0
141 145 0
136 137 0
140 142 0
143 150 0
147 154 0
143 144 0
138 142 0
149 157 0
136 138 0
150 157 0
139 140 0
136 140 0
146 150 0
142 148 0
144 150 0
144 149 0
149 155 0
143 149 0
142 146 0
147 151 0
144 149 0
143 149 0
147 151 0
142 150 0
147 156 0
152 161 0
144 149 0
154 160 0
154 163 0
152 158 0
148 159 0
155 164 0
153 163 0
161 172 0
151 159 0
156 165 0
160 170 0
154 165 0
148 156 0
151 163 0
157 166 0
159 170 0
154 164 0
156 166 0
161 173 0
173 196 0
174 196 0
173 195 0
174 196 0
173 196 0
171 193 0
172 194 0
177 198 0
174 197 0
174 196 0
173 196 0
171 193 0
168 192 0
175 197 0
172 194 0
174 196 0
172 194 0
173 195 0
174 196 0
171 193 0
172 194 0
174 195 0
172 194 0
171 193 0
174 196 0
173 194 0
172 193 0
173 195 0
172 193 0
172 195 0
174 196 0
174 196 0
171 193 0
169 191 0
170 191 0
173 195 0
173 195 0
171 192 0
172 193 0
167 189 0
170 192 0
169 190 0
173 194 0
169 191 0
170 191 0
163 185 0
170 191 0
173 195 0
168 190 0
172 194 0
169 190 0
170 191 0
169 190 0
168 189 0
164 185 0
168 190 0
172 194 0
169 191 0
164 186 0
164 186 0
167 189 0
167 189 0
169 190 0
165 186 0
166 186 0
165 186 0
162 184 0
167 189 0
168 190 0
168 190 0
168 189 0
163 185 0
161 183 0
162 184 0
166 189 0
163 186 0
160 183 0
169 192 0
167 189 0
164 186 0
162 184 0
164 186 0
164 186 0
166 187 0
156 179 0
165 186 0
157 179 0
165 186 0
160 182 0
165 187 0
158 180 0
163 184 0
159 181 0
159 181 0
162 184 0
156 178 0
162 185 0
157 180 0
165 187 0
152 174 0
164 187 0
165 188 0
159 182 0
156 177 0
156 179 0
158 180 0
159 181 0
160 183 0
160 183 0
156 178 0
162 185 0
156 179 0
153 176 0
156 178 0
155 177 0
155 177 0
155 177 0
156 178 0
154 176 0
154 177 0
156 179 0
149 171 0
154 176 0
149 171 0
149 171 0
156 178 0
154 176 0
155 177 0
154 176 0
158 181 0
155 178 0
156 178 0
159 181 0
158 181 0
144 166 0
158 179 0
153 175 0
140 161 0
147 169 0
147 170 0
153 175 0
157 178 0
151 174 0
153 175 0
152 173 0
151 173 0
155 177 0
147 170 0
153 176 0
152 173 0
151 173 0
155 176 0
141 162 0
147 169 0
145 165 0
152 174 0
145 168 0
150 172 0
146 168 0
145 166 0
146 168 0
145 167 0
148 170 0
140 163 0
147 170 0
141 163 0
143 164 0
142 164 0
142 165 0
135 155 0
139 160 0
137 158 0
148 169 0
140 161 0
137 157 0
142 163 0
133 154 0
143 164 0
133 153 0
139 161 0
144 165 0
135 156 0
141 162 0
137 158 0
140 160 0
138 157 0
136 157 0
146 168 0
130 149 0
141 162 0
139 159 0
143 163 0
144 163 0
134 155 0
134 154 0
134 154 0
140 159 0
139 159 0
138 159 0
131 152 0
127 146 0
134 155 0
142 162 0
140 162 0
131 152 0
136 156 0
128 146 0
130 148 0
139 158 0
134 154 0
131 151 0
128 147 0
134 154 0
127 147 0
130 150 0
137 157 0
138 159 0
144 164 0
127 145 0
135 154 0
134 153 0
134 154 0
136 157 0
132 150 0
136 155 0
136 157 0
132 151 0
140 159 0
137 157 0
134 152 0
141 160 0
124 144 0
135 153 0
129 147 0
130 149 0
142 161 0
140 158 0
127 145 0
128 147 0
137 155 0
136 157 0
132 150 0
134 152 0
137 156 0
141 161 0
133 152 0
143 160 0
134 150 0
150 168 0
138 155 0
134 152 0
137 154 0
140 158 0
138 155 0
144 161 0
139 157 0
125 140 0
140 156 0
140 156 0
135 152 0
144 160 0
143 161 0
131 150 0
141 158 0
139 158 0
142 160 0
147 162 0
139 157 0
139 156 0
137 157 0
139 158 0
144 162 0
141 159 0
137 154 0
125 141 0
127 141 0
133 148 0
145 162 0
138 155 0
138 152 0
136 151 0
139 155 0
140 154 0
137 151 0
145 161 0
139 153 0
134 146 0
141 156 0
142 158 0
142 158 0
150 165 0
137 152 0
141 154 0
136 149 0
138 150 0
143 155 0
137 151 0
134 146 0
139 152 0
141 155 0
137 147 0
145 157 0
138 151 0
140 154 0
128 138 0
136 148 0
134 147 0
137 148 0
148 158 0
136 147 0
135 145 0
129 137 0
136 146 0
134 143 0
144 153 0
135 141 0
143 154 0
129 137 0
132 139 0
134 141 0
148 156 0
134 143 0
130 137 0
140 146 0
138 146 0
136 143 0
139 148 0
138 145 0
131 135 0
138 146 0
133 137 0
132 138 0
135 141 0
140 146 0
141 149 0
140 143 0
134 141 0
134 136 0
133 139 0
134 140 0
137 143 0
143 150 0
136 140 0
131 135 0
135 138 0
141 146 0
135 138 0
138 142 0
137 142 0
133 135 0
140 145 0
140 146 0
135 140 0
141 145 0
138 142 0
136 140 0
140 143 0
147 153 0
137 138 0
144 148 0
132 135 0
140 144 0
141 144 0
140 141 0
142 144 0
141 144 0
142 147 0
137 143 0
133 139 0
143 150 0
147 154 0
147 154 0
144 152 0
150 158 0
146 156 0
137 142 0
147 154 0
148 157 0
146 151 0
153 160 0
144 150 0
150 159 0
148 153 0
150 155 0
151 159 0
153 160 0
153 159 0
157 167 0
152 161 0
152 161 0
158 167 0
159 171 0
152 161 0
153 162 0
157 167 0
151 163 0
153 162 0
155 166 0
157 168 0
155 166 0
171 194 0
176 198 0
174 196 0
170 193 0
176 198 0
175 197 0
174 196 0
175 197 0
174 197 0
175 197 0
175 197 0
175 197 0
173 195 0
171 193 0
173 195 0
173 195 0
172 193 0
176 197 0
173 196 0
173 195 0
168 190 0
174 196 0
175 196 0
175 196 0
171 193 0
172 195 0
172 194 0
168 190 0
171 193 0
176 197 0
170 192 0
169 190 0
174 195 0
171 193 0
173 194 0
173 195 0
174 195 0
172 194 0
169 190 0
171 191 0
168 191 0
171 192 0
170 190 0
172 194 0
170 192 0
171 193 0
169 191 0
168 190 0
168 189 0
169 191 0
167 188 0
171 192 0
171 191 0
171 192 0
170 192 0
169 191 0
166 188 0
165 186 0
166 188 0
167 189 0
171 192 0
171 192 0
164 186 0
169 191 0
169 191 0
167 189 0
170 192 0
168 190 0
169 191 0
169 190 0
165 188 0
167 189 0
164 185 0
163 184 0
162 184 0
165 187 0
163 185 0
167 189 0
159 181 0
166 188 0
164 186 0
162 184 0
166 188 0
155 177 0
165 187 0
162 184 0
162 185 0
161 182 0
161 183 0
160 182 0
157 178 0
162 184 0
153 174 0
163 185 0
159 180 0
164 186 0
158 180 0
162 185 0
165 186 0
162 183 0
157 179 0
164 187 0
161 183 0
158 180 0
161 183 0
161 182 0
150 171 0
161 184 0
156 178 0
163 186 0
159 181 0
160 182 0
156 178 0
155 177 0
165 188 0
157 180 0
152 174 0
148 169 0
157 180 0
151 174 0
154 176 0
150 171 0
155 178 0
155 176 0
158 180 0
142 163 0
157 180 0
157 180 0
151 172 0
154 175 0
154 177 0
144 166 0
155 178 0
152 174 0
147 168 0
156 178 0
154 177 0
154 177 0
159 181 0
150 173 0
154 176 0
151 172 0
152 175 0
150 172 0
158 180 0
147 170 0
147 169 0
143 164 0
144 166 0
141 163 0
146 169 0
151 173 0
144 166 0
141 162 0
146 168 0
146 167 0
143 165 0
145 165 0
140 161 0
142 164 0
149 171 0
151 173 0
132 154 0
146 167 0
150 172 0
141 162 0
147 168 0
142 163 0
148 169 0
142 161 0
144 166 0
137 160 0
145 166 0
145 166 0
139 160 0
144 165 0
145 166 0
139 158 0
138 161 0
141 162 0
130 151 0
137 159 0
141 161 0
146 167 0
136 156 0
134 154 0
138 158 0
136 155 0
140 161 0
139 160 0
132 152 0
147 169 0
143 164 0
132 153 0
132 152 0
145 167 0
140 161 0
142 163 0
131 151 0
138 159 0
133 153 0
135 154 0
138 159 0
137 157 0
134 155 0
138 159 0
144 166 0
132 152 0
128 149 0
133 152 0
132 151 0
138 157 0
132 151 0
131 151 0
140 160 0
134 154 0
133 154 0
133 151 0
136 155 0
138 158 0
128 149 0
124 143 0
131 151 0
131 150 0
140 160 0
130 150 0
134 152 0
137 157 0
135 153 0
136 156 0
138 158 0
132 151 0
127 146 0
132 151 0
125 143 0
134 152 0
146 165 0
131 151 0
136 156 0
143 161 0
148 167 0
138 155 0
140 158 0
140 159 0
143 163 0
133 149 0
135 154 0
145 163 0
143 161 0
139 157 0
143 162 0
137 154 0
137 155 0
136 153 0
140 157 0
141 159 0
135 152 0
140 155 0
143 161 0
133 151 0
141 159 0
133 150 0
131 149 0
136 151 0
129 144 0
142 158 0
145 162 0
129 145 0
141 156 0
143 159 0
144 160 0
140 156 0
147 163 0
139 157 0
135 151 0
138 154 0
137 154 0
130 146 0
146 162 0
145 161 0
141 159 0
137 152 0
138 154 0
140 155 0
140 157 0
137 152 0
142 156 0
139 154 0
138 154 0
141 156 0
141 154 0
126 139 0
135 149 0
144 158 0
138 152 0
138 151 0
147 162 0
142 156 0
142 156 0
135 148 0
139 151 0
136 146 0
136 150 0
139 151 0
137 150 0
142 155 0
137 146 0
145 159 0
138 146 0
141 153 0
147 159 0
141 153 0
143 155 0
142 151 0
144 154 0
129 138 0
140 148 0
138 147 0
139 146 0
145 154 0
138 148 0
142 148 0
144 155 0
133 142 0
137 145 0
137 144 0
142 150 0
137 144 0
134 138 0
142 150 0
140 143 0
128 135 0
136 143 0
135 140 0
138 142 0
142 149 0
140 144 0
138 144 0
135 139 0
141 149 0
131 139 0
134 138 0
134 138 0
135 141 0
141 145 0
139 144 0
143 148 0
142 148 0
143 147 0
139 143 0
136 140 0
139 145 0
141 145 0
137 141 0
138 142 0
140 146 0
146 153 0
149 155 0
131 130 0
137 140 0
150 156 0
150 158 0
138 143 0
143 150 0
145 151 0
141 147 0
144 148 0
143 149 0
144 150 0
146 153 0
146 154 0
140 143 0
139 145 0
147 153 0
152 156 0
145 149 0
151 160 0
149 156 0
155 162 0
149 156 0
145 154 0
150 159 0
155 160 0
150 159 0
157 167 0
155 165 0
148 155 0
152 159 0
153 164 0
146 154 0
153 164 0
155 162 0
154 163 0
152 160 0
150 160 0
156 169 0
156 166 0
156 167 0
149 159 0
162 174 0
175 197 0
174 195 0
172 194 0
171 193 0
173 195 0
169 192 0
174 197 0
173 196 0
172 194 0
171 194 0
175 197 0
175 196 0
174 196 0
173 194 0
175 198 0
172 194 0
175 197 0
172 194 0
170 193 0
173 195 0
172 194 0
173 195 0
170 192 0
172 194 0
170 191 0
172 193 0
169 190 0
174 196 0
172 194 0
172 193 0
172 193 0
171 193 0
168 191 0
167 189 0
171 192 0
173 194 0
170 191 0
165 186 0
170 191 0
170 192 0
174 194 0
170 191 0
169 191 0
172 193 0
169 190 0
165 187 0
171 192 0
170 191 0
171 192 0
165 188 0
167 188 0
166 188 0
173 193 0
171 193 0
171 193 0
165 186 0
166 187 0
169 191 0
165 186 0
161 182 0
170 191 0
169 191 0
169 191 0
164 187 0
163 184 0
166 188 0
162 184 0
167 189 0
165 187 0
167 188 0
165 187 0
162 184 0
163 185 0
166 187 0
163 185 0
165 187 0
163 185 0
157 180 0
167 189 0
161 183 0
163 186 0
169 190 0
157 178 0
165 186 0
168 189 0
161 183 0
164 186 0
160 182 0
164 185 0
156 178 0
164 186 0
157 179 0
156 177 0
159 182 0
154 176 0
158 180 0
156 179 0
159 181 0
162 185 0
164 187 0
158 180 0
157 179 0
155 177 0
162 183 0
155 177 0
156 179 0
158 180 0
154 175 0
158 180 0
154 176 0
157 179 0
152 174 0
155 177 0
161 183 0
158 180 0
154 175 0
159 182 0
155 178 0
160 183 0
148 171 0
158 181 0
149 172 0
155 177 0
152 174 0
152 174 0
152 174 0
150 173 0
146 168 0
152 175 0
150 172 0
155 178 0
153 176 0
150 173 0
150 173 0
152 174 0
151 173 0
150 172 0
155 176 0
154 176 0
158 181 0
155 177 0
162 184 0
147 168 0
157 180 0
147 169 0
151 173 0
153 175 0
148 168 0
148 169 0
151 173 0
141 163 0
153 174 0
151 173 0
146 168 0
143 165 0
148 171 0
143 164 0
142 164 0
148 170 0
153 174 0
143 165 0
143 165 0
141 163 0
147 170 0
146 169 0
140 162 0
143 163 0
144 166 0
139 160 0
143 164 0
148 170 0
142 162 0
140 160 0
145 167 0
146 167 0
137 158 0
144 166 0
141 163 0
138 160 0
130 150 0
140 160 0
144 164 0
139 159 0
138 158 0
143 165 0
138 159 0
135 156 0
139 160 0
143 164 0
140 161 0
144 164 0
136 156 0
141 160 0
144 165 0
138 159 0
142 162 0
138 158 0
142 163 0
133 155 0
138 159 0
140 159 0
142 160 0
130 150 0
140 160 0
144 164 0
144 165 0
136 157 0
131 151 0
133 152 0
140 161 0
137 156 0
132 151 0
132 150 0
128 148 0
142 163 0
136 157 0
136 156 0
149 169 0
138 158 0
132 152 0
128 148 0
140 160 0
137 156 0
142 161 0
135 155 0
132 152 0
136 157 0
138 158 0
146 167 0
144 163 0
140 159 0
137 157 0
141 162 0
138 156 0
133 153 0
141 160 0
144 162 0
141 161 0
138 156 0
142 162 0
149 168 0
144 163 0
133 151 0
126 143 0
142 160 0
146 164 0
140 160 0
140 159 0
122 141 0
138 156 0
139 156 0
133 149 0
136 153 0
138 158 0
128 145 0
140 156 0
137 156 0
133 149 0
144 161 0
141 159 0
142 159 0
143 160 0
134 150 0
136 153 0
132 148 0
145 163 0
143 162 0
135 151 0
133 151 0
142 158 0
134 150 0
138 153 0
139 155 0
136 151 0
147 163 0
146 164 0
146 164 0
147 165 0
141 158 0
140 157 0
139 156 0
142 156 0
133 148 0
141 155 0
138 153 0
135 148 0
135 149 0
144 160 0
134 148 0
146 157 0
146 162 0
141 156 0
142 156 0
141 155 0
139 154 0
139 152 0
148 161 0
142 158 0
137 150 0
135 149 0
146 161 0
132 146 0
146 160 0
139 154 0
138 149 0
146 159 0
149 161 0
136 147 0
138 147 0
135 145 0
139 149 0
136 147 0
144 155 0
139 149 0
147 157 0
152 163 0
144 153 0
140 149 0
137 147 0
136 144 0
136 146 0
142 148 0
138 150 0
137 144 0
142 151 0
137 145 0
132 139 0
147 156 0
140 148 0
140 147 0
138 144 0
140 147 0
151 157 0
131 137 0
139 142 0
140 144 0
128 133 0
144 153 0
130 134 0
139 142 0
137 144 0
126 130 0
133 136 0
147 152 0
130 134 0
139 144 0
137 144 0
138 140 0
149 155 0
136 139 0
142 148 0
138 140 0
141 148 0
142 147 0
145 153 0
140 144 0
140 145 0
147 152 0
142 146 0
147 152 0
139 144 0
145 151 0
143 148 0
144 151 0
133 135 0
140 147 0
145 151 0
143 147 0
154 160 0
135 139 0
149 154 0
143 150 0
145 152 0
146 151 0
146 152 0
152 159 0
150 158 0
145 152 0
159 169 0
139 144 0
150 156 0
151 156 0
149 155 0
146 153 0
145 152 0
143 152 0
153 163 0
158 168 0
155 164 0
153 164 0
151 160 0
150 160 0
145 150 0
154 163 0
150 160 0
163 176 0
153 163 0
156 167 0
151 160 0
156 165 0
172 195 0
173 195 0
174 196 0
173 196 0
172 195 0
172 194 0
170 192 0
176 198 0
172 195 0
174 196 0
173 194 0
173 195 0
173 195 0
173 195 0
173 195 0
173 195 0
174 196 0
173 195 0
168 189 0
174 196 0
170 192 0
173 195 0
169 190 0
170 193 0
171 192 0
173 195 0
172 193 0
170 193 0
173 195 0
171 193 0
175 196 0
172 193 0
168 190 0
175 196 0
174 196 0
167 190 0
170 192 0
171 193 0
170 191 0
173 195 0
171 192 0
170 192 0
168 189 0
171 192 0
168 189 0
168 190 0
175 196 0
172 193 0
166 187 0
169 191 0
172 194 0
171 193 0
167 189 0
167 188 0
166 188 0
165 186 0
165 186 0
165 187 0
167 189 0
166 187 0
168 190 0
166 188 0
165 186 0
168 190 0
170 191 0
164 186 0
171 193 0
164 185 0
165 187 0
169 191 0
159 180 0
161 183 0
168 190 0
164 187 0
166 188 0
158 181 0
164 185 0
158 180 0
161 184 0
158 180 0
162 184 0
161 184 0
164 186 0
153 176 0
161 184 0
153 176 0
157 179 0
160 183 0
160 181 0
165 187 0
160 182 0
161 183 0
157 180 0
165 188 0
165 187 0
156 178 0
157 180 0
159 181 0
160 182 0
163 185 0
159 181 0
160 182 0
162 184 0
154 176 0
158 181 0
158 180 0
159 181 0
157 180 0
159 183 0
161 183 0
150 173 0
161 184 0
158 181 0
157 179 0
158 180 0
154 177 0
156 179 0
156 178 0
154 175 0
156 178 0
157 179 0
152 174 0
151 173 0
154 176 0
160 182 0
156 178 0
150 172 0
156 178 0
153 176 0
152 174 0
151 173 0
153 175 0
157 179 0
149 171 0
148 170 0
150 172 0
155 178 0
157 179 0
152 173 0
140 162 0
156 179 0
151 173 0
149 171 0
154 176 0
144 167 0
150 172 0
150 172 0
154 175 0
157 180 0
146 168 0
149 171 0
153 175 0
148 171 0
140 161 0
148 170 0
150 172 0
146 167 0
141 163 0
151 174 0
149 171 0
146 167 0
148 170 0
143 165 0
142 164 0
142 164 0
146 166 0
148 170 0
144 166 0
142 164 0
147 169 0
148 169 0
149 171 0
147 168 0
149 170 0
145 165 0
144 165 0
138 159 0
143 164 0
147 168 0
139 161 0
142 163 0
134 157 0
142 162 0
138 158 0
139 159 0
145 164 0
137 158 0
137 157 0
135 154 0
134 154 0
134 155 0
138 159 0
144 164 0
138 158 0
141 161 0
133 154 0
138 159 0
124 146 0
138 158 0
142 162 0
139 159 0
141 161 0
133 152 0
130 149 0
131 150 0
133 154 0
143 164 0
130 149 0
150 171 0
135 153 0
131 151 0
135 155 0
135 155 0
141 161 0
136 156 0
131 151 0
138 157 0
137 156 0
143 162 0
138 158 0
140 160 0
134 153 0
130 150 0
138 158 0
133 152 0
139 158 0
136 155 0
134 152 0
136 156 0
143 162 0
136 154 0
136 155 0
129 147 0
136 156 0
137 155 0
132 150 0
144 163 0
142 160 0
141 160 0
138 157 0
130 148 0
139 157 0
144 163 0
129 148 0
126 145 0
138 158 0
134 154 0
140 159 0
139 157 0
144 163 0
139 158 0
130 147 0
133 151 0
133 152 0
144 160 0
141 160 0
141 161 0
147 165 0
147 166 0
144 162 0
133 150 0
150 170 0
150 169 0
139 156 0
147 164 0
145 162 0
143 159 0
132 148 0
132 148 0
138 153 0
141 159 0
151 167 0
148 164 0
143 159 0
154 172 0
146 164 0
142 159 0
141 155 0
141 158 0
135 152 0
137 150 0
139 155 0
137 152 0
135 150 0
136 152 0
140 154 0
144 159 0
139 152 0
142 158 0
141 157 0
145 159 0
139 153 0
149 166 0
140 155 0
140 154 0
141 155 0
141 157 0
130 145 0
143 156 0
138 150 0
141 153 0
142 153 0
134 147 0
130 140 0
138 150 0
149 161 0
130 138 0
135 147 0
144 157 0
142 156 0
141 154 0
137 149 0
135 144 0
140 151 0
143 156 0
147 160 0
146 157 0
143 157 0
147 157 0
143 156 0
143 153 0
143 155 0
137 147 0
139 145 0
139 144 0
137 144 0
148 159 0
147 157 0
141 152 0
143 151 0
139 150 0
129 139 0
142 149 0
145 152 0
133 142 0
137 143 0
138 146 0
139 146 0
146 153 0
135 140 0
145 154 0
138 144 0
141 149 0
137 143 0
134 141 0
142 150 0
145 150 0
140 145 0
133 141 0
139 143 0
142 148 0
137 143 0
139 144 0
139 142 0
139 144 0
135 137 0
144 146 0
142 145 0
141 144 0
133 138 0
145 151 0
142 148 0
142 147 0
142 149 0
144 152 0
144 150 0
144 146 0
146 152 0
147 153 0
147 156 0
150 157 0
144 150 0
143 148 0
146 154 0
144 151 0
150 156 0
144 148 0
146 151 0
150 158 0
155 161 0
146 150 0
150 155 0
148 157 0
148 156 0
145 153 0
146 155 0
145 151 0
152 161 0
149 157 0
154 163 0
150 158 0
152 161 0
152 162 0
149 155 0
151 162 0
152 163 0
149 158 0
154 164 0
152 160 0
161 174 0
173 195 0
174 197 0
173 196 0
172 195 0
172 194 0
173 195 0
169 191 0
175 197 0
173 196 0
173 194 0
173 194 0
170 193 0
173 195 0
171 193 0
172 194 0
171 193 0
173 195 0
170 191 0
170 193 0
174 196 0
165 187 0
173 194 0
171 193 0
173 195 0
169 191 0
168 190 0
172 193 0
172 194 0
171 193 0
174 194 0
173 195 0
171 193 0
170 192 0
169 191 0
170 192 0
173 196 0
171 193 0
171 193 0
171 192 0
167 189 0
170 192 0
172 194 0
173 194 0
166 189 0
168 189 0
169 190 0
167 190 0
171 192 0
169 191 0
164 187 0
171 193 0
170 192 0
170 191 0
167 189 0
171 193 0
165 186 0
167 189 0
168 190 0
167 189 0
163 184 0
168 190 0
165 187 0
163 185 0
167 189 0
159 181 0
159 180 0
172 193 0
170 192 0
164 186 0
162 185 0
161 184 0
164 186 0
165 188 0
164 186 0
165 187 0
166 187 0
159 181 0
171 193 0
163 185 0
162 184 0
165 187 0
163 185 0
161 183 0
164 187 0
167 189 0
165 186 0
160 182 0
162 184 0
157 179 0
161 183 0
161 183 0
162 184 0
157 179 0
157 180 0
165 188 0
158 181 0
160 181 0
163 186 0
153 177 0
158 181 0
158 180 0
159 181 0
152 174 0
162 185 0
160 182 0
151 172 0
156 179 0
158 180 0
162 184 0
155 177 0
155 177 0
160 183 0
162 184 0
158 181 0
159 181 0
154 177 0
161 183 0
156 178 0
158 180 0
153 175 0
159 181 0
156 178 0
156 179 0
159 180 0
153 176 0
152 174 0
159 181 0
148 170 0
151 173 0
157 177 0
148 170 0
152 174 0
144 167 0
150 173 0
155 177 0
150 172 0
154 176 0
154 177 0
160 183 0
148 171 0
144 166 0
156 178 0
152 174 0
153 175 0
150 172 0
155 177 0
147 169 0
154 176 0
149 171 0
152 175 0
147 170 0
155 178 0
151 173 0
141 161 0
148 170 0
150 171 0
152 173 0
143 163 0
151 173 0
142 163 0
151 172 0
151 173 0
154 177 0
143 165 0
148 169 0
148 169 0
147 169 0
143 165 0
147 169 0
148 169 0
150 172 0
141 162 0
142 164 0
150 172 0
146 167 0
152 174 0
140 161 0
141 163 0
145 165 0
139 160 0
139 159 0
149 171 0
153 175 0
142 162 0
134 156 0
144 166 0
138 159 0
151 173 0
130 151 0
145 166 0
144 166 0
132 152 0
139 158 0
135 156 0
141 163 0
138 160 0
143 164 0
136 156 0
134 154 0
140 161 0
130 151 0
136 155 0
136 155 0
141 162 0
143 163 0
142 162 0
141 161 0
130 150 0
137 156 0
137 158 0
131 151 0
131 151 0
141 162 0
138 156 0
123 142 0
140 160 0
129 147 0
123 142 0
129 149 0
136 155 0
132 152 0
135 156 0
136 155 0
142 160 0
136 157 0
137 156 0
146 165 0
143 163 0
141 162 0
149 170 0
137 156 0
142 162 0
134 153 0
140 159 0
142 162 0
136 155 0
142 162 0
135 154 0
137 157 0
146 165 0
140 160 0
128 145 0
145 164 0
144 163 0
144 161 0
135 153 0
144 163 0
139 158 0
139 159 0
138 155 0
143 161 0
136 156 0
138 156 0
141 160 0
146 164 0
142 161 0
139 156 0
136 154 0
139 158 0
143 163 0
129 146 0
147 166 0
142 160 0
144 161 0
141 158 0
132 150 0
138 155 0
146 163 0
142 160 0
136 153 0
146 162 0
141 159 0
140 158 0
140 157 0
156 173 0
138 157 0
141 158 0
133 149 0
145 162 0
148 165 0
145 161 0
148 165 0
137 150 0
147 164 0
140 156 0
139 157 0
151 167 0
140 156 0
145 161 0
147 163 0
137 153 0
132 148 0
141 156 0
138 152 0
150 164 0
143 157 0
136 150 0
139 153 0
140 154 0
138 151 0
143 157 0
132 145 0
142 153 0
141 152 0
140 155 0
135 148 0
145 158 0
141 152 0
136 148 0
139 152 0
140 151 0
139 152 0
142 154 0
143 155 0
137 149 0
139 152 0
139 152 0
143 155 0
142 155 0
144 154 0
139 151 0
146 159 0
142 151 0
147 157 0
142 152 0
141 148 0
137 145 0
127 132 0
141 150 0
141 152 0
144 153 0
142 149 0
135 141 0
145 152 0
138 148 0
143 151 0
146 154 0
143 149 0
134 142 0
130 137 0
149 158 0
139 147 0
138 142 0
140 148 0
143 150 0
144 151 0
140 147 0
145 151 0
144 150 0
137 143 0
145 153 0
148 152 0
147 154 0
145 150 0
134 137 0
140 143 0
147 156 0
145 150 0
141 148 0
147 155 0
148 156 0
147 152 0
141 144 0
138 141 0
140 148 0
152 157 0
140 142 0
140 146 0
149 153 0
144 149 0
144 150 0
142 147 0
142 148 0
145 152 0
146 152 0
135 140 0
146 155 0
151 160 0
149 153 0
147 154 0
140 143 0
151 160 0
150 158 0
142 152 0
148 156 0
150 157 0
151 159 0
146 151 0
154 163 0
150 161 0
150 158 0
151 161 0
155 165 0
156 162 0
155 164 0
159 171 0
151 159 0
156 166 0
152 162 0
158 171 0
175 197 0
173 196 0
172 194 0
172 194 0
173 195 0
172 194 0
172 194 0
173 194 0
170 192 0
173 195 0
173 195 0
171 193 0
176 198 0
173 196 0
169 192 0
172 195 0
173 195 0
173 193 0
169 191 0
166 188 0
173 195 0
173 195 0
172 193 0
175 197 0
169 191 0
171 193 0
174 196 0
172 194 0
170 192 0
168 189 0
172 194 0
171 193 0
169 191 0
170 191 0
168 190 0
171 192 0
167 188 0
172 194 0
168 190 0
169 190 0
172 193 0
167 189 0
170 191 0
166 188 0
167 189 0
168 189 0
171 193 0
167 189 0
163 185 0
166 188 0
171 192 0
169 192 0
170 191 0
163 185 0
165 187 0
167 189 0
168 190 0
172 193 0
161 183 0
163 185 0
170 192 0
168 190 0
164 186 0
166 188 0
165 187 0
165 186 0
166 189 0
166 188 0
167 190 0
168 190 0
167 189 0
160 182 0
167 189 0
164 186 0
159 180 0
160 182 0
161 184 0
166 189 0
164 187 0
168 190 0
163 186 0
162 184 0
165 186 0
161 183 0
165 187 0
167 190 0
162 185 0
159 182 0
166 188 0
165 187 0
160 182 0
164 185 0
156 179 0
157 180 0
161 184 0
164 185 0
152 175 0
158 180 0
158 181 0
158 181 0
162 185 0
152 174 0
164 185 0
149 171 0
157 181 0
165 189 0
154 176 0
156 178 0
163 184 0
164 186 0
155 177 0
160 183 0
155 178 0
149 173 0
159 181 0
164 186 0
160 183 0
163 186 0
153 176 0
157 180 0
159 181 0
156 179 0
154 177 0
154 175 0
156 178 0
155 177 0
156 179 0
159 182 0
156 177 0
154 176 0
150 173 0
158 181 0
151 172 0
155 177 0
154 176 0
155 177 0
148 170 0
149 170 0
152 174 0
143 165 0
156 177 0
142 164 0
147 169 0
151 172 0
144 166 0
148 171 0
151 174 0
148 168 0
150 172 0
140 162 0
149 170 0
146 168 0
151 173 0
147 170 0
151 173 0
152 174 0
149 171 0
150 172 0
152 174 0
152 174 0
146 168 0
142 164 0
139 160 0
142 164 0
149 170 0
141 163 0
144 166 0
143 165 0
145 166 0
136 157 0
141 162 0
154 175 0
150 172 0
145 166 0
150 172 0
146 168 0
146 169 0
143 164 0
145 166 0
141 163 0
142 164 0
144 166 0
146 166 0
148 168 0
144 166 0
138 159 0
151 172 0
147 169 0
148 170 0
145 165 0
137 157 0
145 167 0
137 158 0
138 159 0
147 168 0
142 162 0
138 159 0
147 167 0
135 155 0
124 145 0
141 162 0
140 161 0
136 155 0
141 161 0
147 168 0
138 160 0
138 158 0
144 166 0
145 167 0
146 167 0
134 155 0
141 161 0
138 158 0
141 160 0
134 152 0
139 157 0
129 148 0
137 156 0
146 166 0
141 161 0
137 155 0
139 159 0
139 158 0
139 158 0
135 156 0
144 163 0
135 154 0
133 154 0
131 150 0
133 153 0
135 155 0
141 161 0
145 166 0
140 159 0
142 160 0
140 160 0
136 155 0
140 160 0
139 159 0
137 156 0
146 166 0
149 169 0
138 158 0
143 161 0
142 160 0
136 157 0
135 155 0
143 164 0
138 156 0
146 166 0
138 156 0
132 151 0
137 157 0
145 163 0
143 162 0
134 152 0
144 162 0
136 152 0
140 161 0
149 166 0
143 163 0
138 155 0
143 161 0
132 150 0
136 154 0
144 162 0
139 156 0
142 161 0
137 154 0
142 159 0
140 158 0
139 156 0
143 159 0
144 162 0
143 162 0
138 153 0
147 165 0
139 157 0
143 164 0
145 163 0
144 162 0
137 154 0
141 156 0
143 156 0
140 156 0
146 161 0
134 150 0
144 161 0
145 160 0
141 157 0
146 162 0
136 151 0
140 154 0
145 162 0
145 158 0
142 157 0
133 144 0
138 155 0
144 157 0
131 144 0
144 157 0
149 165 0
142 156 0
140 154 0
136 151 0
135 149 0
140 153 0
138 150 0
139 150 0
140 153 0
144 157 0
144 158 0
139 151 0
136 147 0
141 150 0
142 153 0
139 149 0
145 155 0
141 151 0
138 147 0
136 145 0
140 149 0
139 151 0
144 155 0
143 152 0
138 148 0
140 150 0
150 161 0
138 148 0
136 147 0
140 149 0
138 148 0
148 158 0
148 159 0
146 157 0
139 148 0
140 148 0
147 158 0
142 151 0
141 150 0
142 150 0
153 161 0
138 146 0
147 155 0
148 157 0
135 141 0
146 153 0
144 150 0
146 152 0
144 150 0
145 154 0
148 152 0
138 145 0
145 152 0
145 152 0
144 152 0
138 146 0
136 141 0
134 139 0
140 146 0
150 160 0
138 143 0
144 152 0
139 147 0
145 150 0
147 155 0
155 164 0
143 148 0
144 148 0
141 145 0
144 148 0
149 155 0
147 156 0
154 162 0
147 153 0
151 157 0
142 147 0
149 155 0
147 154 0
145 152 0
146 153 0
152 163 0
157 169 0
157 168 0
151 159 0
144 151 0
149 158 0
142 149 0
151 159 0
149 159 0
153 163 0
153 162 0
152 162 0
156 166 0
149 158 0
148 156 0
159 171 0
160 172 0
156 167 0
151 158 0
172 194 0
171 194 0
170 192 0
171 193 0
169 191 0
175 197 0
174 196 0
169 191 0
172 194 0
175 197 0
173 195 0
170 192 0
173 195 0
174 195 0
172 194 0
172 194 0
173 195 0
173 195 0
170 191 0
175 197 0
168 191 0
173 193 0
172 194 0
170 193 0
173 194 0
173 195 0
172 195 0
174 195 0
170 192 0
173 194 0
172 194 0
170 192 0
169 192 0
166 188 0
168 190 0
169 190 0
173 194 0
168 191 0
169 191 0
169 191 0
172 193 0
167 190 0
172 194 0
168 190 0
168 190 0
167 189 0
167 190 0
168 189 0
171 193 0
167 189 0
164 186 0
165 187 0
168 190 0
168 190 0
162 184 0
166 189 0
165 187 0
164 187 0
167 189 0
164 187 0
166 189 0
165 186 0
167 189 0
161 184 0
164 187 0
166 188 0
161 183 0
162 185 0
159 182 0
160 182 0
164 187 0
160 182 0
163 186 0
165 187 0
162 185 0
166 188 0
160 182 0
162 185 0
163 186 0
163 185 0
162 184 0
163 185 0
162 184 0
168 190 0
159 181 0
168 191 0
155 177 0
165 187 0
164 186 0
157 180 0
160 182 0
155 178 0
162 185 0
163 185 0
157 179 0
156 178 0
163 185 0
160 183 0
161 183 0
159 181 0
165 187 0
163 186 0
155 177 0
158 180 0
152 175 0
153 176 0
158 181 0
160 183 0
154 176 0
156 178 0
162 184 0
158 180 0
154 177 0
151 172 0
155 178 0
152 173 0
156 179 0
158 181 0
156 178 0
147 169 0
156 179 0
152 175 0
159 182 0
154 176 0
147 170 0
155 179 0
149 171 0
159 182 0
155 177 0
151 173 0
158 181 0
157 180 0
155 177 0
151 173 0
155 178 0
151 174 0
155 178 0
152 174 0
162 185 0
155 177 0
149 172 0
151 172 0
154 177 0
148 170 0
147 168 0
152 173 0
150 173 0
147 168 0
147 168 0
145 167 0
152 174 0
153 174 0
158 179 0
148 171 0
141 164 0
149 172 0
162 184 0
153 175 0
149 171 0
152 173 0
160 182 0
149 170 0
143 165 0
153 175 0
150 172 0
146 167 0
137 159 0
150 172 0
142 164 0
144 167 0
143 164 0
143 164 0
133 153 0
140 160 0
145 167 0
149 171 0
138 158 0
145 165 0
147 168 0
147 169 0
139 160 0
150 171 0
143 164 0
143 165 0
141 161 0
151 172 0
142 163 0
143 164 0
144 166 0
141 162 0
142 163 0
139 159 0
146 167 0
136 157 0
135 154 0
154 175 0
145 166 0
147 169 0
137 158 0
152 171 0
142 163 0
146 166 0
147 167 0
131 152 0
138 159 0
142 164 0
138 156 0
142 162 0
143 165 0
141 160 0
147 168 0
131 151 0
138 158 0
150 171 0
139 159 0
141 162 0
136 156 0
140 159 0
137 157 0
134 155 0
133 153 0
141 161 0
140 158 0
146 166 0
140 160 0
145 166 0
144 165 0
143 163 0
135 154 0
145 165 0
141 162 0
145 164 0
132 151 0
139 158 0
146 166 0
140 160 0
143 161 0
144 163 0
142 161 0
141 162 0
149 171 0
145 165 0
138 158 0
146 165 0
137 156 0
144 162 0
137 155 0
147 166 0
142 161 0
150 169 0
139 158 0
144 163 0
139 159 0
142 162 0
135 154 0
142 160 0
132 152 0
146 163 0
134 152 0
149 167 0
145 165 0
140 158 0
145 161 0
147 166 0
131 146 0
139 158 0
133 150 0
143 161 0
141 159 0
139 158 0
141 161 0
140 159 0
150 168 0
141 158 0
152 170 0
147 162 0
141 157 0
144 160 0
136 152 0
142 161 0
144 161 0
146 160 0
142 158 0
154 171 0
137 155 0
138 153 0
148 166 0
137 152 0
143 160 0
139 156 0
138 154 0
136 150 0
146 162 0
140 153 0
136 152 0
145 160 0
143 158 0
141 156 0
139 155 0
142 155 0
144 159 0
139 153 0
146 160 0
143 158 0
140 153 0
142 152 0
139 149 0
130 142 0
129 140 0
145 158 0
142 155 0
147 160 0
147 160 0
147 163 0
141 154 0
131 142 0
140 151 0
147 160 0
140 152 0
140 152 0
137 146 0
136 146 0
141 152 0
131 142 0
136 146 0
136 147 0
138 150 0
141 151 0
132 139 0
139 149 0
146 155 0
144 153 0
143 153 0
146 159 0
138 146 0
143 154 0
148 156 0
140 147 0
145 155 0
141 150 0
138 145 0
142 150 0
142 150 0
144 148 0
144 151 0
144 155 0
142 150 0
139 146 0
137 143 0
141 148 0
147 154 0
141 147 0
144 148 0
130 133 0
147 155 0
150 162 0
138 144 0
147 153 0
146 152 0
136 142 0
143 150 0
138 145 0
133 138 0
145 151 0
148 155 0
141 148 0
146 153 0
142 147 0
145 156 0
139 142 0
157 167 0
151 159 0
146 153 0
152 159 0
150 157 0
148 153 0
149 160 0
147 153 0
151 158 0
157 168 0
148 157 0
156 163 0
156 164 0
146 154 0
153 161 0
150 157 0
146 153 0
153 161 0
154 163 0
153 163 0
150 158 0
149 156 0
154 163 0
157 168 0
157 170 0
153 163 0
150 160 0
157 167 0
160 170 0
153 161 0
174 196 0
169 192 0
172 195 0
174 195 0
170 192 0
173 194 0
170 191 0
170 192 0
170 192 0
167 190 0
171 194 0
171 193 0
172 194 0
174 196 0
175 197 0
170 193 0
170 191 0
171 193 0
171 193 0
172 194 0
175 197 0
170 192 0
173 195 0
174 196 0
173 194 0
173 195 0
173 194 0
169 191 0
174 196 0
168 191 0
172 193 0
167 189 0
165 187 0
173 196 0
168 191 0
166 188 0
169 190 0
168 190 0
171 193 0
170 192 0
167 189 0
170 193 0
165 187 0
167 190 0
169 191 0
166 187 0
169 191 0
167 189 0
167 189 0
169 191 0
165 188 0
168 189 0
171 193 0
162 183 0
168 190 0
165 187 0
168 190 0
167 188 0
161 183 0
167 189 0
169 191 0
161 183 0
169 191 0
162 184 0
167 190 0
170 191 0
169 191 0
164 187 0
161 182 0
161 183 0
164 187 0
162 184 0
166 187 0
164 187 0
161 183 0
160 182 0
165 187 0
162 184 0
164 187 0
162 185 0
153 175 0
160 183 0
155 177 0
164 186 0
161 184 0
154 176 0
158 181 0
160 182 0
161 184 0
157 180 0
158 181 0
154 176 0
157 180 0
158 180 0
161 184 0
162 185 0
160 182 0
158 181 0
153 175 0
161 184 0
156 177 0
162 184 0
159 182 0
154 175 0
151 173 0
164 187 0
154 176 0
158 180 0
159 181 0
162 185 0
162 185 0
156 178 0
162 185 0
156 177 0
169 190 0
163 185 0
147 170 0
159 182 0
162 184 0
157 181 0
152 175 0
150 172 0
150 173 0
154 177 0
154 176 0
153 175 0
147 170 0
156 178 0
151 175 0
161 183 0
154 176 0
153 175 0
156 179 0
153 176 0
154 176 0
151 174 0
150 173 0
154 176 0
157 180 0
147 169 0
146 168 0
140 161 0
160 181 0
150 173 0
154 176 0
156 177 0
143 166 0
148 171 0
153 175 0
145 166 0
154 176 0
147 170 0
157 179 0
146 168 0
146 168 0
148 169 0
146 168 0
142 162 0
152 175 0
150 171 0
144 167 0
147 170 0
143 164 0
142 164 0
149 172 0
150 172 0
141 163 0
136 158 0
148 170 0
139 161 0
139 160 0
146 168 0
145 166 0
136 157 0
144 164 0
143 164 0
146 169 0
137 159 0
145 166 0
137 158 0
143 164 0
148 169 0
145 167 0
141 164 0
142 164 0
147 168 0
142 163 0
142 164 0
146 167 0
143 163 0
145 166 0
143 164 0
149 169 0
147 167 0
143 164 0
137 158 0
143 164 0
146 166 0
141 162 0
136 156 0
137 159 0
138 158 0
141 160 0
139 158 0
148 168 0
141 162 0
124 144 0
145 166 0
141 161 0
144 164 0
145 166 0
144 164 0
140 160 0
144 164 0
130 151 0
145 166 0
145 165 0
133 151 0
147 168 0
150 169 0
139 160 0
145 167 0
138 159 0
138 157 0
145 166 0
137 156 0
150 170 0
140 160 0
126 147 0
135 155 0
144 164 0
135 155 0
142 162 0
136 155 0
139 159 0
145 166 0
139 159 0
147 167 0
144 164 0
141 161 0
144 165 0
141 160 0
137 157 0
135 154 0
144 163 0
136 155 0
139 159 0
147 167 0
139 158 0
144 164 0
139 157 0
145 164 0
140 156 0
140 159 0
144 160 0
147 165 0
143 163 0
148 167 0
143 162 0
139 159 0
141 158 0
142 160 0
145 164 0
145 162 0
150 165 0
155 173 0
147 165 0
139 154 0
147 165 0
146 164 0
138 158 0
139 157 0
153 172 0
132 150 0
140 158 0
139 158 0
145 162 0
139 155 0
139 154 0
140 156 0
142 159 0
143 160 0
142 159 0
147 164 0
146 162 0
138 153 0
146 163 0
146 164 0
138 152 0
144 159 0
144 162 0
140 157 0
146 161 0
145 160 0
142 159 0
147 163 0
143 160 0
142 159 0
147 163 0
141 157 0
141 154 0
147 162 0
150 165 0
149 166 0
143 156 0
145 160 0
147 161 0
148 161 0
143 158 0
149 162 0
141 152 0
139 152 0
145 157 0
146 159 0
140 152 0
145 158 0
142 154 0
139 150 0
139 153 0
149 161 0
145 159 0
142 156 0
137 149 0
145 159 0
144 155 0
134 145 0
147 161 0
136 146 0
142 153 0
145 156 0
143 155 0
147 159 0
148 161 0
142 153 0
142 151 0
145 154 0
144 153 0
145 155 0
144 156 0
140 151 0
142 150 0
145 155 0
142 151 0
141 149 0
137 145 0
137 143 0
149 158 0
148 156 0
140 146 0
139 145 0
149 158 0
131 139 0
146 154 0
141 148 0
149 158 0
145 154 0
145 153 0
141 148 0
140 148 0
148 153 0
145 154 0
143 150 0
148 154 0
139 143 0
141 147 0
149 158 0
146 152 0
140 147 0
147 155 0
143 151 0
146 153 0
143 150 0
152 156 0
144 150 0
152 159 0
140 144 0
148 156 0
150 159 0
147 156 0
146 153 0
146 155 0
139 144 0
145 153 0
154 165 0
153 162 0
149 157 0
145 152 0
155 163 0
150 159 0
156 167 0
157 166 0
145 155 0
146 155 0
148 157 0
155 163 0
152 160 0
154 164 0
152 158 0
145 153 0
149 159 0
174 197 0
165 188 0
171 193 0
172 194 0
171 194 0
172 195 0
175 196 0
173 195 0
169 191 0
174 196 0
171 193 0
175 197 0
172 194 0
172 194 0
170 191 0
168 191 0
174 196 0
170 192 0
170 192 0
173 195 0
170 192 0
167 189 0
166 187 0
173 194 0
170 192 0
169 191 0
173 195 0
172 193 0
170 191 0
172 193 0
170 192 0
169 191 0
168 190 0
167 189 0
168 190 0
171 193 0
172 193 0
173 194 0
174 197 0
167 188 0
168 190 0
168 190 0
165 188 0
169 190 0
167 189 0
168 190 0
168 190 0
168 190 0
166 188 0
166 188 0
169 192 0
167 189 0
165 187 0
167 189 0
165 188 0
166 188 0
163 185 0
166 188 0
166 187 0
158 180 0
159 181 0
162 184 0
169 192 0
166 189 0
164 186 0
161 182 0
168 190 0
156 178 0
164 186 0
163 186 0
154 177 0
160 182 0
159 181 0
169 192 0
163 186 0
163 185 0
166 189 0
165 187 0
160 182 0
162 184 0
157 179 0
164 186 0
166 188 0
164 188 0
169 190 0
162 183 0
167 189 0
154 177 0
162 183 0
166 188 0
165 187 0
157 180 0
163 185 0
155 178 0
159 181 0
163 186 0
159 181 0
159 182 0
157 180 0
156 179 0
153 175 0
158 180 0
155 177 0
152 173 0
151 173 0
167 190 0
155 178 0
158 180 0
162 185 0
156 178 0
161 184 0
160 182 0
151 174 0
153 176 0
160 183 0
154 176 0
157 180 0
164 187 0
162 184 0
155 178 0
156 179 0
159 181 0
152 175 0
156 178 0
150 172 0
161 185 0
157 179 0
153 176 0
158 182 0
156 178 0
153 176 0
151 173 0
150 174 0
157 179 0
155 177 0
152 174 0
156 179 0
153 175 0
154 177 0
150 173 0
149 171 0
148 171 0
156 178 0
150 173 0
150 173 0
155 178 0
153 175 0
152 174 0
153 175 0
144 166 0
153 175 0
142 164 0
144 166 0
155 178 0
146 169 0
161 182 0
145 167 0
147 170 0
144 165 0
138 159 0
146 168 0
145 167 0
145 168 0
145 165 0
146 167 0
153 175 0
147 169 0
150 172 0
141 162 0
151 174 0
144 166 0
150 172 0
146 167 0
146 168 0
143 165 0
146 168 0
146 169 0
143 165 0
142 163 0
144 166 0
144 166 0
143 164 0
140 161 0
151 173 0
141 162 0
147 168 0
143 164 0
149 170 0
147 169 0
149 171 0
144 166 0
145 166 0
143 164 0
142 162 0
154 174 0
147 168 0
149 171 0
144 166 0
135 156 0
145 165 0
138 158 0
139 160 0
146 166 0
149 170 0
132 152 0
143 163 0
150 170 0
137 158 0
143 163 0
143 163 0
136 154 0
143 164 0
137 155 0
134 152 0
140 160 0
141 162 0
146 168 0
144 164 0
147 169 0
137 158 0
145 166 0
135 154 0
144 164 0
141 161 0
128 148 0
143 163 0
137 155 0
136 157 0
138 160 0
136 156 0
138 159 0
144 164 0
147 166 0
145 165 0
139 159 0
144 163 0
143 163 0
139 157 0
144 162 0
140 160 0
136 157 0
140 160 0
142 162 0
148 167 0
139 159 0
140 160 0
143 163 0
143 162 0
144 164 0
146 166 0
141 162 0
151 170 0
150 168 0
144 161 0
144 162 0
137 156 0
147 168 0
144 163 0
140 158 0
145 163 0
148 167 0
140 159 0
148 167 0
142 161 0
143 159 0
151 171 0
141 159 0
133 151 0
144 162 0
143 162 0
143 159 0
138 155 0
141 160 0
137 155 0
139 156 0
140 158 0
136 154 0
150 166 0
142 162 0
140 155 0
147 166 0
148 166 0
139 158 0
145 163 0
146 165 0
144 161 0
148 165 0
144 161 0
140 157 0
145 161 0
144 159 0
148 163 0
143 157 0
136 154 0
144 160 0
144 160 0
141 158 0
143 156 0
142 160 0
148 164 0
147 162 0
138 153 0
142 157 0
134 149 0
142 156 0
143 156 0
142 155 0
142 157 0
151 166 0
144 159 0
138 150 0
139 151 0
146 160 0
148 163 0
151 163 0
147 160 0
145 159 0
141 152 0
138 148 0
145 159 0
146 158 0
139 150 0
148 162 0
144 157 0
146 155 0
145 157 0
143 154 0
145 156 0
147 159 0
138 147 0
144 155 0
145 155 0
144 154 0
149 161 0
149 162 0
146 158 0
142 153 0
144 155 0
143 150 0
149 161 0
140 149 0
136 144 0
141 151 0
145 156 0
149 159 0
141 149 0
148 155 0
144 152 0
150 158 0
148 155 0
143 149 0
147 158 0
145 153 0
143 151 0
146 155 0
141 152 0
148 158 0
146 156 0
149 156 0
154 165 0
145 153 0
143 151 0
153 161 0
148 156 0
148 156 0
147 155 0
152 158 0
143 150 0
141 148 0
151 161 0
147 152 0
145 151 0
147 156 0
149 158 0
149 157 0
151 160 0
141 147 0
145 150 0
142 149 0
140 146 0
156 164 0
148 153 0
148 156 0
149 157 0
151 160 0
160 171 0
157 167 0
150 158 0
153 163 0
148 157 0
152 160 0
149 157 0
154 165 0
143 151 0
157 168 0
152 159 0
152 161 0
161 171 0
153 163 0
153 166 0
172 195 0
171 193 0
174 196 0
170 193 0
170 192 0
172 193 0
171 193 0
174 196 0
173 194 0
169 191 0
173 195 0
165 187 0
173 195 0
168 189 0
173 196 0
165 188 0
173 196 0
170 193 0
172 193 0
172 194 0
170 192 0
170 193 0
169 191 0
166 188 0
167 189 0
169 191 0
167 190 0
167 189 0
168 190 0
171 193 0
172 194 0
168 190 0
172 195 0
172 195 0
168 191 0
163 187 0
171 192 0
169 191 0
170 192 0
164 187 0
165 187 0
171 193 0
166 188 0
164 186 0
170 191 0
165 188 0
171 193 0
165 187 0
165 188 0
173 195 0
164 186 0
166 188 0
167 189 0
165 187 0
165 187 0
164 186 0
173 195 0
163 186 0
165 187 0
160 182 0
164 187 0
163 185 0
161 184 0
166 188 0
162 185 0
157 179 0
163 186 0
161 184 0
164 186 0
153 175 0
165 186 0
163 186 0
162 184 0
161 184 0
164 186 0
165 187 0
162 184 0
164 187 0
162 184 0
159 182 0
156 179 0
165 186 0
158 180 0
168 191 0
162 184 0
166 188 0
163 186 0
159 182 0
163 186 0
158 181 0
158 181 0
162 185 0
163 185 0
163 186 0
158 181 0
152 175 0
153 176 0
157 180 0
162 185 0
163 186 0
153 177 0
165 188 0
157 180 0
158 179 0
161 184 0
165 188 0
159 181 0
160 182 0
159 181 0
163 185 0
159 182 0
153 176 0
155 178 0
153 175 0
162 184 0
161 184 0
153 175 0
160 182 0
158 181 0
163 185 0
153 175 0
156 178 0
153 176 0
156 179 0
153 176 0
158 180 0
155 178 0
152 176 0
150 172 0
157 180 0
163 186 0
158 181 0
157 179 0
157 178 0
154 176 0
156 179 0
149 172 0
153 176 0
147 169 0
150 173 0
156 178 0
143 165 0
144 166 0
156 179 0
154 177 0
141 163 0
151 172 0
153 174 0
150 173 0
149 171 0
155 177 0
150 173 0
151 173 0
144 166 0
157 179 0
149 171 0
148 170 0
151 174 0
148 170 0
153 175 0
152 174 0
153 174 0
140 162 0
152 173 0
154 176 0
146 168 0
156 179 0
148 170 0
130 151 0
144 166 0
148 169 0
150 171 0
140 162 0
145 166 0
153 175 0
145 167 0
132 152 0
145 167 0
144 166 0
145 166 0
148 170 0
135 156 0
139 161 0
150 170 0
142 162 0
138 158 0
147 169 0
148 168 0
143 164 0
148 169 0
143 163 0
150 172 0
147 169 0
144 164 0
144 166 0
138 160 0
145 165 0
144 163 0
143 163 0
137 158 0
149 170 0
144 165 0
145 166 0
143 164 0
149 170 0
143 164 0
140 160 0
141 162 0
143 164 0
146 166 0
140 161 0
144 165 0
136 157 0
145 166 0
143 165 0
144 165 0
139 161 0
154 174 0
151 172 0
132 152 0
139 159 0
144 163 0
142 163 0
138 159 0
145 166 0
146 165 0
138 159 0
144 163 0
137 156 0
146 168 0
146 166 0
139 158 0
148 169 0
139 159 0
143 161 0
153 172 0
139 158 0
140 159 0
142 161 0
145 164 0
145 165 0
139 159 0
135 153 0
142 162 0
139 160 0
150 170 0
139 158 0
147 166 0
144 165 0
144 165 0
150 171 0
141 160 0
145 165 0
149 167 0
141 161 0
148 167 0
131 151 0
144 164 0
142 161 0
139 158 0
145 165 0
153 170 0
148 167 0
153 170 0
146 165 0
137 153 0
149 167 0
142 161 0
147 164 0
152 172 0
144 164 0
140 160 0
139 158 0
146 164 0
145 163 0
150 167 0
142 158 0
143 162 0
146 164 0
152 168 0
143 161 0
145 162 0
139 156 0
149 167 0
148 166 0
144 160 0
143 161 0
154 172 0
149 168 0
139 153 0
152 167 0
146 165 0
145 161 0
141 155 0
140 154 0
144 161 0
144 160 0
146 159 0
146 161 0
148 167 0
141 157 0
144 159 0
145 162 0
141 155 0
147 163 0
148 162 0
142 156 0
146 162 0
140 157 0
143 160 0
150 163 0
144 159 0
139 153 0
144 158 0
149 163 0
142 156 0
137 149 0
147 157 0
141 154 0
143 157 0
143 155 0
137 149 0
149 162 0
135 148 0
141 154 0
143 156 0
147 160 0
143 155 0
148 161 0
147 158 0
140 154 0
146 154 0
141 151 0
139 150 0
138 147 0
143 152 0
144 153 0
146 157 0
142 153 0
146 155 0
153 163 0
150 161 0
148 160 0
150 158 0
148 158 0
143 151 0
139 148 0
147 157 0
144 152 0
148 161 0
140 151 0
151 163 0
146 154 0
139 148 0
147 156 0
137 144 0
143 150 0
140 147 0
145 153 0
146 150 0
143 151 0
145 153 0
139 146 0
156 165 0
147 158 0
145 151 0
152 161 0
147 157 0
147 153 0
151 160 0
146 154 0
148 157 0
148 158 0
147 156 0
147 154 0
151 161 0
151 159 0
153 165 0
152 163 0
151 160 0
149 157 0
150 160 0
159 170 0
154 164 0
149 158 0
145 156 0
156 163 0
148 157 0
152 163 0
151 163 0
150 157 0
153 162 0
148 153 0
155 160 0
154 164 0
157 168 0
156 166 0
155 165 0
158 167 0
152 164 0
174 196 0
171 193 0
171 193 0
168 191 0
173 195 0
173 196 0
174 196 0
175 197 0
174 196 0
173 195 0
169 191 0
171 194 0
172 194 0
169 191 0
171 194 0
168 191 0
169 191 0
173 194 0
173 195 0
171 193 0
173 196 0
173 195 0
174 196 0
170 193 0
172 194 0
172 195 0
172 194 0
171 193 0
169 191 0
171 193 0
169 192 0
166 187 0
172 195 0
170 193 0
172 194 0
171 193 0
170 193 0
170 192 0
167 188 0
169 191 0
167 189 0
161 183 0
165 188 0
169 191 0
168 190 0
169 191 0
164 186 0
168 190 0
165 187 0
162 184 0
166 188 0
167 190 0
163 185 0
162 183 0
165 188 0
163 185 0
167 190 0
165 187 0
167 189 0
167 190 0
167 189 0
167 190 0
169 192 0
170 193 0
165 187 0
167 190 0
166 188 0
167 190 0
165 188 0
160 182 0
166 189 0
167 190 0
158 181 0
169 191 0
165 188 0
168 191 0
156 178 0
158 180 0
164 185 0
162 184 0
165 188 0
164 187 0
154 177 0
166 189 0
161 184 0
159 181 0
160 184 0
158 181 0
162 185 0
157 180 0
166 188 0
157 179 0
162 185 0
157 179 0
160 182 0
157 180 0
157 179 0
159 182 0
162 185 0
157 179 0
162 185 0
154 176 0
154 176 0
149 173 0
159 182 0
159 182 0
154 177 0
160 183 0
162 185 0
157 180 0
157 179 0
159 182 0
159 181 0
160 183 0
159 182 0
157 180 0
157 178 0
150 173 0
158 181 0
155 177 0
154 176 0
150 173 0
157 180 0
157 180 0
156 179 0
156 179 0
152 174 0
155 178 0
161 184 0
154 176 0
152 174 0
153 177 0
153 174 0
152 174 0
154 176 0
154 176 0
157 180 0
154 176 0
162 184 0
153 174 0
155 178 0
159 181 0
156 177 0
141 163 0
152 174 0
156 178 0
155 178 0
148 171 0
145 168 0
143 165 0
150 170 0
146 168 0
148 170 0
155 177 0
150 172 0
153 175 0
147 170 0
144 167 0
152 174 0
137 158 0
150 172 0
153 173 0
146 167 0
152 175 0
152 174 0
158 181 0
153 175 0
146 169 0
149 171 0
153 175 0
142 163 0
151 173 0
153 175 0
149 172 0
149 169 0
153 174 0
149 169 0
142 163 0
143 163 0
143 165 0
148 171 0
144 166 0
147 168 0
141 161 0
146 167 0
150 172 0
144 165 0
147 167 0
142 163 0
140 161 0
135 156 0
144 167 0
150 173 0
142 162 0
139 160 0
145 165 0
146 168 0
141 162 0
148 170 0
148 169 0
146 168 0
145 165 0
142 163 0
142 164 0
136 157 0
139 159 0
138 160 0
138 159 0
149 170 0
140 160 0
150 171 0
144 163 0
145 165 0
149 168 0
146 167 0
144 165 0
137 158 0
140 161 0
136 156 0
147 166 0
146 167 0
136 156 0
138 159 0
145 166 0
136 156 0
136 155 0
143 161 0
145 165 0
153 173 0
140 160 0
142 162 0
150 171 0
144 166 0
147 166 0
138 156 0
148 170 0
146 167 0
139 158 0
133 153 0
143 164 0
143 164 0
145 164 0
144 162 0
142 163 0
155 175 0
145 166 0
153 172 0
145 165 0
136 154 0
146 164 0
139 157 0
144 162 0
136 155 0
143 163 0
142 160 0
146 165 0
135 153 0
148 166 0
143 161 0
149 167 0
149 168 0
148 168 0
144 162 0
153 173 0
139 159 0
144 164 0
144 163 0
148 167 0
146 164 0
150 170 0
144 163 0
146 163 0
141 160 0
143 162 0
145 163 0
153 171 0
141 160 0
142 160 0
142 159 0
140 158 0
148 166 0
152 171 0
146 161 0
147 164 0
144 161 0
142 159 0
142 159 0
142 157 0
145 161 0
145 163 0
151 170 0
144 162 0
145 162 0
143 161 0
151 167 0
146 162 0
135 150 0
141 156 0
149 164 0
144 162 0
140 157 0
147 163 0
153 169 0
144 157 0
141 156 0
153 168 0
138 151 0
142 157 0
141 156 0
148 164 0
144 157 0
148 162 0
139 152 0
142 155 0
147 161 0
138 154 0
142 157 0
151 166 0
148 161 0
141 153 0
148 163 0
146 158 0
144 155 0
147 161 0
144 157 0
146 159 0
144 155 0
140 148 0
152 166 0
149 166 0
146 159 0
145 159 0
145 158 0
148 160 0
154 169 0
146 155 0
153 166 0
135 146 0
139 149 0
151 162 0
147 158 0
146 158 0
145 154 0
143 154 0
140 149 0
155 167 0
147 159 0
146 155 0
146 154 0
144 152 0
145 154 0
149 158 0
142 149 0
146 155 0
149 157 0
139 148 0
148 157 0
139 148 0
145 154 0
140 147 0
143 152 0
146 157 0
142 148 0
149 158 0
148 156 0
140 146 0
152 163 0
150 160 0
151 160 0
143 151 0
149 156 0
142 151 0
146 152 0
150 161 0
147 158 0
149 157 0
148 155 0
148 156 0
148 158 0
147 156 0
149 158 0
149 158 0
154 163 0
151 160 0
148 155 0
158 167 0
147 157 0
148 155 0
150 157 0
153 163 0
152 162 0
159 170 0
152 162 0
150 162 0
145 152 0
153 161 0
148 156 0
155 168 0
152 161 0
152 162 0
175 196 0
175 196 0
169 192 0
171 194 0
171 193 0
172 195 0
170 192 0
171 193 0
169 192 0
171 193 0
170 193 0
168 191 0
172 194 0
173 195 0
166 188 0
175 197 0
172 194 0
169 192 0
167 189 0
166 188 0
165 187 0
166 188 0
170 193 0
176 198 0
169 191 0
168 191 0
168 190 0
171 194 0
171 193 0
170 192 0
168 189 0
167 188 0
165 188 0
169 191 0
165 187 0
164 186 0
167 188 0
170 192 0
168 191 0
169 192 0
171 194 0
165 187 0
169 191 0
171 193 0
171 193 0
164 187 0
169 190 0
163 185 0
165 187 0
167 189 0
167 190 0
165 188 0
162 184 0
166 189 0
165 187 0
161 184 0
165 188 0
167 190 0
163 185 0
162 185 0
169 192 0
167 188 0
168 190 0
158 181 0
167 189 0
167 190 0
164 187 0
166 187 0
169 191 0
164 186 0
161 183 0
157 180 0
160 182 0
160 183 0
158 182 0
166 187 0
160 182 0
159 182 0
163 186 0
157 180 0
162 184 0
166 189 0
160 182 0
162 185 0
163 186 0
165 188 0
157 180 0
157 180 0
165 188 0
162 186 0
154 178 0
155 178 0
161 183 0
164 186 0
163 186 0
162 184 0
165 187 0
154 176 0
154 177 0
159 183 0
160 182 0
163 186 0
157 180 0
156 179 0
155 178 0
161 183 0
152 175 0
157 180 0
159 182 0
159 181 0
156 179 0
158 179 0
156 178 0
154 177 0
159 182 0
159 181 0
147 169 0
159 182 0
159 182 0
149 171 0
154 176 0
157 180 0
159 183 0
150 173 0
155 178 0
155 178 0
161 183 0
143 165 0
152 174 0
158 181 0
158 180 0
149 171 0
155 177 0
155 177 0
155 177 0
154 176 0
155 177 0
155 178 0
156 179 0
155 176 0
154 176 0
155 178 0
153 175 0
145 166 0
158 181 0
156 179 0
152 175 0
149 171 0
141 162 0
151 173 0
152 174 0
152 174 0
155 177 0
153 175 0
148 170 0
147 171 0
145 167 0
154 176 0
148 170 0
152 173 0
144 166 0
160 183 0
136 158 0
154 177 0
144 165 0
146 168 0
150 172 0
150 171 0
148 170 0
148 170 0
144 166 0
155 176 0
151 172 0
151 174 0
152 173 0
145 167 0
146 168 0
142 163 0
154 174 0
146 168 0
139 159 0
143 166 0
141 163 0
147 168 0
148 170 0
142 163 0
147 169 0
147 167 0
149 169 0
152 173 0
139 158 0
143 164 0
149 171 0
141 162 0
148 169 0
146 166 0
146 168 0
140 162 0
139 159 0
130 152 0
146 168 0
138 159 0
141 163 0
147 170 0
148 169 0
146 166 0
143 164 0
146 168 0
142 162 0
148 170 0
139 160 0
143 165 0
142 162 0
144 165 0
143 161 0
148 168 0
151 171 0
150 170 0
144 165 0
142 161 0
147 169 0
140 161 0
151 170 0
145 166 0
143 164 0
139 159 0
143 162 0
147 168 0
150 171 0
145 164 0
140 159 0
134 154 0
147 166 0
145 164 0
149 170 0
145 167 0
137 156 0
137 157 0
150 171 0
146 166 0
147 166 0
147 166 0
142 162 0
145 165 0
143 163 0
147 167 0
148 168 0
147 167 0
145 163 0
144 164 0
143 162 0
139 157 0
143 160 0
142 162 0
155 175 0
142 162 0
148 169 0
143 161 0
143 161 0
149 168 0
153 173 0
142 160 0
143 162 0
153 174 0
143 162 0
143 160 0
152 172 0
151 171 0
139 158 0
148 166 0
146 165 0
143 161 0
144 159 0
141 159 0
146 165 0
149 169 0
152 169 0
139 158 0
148 164 0
143 161 0
144 162 0
149 167 0
143 161 0
147 166 0
144 160 0
143 160 0
148 163 0
147 164 0
152 168 0
149 166 0
152 171 0
142 158 0
139 158 0
145 161 0
140 158 0
144 160 0
140 158 0
149 166 0
146 162 0
139 154 0
144 160 0
143 158 0
146 163 0
145 160 0
151 167 0
142 156 0
143 159 0
150 165 0
145 161 0
142 157 0
140 153 0
143 160 0
145 157 0
145 162 0
150 165 0
146 161 0
147 161 0
152 166 0
138 152 0
148 164 0
141 154 0
147 159 0
148 162 0
144 157 0
152 167 0
146 159 0
145 158 0
144 156 0
145 158 0
146 158 0
149 161 0
148 161 0
147 159 0
150 160 0
145 157 0
148 160 0
145 157 0
147 160 0
149 161 0
148 160 0
144 155 0
146 160 0
148 160 0
142 153 0
147 159 0
146 157 0
144 154 0
146 157 0
142 150 0
147 158 0
149 160 0
149 159 0
147 159 0
148 156 0
144 153 0
143 153 0
153 162 0
143 151 0
148 158 0
144 151 0
142 148 0
148 156 0
152 161 0
149 160 0
146 154 0
149 159 0
150 159 0
145 155 0
149 157 0
146 155 0
153 163 0
147 155 0
151 162 0
151 162 0
147 158 0
142 147 0
153 162 0
152 162 0
149 159 0
150 160 0
146 152 0
150 156 0
150 157 0
152 164 0
150 161 0
151 161 0
143 154 0
149 158 0
153 161 0
150 161 0
152 161 0
152 162 0
158 167 0
152 160 0
151 162 0
142 150 0
147 157 0
153 163 0
157 166 0
156 166 0
174 196 0
171 193 0
172 194 0
171 193 0
168 191 0
169 191 0
172 194 0
171 193 0
171 193 0
168 189 0
166 188 0
167 190 0
171 193 0
169 192 0
174 195 0
169 191 0
168 190 0
167 190 0
166 188 0
167 190 0
163 186 0
171 192 0
169 190 0
171 193 0
172 194 0
174 196 0
173 195 0
170 191 0
167 189 0
172 193 0
168 191 0
168 190 0
169 192 0
168 191 0
171 193 0
165 188 0
170 192 0
167 190 0
167 189 0
173 195 0
160 182 0
171 193 0
171 193 0
170 192 0
169 191 0
167 189 0
168 191 0
167 190 0
161 183 0
165 188 0
164 187 0
166 189 0
163 186 0
163 185 0
160 182 0
166 189 0
158 180 0
165 187 0
169 192 0
171 193 0
161 183 0
164 186 0
167 190 0
168 191 0
160 183 0
160 182 0
164 186 0
161 183 0
162 184 0
162 185 0
165 187 0
167 189 0
158 181 0
157 180 0
165 188 0
164 185 0
161 183 0
161 183 0
161 183 0
168 190 0
157 180 0
160 182 0
159 183 0
165 187 0
155 178 0
161 184 0
161 184 0
162 184 0
160 183 0
164 186 0
158 181 0
159 182 0
162 184 0
159 183 0
161 183 0
162 184 0
156 179 0
158 182 0
162 184 0
161 184 0
159 182 0
152 174 0
151 173 0
161 184 0
159 182 0
155 177 0
150 172 0
157 180 0
162 184 0
161 184 0
165 188 0
159 182 0
153 176 0
157 179 0
160 182 0
153 175 0
160 182 0
157 180 0
161 184 0
156 177 0
154 176 0
149 172 0
157 179 0
157 180 0
154 177 0
159 183 0
151 173 0
161 183 0
161 183 0
145 166 0
160 183 0
167 189 0
159 182 0
155 178 0
162 184 0
154 177 0
152 175 0
155 178 0
163 186 0
158 181 0
151 174 0
148 170 0
148 169 0
144 166 0
156 177 0
154 176 0
151 173 0
156 177 0
152 174 0
156 179 0
154 176 0
150 172 0
151 174 0
148 171 0
154 175 0
150 172 0
152 174 0
150 173 0
148 170 0
150 171 0
147 171 0
152 174 0
151 173 0
152 175 0
151 173 0
156 178 0
147 169 0
139 162 0
153 174 0
144 166 0
151 173 0
149 170 0
143 165 0
150 172 0
151 172 0
149 171 0
145 166 0
150 172 0
141 162 0
152 173 0
147 168 0
145 165 0
150 171 0
150 172 0
142 163 0
155 176 0
147 169 0
152 174 0
140 162 0
151 173 0
140 161 0
144 166 0
148 170 0
142 164 0
150 172 0
144 164 0
147 168 0
143 163 0
144 166 0
154 175 0
139 161 0
143 165 0
139 161 0
146 165 0
140 160 0
147 168 0
139 160 0
138 160 0
143 163 0
144 166 0
143 163 0
149 169 0
139 158 0
140 160 0
150 170 0
142 164 0
147 168 0
143 163 0
137 157 0
149 169 0
148 170 0
143 163 0
142 163 0
140 161 0
143 163 0
145 167 0
142 162 0
148 167 0
142 162 0
148 169 0
141 162 0
142 161 0
156 177 0
147 167 0
149 169 0
145 166 0
146 167 0
149 169 0
144 164 0
151 171 0
153 172 0
145 164 0
146 167 0
140 160 0
137 156 0
141 160 0
147 167 0
139 158 0
147 167 0
141 161 0
151 172 0
147 165 0
143 164 0
146 167 0
145 165 0
143 162 0
150 168 0
147 166 0
148 168 0
146 167 0
143 161 0
145 164 0
148 168 0
150 169 0
146 164 0
140 159 0
144 162 0
145 164 0
137 156 0
143 161 0
149 170 0
138 154 0
133 150 0
142 159 0
146 164 0
145 165 0
148 167 0
143 161 0
147 166 0
148 166 0
151 171 0
142 160 0
155 175 0
149 166 0
149 166 0
136 152 0
143 160 0
150 168 0
153 174 0
143 162 0
153 169 0
148 167 0
151 167 0
149 165 0
145 160 0
139 155 0
138 155 0
144 161 0
146 163 0
152 168 0
148 165 0
147 162 0
138 153 0
141 158 0
147 163 0
150 166 0
149 166 0
148 164 0
145 159 0
134 146 0
146 161 0
146 161 0
140 157 0
147 163 0
145 157 0
146 159 0
142 156 0
152 166 0
146 157 0
144 157 0
143 158 0
140 155 0
139 153 0
141 153 0
149 163 0
151 163 0
149 163 0
147 162 0
150 165 0
140 153 0
141 153 0
136 148 0
140 153 0
148 161 0
145 159 0
140 152 0
147 159 0
147 162 0
143 155 0
148 161 0
144 157 0
148 161 0
148 161 0
136 147 0
148 159 0
143 153 0
154 166 0
146 159 0
152 164 0
146 158 0
149 158 0
145 157 0
151 161 0
153 164 0
151 161 0
141 148 0
149 159 0
142 150 0
156 167 0
152 160 0
147 156 0
146 154 0
150 159 0
145 153 0
143 154 0
153 162 0
147 157 0
152 160 0
152 163 0
147 155 0
144 152 0
157 167 0
150 160 0
145 153 0
149 158 0
142 149 0
146 156 0
141 152 0
144 154 0
156 168 0
158 169 0
151 159 0
149 159 0
148 156 0
153 161 0
151 162 0
155 167 0
148 159 0
144 149 0
158 169 0
148 156 0
156 164 0
152 163 0
148 156 0
154 164 0
151 161 0
148 157 0
155 164 0
148 154 0
157 166 0
172 194 0
171 193 0
173 195 0
172 196 0
175 197 0
170 193 0
171 193 0
170 192 0
170 192 0
174 196 0
172 194 0
174 196 0
169 192 0
174 196 0
171 193 0
172 194 0
171 193 0
166 187 0
168 190 0
170 192 0
172 195 0
167 189 0
167 189 0
167 189 0
170 192 0
171 193 0
168 190 0
172 194 0
165 188 0
169 191 0
167 189 0
173 194 0
172 194 0
170 193 0
169 192 0
167 189 0
171 194 0
163 186 0
167 188 0
168 189 0
167 189 0
167 189 0
168 190 0
170 192 0
171 193 0
164 186 0
167 188 0
163 186 0
164 187 0
165 187 0
166 188 0
165 187 0
167 188 0
167 189 0
170 193 0
166 188 0
164 187 0
162 184 0
163 186 0
163 185 0
163 186 0
165 189 0
162 185 0
162 185 0
166 188 0
166 188 0
165 187 0
164 186 0
163 186 0
169 192 0
158 180 0
167 190 0
164 186 0
161 184 0
165 188 0
161 184 0
160 184 0
165 187 0
156 179 0
164 187 0
160 183 0
164 186 0
163 185 0
162 185 0
165 187 0
166 188 0
156 179 0
162 185 0
162 184 0
161 184 0
160 182 0
165 188 0
160 182 0
157 180 0
161 184 0
158 180 0
161 183 0
163 185 0
159 182 0
158 181 0
160 183 0
155 178 0
158 180 0
161 184 0
159 182 0
157 180 0
162 184 0
157 180 0
159 181 0
156 179 0
156 179 0
156 179 0
160 182 0
159 181 0
158 181 0
159 182 0
153 176 0
158 180 0
159 181 0
149 172 0
154 177 0
148 170 0
161 184 0
164 185 0
154 176 0
160 183 0
154 177 0
152 174 0
161 184 0
158 180 0
144 167 0
149 171 0
153 176 0
156 179 0
153 175 0
161 183 0
157 179 0
157 179 0
155 178 0
155 177 0
154 177 0
155 178 0
151 174 0
154 177 0
150 171 0
160 182 0
144 166 0
160 183 0
143 164 0
158 179 0
155 176 0
158 180 0
146 168 0
149 170 0
147 169 0
156 179 0
148 169 0
153 174 0
149 172 0
154 176 0
144 165 0
150 171 0
146 168 0
149 172 0
152 174 0
158 180 0
155 177 0
146 167 0
153 175 0
143 165 0
140 162 0
144 165 0
145 167 0
149 170 0
145 167 0
138 161 0
141 164 0
153 175 0
141 163 0
152 174 0
146 167 0
143 164 0
149 170 0
147 169 0
140 161 0
146 167 0
144 166 0
143 164 0
147 169 0
144 165 0
146 168 0
147 168 0
150 171 0
151 172 0
151 171 0
142 163 0
139 162 0
157 179 0
148 168 0
145 167 0
149 171 0
148 168 0
147 169 0
139 159 0
151 172 0
142 163 0
144 165 0
149 171 0
145 166 0
140 161 0
142 163 0
146 167 0
147 167 0
142 162 0
144 165 0
146 166 0
146 167 0
148 170 0
144 164 0
139 158 0
141 163 0
150 169 0
137 156 0
144 165 0
148 168 0
147 168 0
144 165 0
150 171 0
138 158 0
149 168 0
147 168 0
148 168 0
143 163 0
145 165 0
142 163 0
145 163 0
145 164 0
148 169 0
145 165 0
150 170 0
145 164 0
146 167 0
150 170 0
141 161 0
141 160 0
145 165 0
144 163 0
144 162 0
143 163 0
149 170 0
135 155 0
142 161 0
147 166 0
147 167 0
147 165 0
147 167 0
139 158 0
147 167 0
148 167 0
149 170 0
151 170 0
145 165 0
138 157 0
146 165 0
144 163 0
148 168 0
148 167 0
151 169 0
148 167 0
147 165 0
149 168 0
149 167 0
139 157 0
146 165 0
155 175 0
145 163 0
148 167 0
145 162 0
141 158 0
139 157 0
145 164 0
144 159 0
154 173 0
148 167 0
151 168 0
145 163 0
152 169 0
154 170 0
146 163 0
137 152 0
146 163 0
140 157 0
150 165 0
148 166 0
142 161 0
142 157 0
140 157 0
147 164 0
144 159 0
149 168 0
144 160 0
151 170 0
150 166 0
146 163 0
150 164 0
139 153 0
148 165 0
145 158 0
152 167 0
149 167 0
143 157 0
145 158 0
150 167 0
146 162 0
146 162 0
145 162 0
140 153 0
143 155 0
145 159 0
151 166 0
152 167 0
139 151 0
141 157 0
150 165 0
146 162 0
153 169 0
147 161 0
144 157 0
143 157 0
153 166 0
144 154 0
151 163 0
150 162 0
146 158 0
148 161 0
153 170 0
149 162 0
149 160 0
150 160 0
145 158 0
143 155 0
145 156 0
152 164 0
150 163 0
151 165 0
146 157 0
143 152 0
145 156 0
144 153 0
147 160 0
146 157 0
144 156 0
139 151 0
152 164 0
145 155 0
147 159 0
147 157 0
149 160 0
151 164 0
144 154 0
148 159 0
148 158 0
146 157 0
146 157 0
153 166 0
138 146 0
153 163 0
155 166 0
148 159 0
154 165 0
154 165 0
153 163 0
150 162 0
147 154 0
154 163 0
154 165 0
143 153 0
147 158 0
152 164 0
154 167 0
146 155 0
151 160 0
153 164 0
152 162 0
150 157 0
151 162 0
157 165 0
159 168 0
156 167 0
153 163 0
156 164 0
148 156 0
150 160 0
157 165 0
157 165 0
156 168 0
149 160 0
149 157 0
153 165 0
157 168 0
171 194 0
173 196 0
169 192 0
172 194 0
172 195 0
171 194 0
173 194 0
171 193 0
171 193 0
168 190 0
169 192 0
169 191 0
170 192 0
170 193 0
166 189 0
172 194 0
172 194 0
173 195 0
169 191 0
172 195 0
170 192 0
170 192 0
167 189 0
164 186 0
171 194 0
172 194 0
167 189 0
164 186 0
166 189 0
164 186 0
169 190 0
167 189 0
169 191 0
172 194 0
167 190 0
172 195 0
165 186 0
164 186 0
167 190 0
169 191 0
160 182 0
170 193 0
166 189 0
169 191 0
171 194 0
167 190 0
167 190 0
167 189 0
158 180 0
170 192 0
166 187 0
165 188 0
167 189 0
162 184 0
164 186 0
165 187 0
164 186 0
159 181 0
158 180 0
161 183 0
170 192 0
162 184 0
163 186 0
166 188 0
160 181 0
167 190 0
169 191 0
161 184 0
161 184 0
166 189 0
166 190 0
159 181 0
163 185 0
165 187 0
162 184 0
159 181 0
164 186 0
163 185 0
162 186 0
160 182 0
161 183 0
162 185 0
163 186 0
162 184 0
157 180 0
157 180 0
156 179 0
159 182 0
163 186 0
156 179 0
159 181 0
162 185 0
157 179 0
166 188 0
157 178 0
156 179 0
156 178 0
156 180 0
156 179 0
157 179 0
155 178 0
160 182 0
155 178 0
156 179 0
154 176 0
159 180 0
163 185 0
156 179 0
158 181 0
153 176 0
156 178 0
159 181 0
153 175 0
155 179 0
158 180 0
156 179 0
164 187 0
163 185 0
158 181 0
158 182 0
154 177 0
160 182 0
159 182 0
161 184 0
157 181 0
159 181 0
149 172 0
154 177 0
155 177 0
152 175 0
152 175 0
151 173 0
152 175 0
151 174 0
158 181 0
155 178 0
145 167 0
154 176 0
159 181 0
155 177 0
154 177 0
159 182 0
150 173 0
154 177 0
162 184 0
157 179 0
150 173 0
153 175 0
146 167 0
150 173 0
157 178 0
148 170 0
152 174 0
155 177 0
155 178 0
157 177 0
158 178 0
151 173 0
155 177 0
156 178 0
146 169 0
155 176 0
151 174 0
148 169 0
142 163 0
155 177 0
150 171 0
143 165 0
144 167 0
156 177 0
152 174 0
156 178 0
148 170 0
153 173 0
151 172 0
151 173 0
148 171 0
147 167 0
147 168 0
149 171 0
155 177 0
148 170 0
155 177 0
148 170 0
149 171 0
142 164 0
140 160 0
143 166 0
150 170 0
149 170 0
145 165 0
150 172 0
141 162 0
146 168 0
146 167 0
138 159 0
145 166 0
151 172 0
149 171 0
152 173 0
148 169 0
142 163 0
150 171 0
143 165 0
147 168 0
150 172 0
148 170 0
150 170 0
144 165 0
137 157 0
139 161 0
151 172 0
147 167 0
145 166 0
138 161 0
150 171 0
148 170 0
141 161 0
141 161 0
140 159 0
140 161 0
148 168 0
145 163 0
144 164 0
142 163 0
154 176 0
142 162 0
141 162 0
151 170 0
151 172 0
140 161 0
145 167 0
148 167 0
139 159 0
155 176 0
141 162 0
137 155 0
147 167 0
144 165 0
148 168 0
137 156 0
143 162 0
144 164 0
147 169 0
144 163 0
147 169 0
136 155 0
142 163 0
147 167 0
142 162 0
150 170 0
153 173 0
145 164 0
153 174 0
152 173 0
146 164 0
145 165 0
146 167 0
150 170 0
139 158 0
142 162 0
150 169 0
144 164 0
142 160 0
141 160 0
141 161 0
147 165 0
147 166 0
145 164 0
135 152 0
147 168 0
140 158 0
148 166 0
149 169 0
148 165 0
141 157 0
143 159 0
148 167 0
149 169 0
152 171 0
145 162 0
146 164 0
152 172 0
153 171 0
146 164 0
146 164 0
147 163 0
147 165 0
144 162 0
145 161 0
148 166 0
145 163 0
147 164 0
151 169 0
142 157 0
143 160 0
146 164 0
149 166 0
148 162 0
151 168 0
156 172 0
151 167 0
146 164 0
155 173 0
148 164 0
152 171 0
146 161 0
147 163 0
139 155 0
144 162 0
146 161 0
146 163 0
150 165 0
151 166 0
143 158 0
143 157 0
144 157 0
146 162 0
154 169 0
147 161 0
156 173 0
150 166 0
150 165 0
156 171 0
145 157 0
147 160 0
139 153 0
150 164 0
146 159 0
146 160 0
147 159 0
140 152 0
147 160 0
145 158 0
146 159 0
148 163 0
152 163 0
154 169 0
148 159 0
149 160 0
142 154 0
147 160 0
151 164 0
147 159 0
149 160 0
155 166 0
142 154 0
149 162 0
150 161 0
145 159 0
152 164 0
152 166 0
136 146 0
145 157 0
150 163 0
149 161 0
156 169 0
147 155 0
146 157 0
151 161 0
148 156 0
149 159 0
146 157 0
143 150 0
152 163 0
147 155 0
153 163 0
147 156 0
152 163 0
145 153 0
153 163 0
143 148 0
155 167 0
149 160 0
138 146 0
152 159 0
150 158 0
153 164 0
152 160 0
150 162 0
148 155 0
144 152 0
152 162 0
153 164 0
158 169 0
150 162 0
158 168 0
151 162 0
154 167 0
157 166 0
156 168 0
154 162 0
155 165 0
158 165 0
153 163 0
150 160 0
153 164 0
148 159 0
152 163 0
153 163 0
170 192 0
169 192 0
173 195 0
170 193 0
169 192 0
171 194 0
170 192 0
173 194 0
172 195 0
170 192 0
172 195 0
169 191 0
171 193 0
168 190 0
169 192 0
170 192 0
172 194 0
172 194 0
168 191 0
165 187 0
165 188 0
167 190 0
171 193 0
169 192 0
168 191 0
168 190 0
168 191 0
170 192 0
165 187 0
171 194 0
166 188 0
167 190 0
167 190 0
166 189 0
170 193 0
169 192 0
167 189 0
167 189 0
172 193 0
165 188 0
165 188 0
161 184 0
170 192 0
166 189 0
166 188 0
167 189 0
162 185 0
165 187 0
167 189 0
169 192 0
165 187 0
165 187 0
166 190 0
166 189 0
167 190 0
165 188 0
163 186 0
162 184 0
171 193 0
165 188 0
165 187 0
164 186 0
161 184 0
170 193 0
166 188 0
160 182 0
165 188 0
162 185 0
163 186 0
166 189 0
164 187 0
167 190 0
162 185 0
164 187 0
166 188 0
162 184 0
158 182 0
159 181 0
161 183 0
167 190 0
166 188 0
159 181 0
166 188 0
161 184 0
164 186 0
159 182 0
158 180 0
160 183 0
158 181 0
163 186 0
157 181 0
161 184 0
161 184 0
158 180 0
164 187 0
160 182 0
161 185 0
160 182 0
165 188 0
163 185 0
161 184 0
154 177 0
163 186 0
159 182 0
164 186 0
157 179 0
158 181 0
158 182 0
161 183 0
156 179 0
161 183 0
164 187 0
160 183 0
159 182 0
155 178 0
153 176 0
162 185 0
157 179 0
156 178 0
156 179 0
152 174 0
155 177 0
152 174 0
154 177 0
158 181 0
163 185 0
162 184 0
161 184 0
157 179 0
156 179 0
153 175 0
151 173 0
159 181 0
153 175 0
153 175 0
156 178 0
161 183 0
155 177 0
155 177 0
147 170 0
155 177 0
153 175 0
157 178 0
155 178 0
145 166 0
150 172 0
156 178 0
154 175 0
152 174 0
149 171 0
151 174 0
145 168 0
155 177 0
156 179 0
142 165 0
157 180 0
146 168 0
145 166 0
156 178 0
151 172 0
156 178 0
148 169 0
154 175 0
150 172 0
148 170 0
151 174 0
152 173 0
153 175 0
143 164 0
155 177 0
143 163 0
149 172 0
139 160 0
140 161 0
145 167 0
153 175 0
140 162 0
147 169 0
153 175 0
150 172 0
147 168 0
151 173 0
148 169 0
138 160 0
140 162 0
137 158 0
141 163 0
152 173 0
139 160 0
152 175 0
147 169 0
154 175 0
150 171 0
148 169 0
144 166 0
146 166 0
146 164 0
149 171 0
149 170 0
146 168 0
150 171 0
151 171 0
150 172 0
145 165 0
148 169 0
150 171 0
148 169 0
137 158 0
145 167 0
143 164 0
154 174 0
139 161 0
147 168 0
148 169 0
149 167 0
138 159 0
138 158 0
143 163 0
137 159 0
143 165 0
151 171 0
146 168 0
143 164 0
152 173 0
145 165 0
138 159 0
150 172 0
144 165 0
148 169 0
153 173 0
142 162 0
149 169 0
144 166 0
142 162 0
144 163 0
151 172 0
141 163 0
144 162 0
144 164 0
143 163 0
154 175 0
143 164 0
149 170 0
144 165 0
148 168 0
143 165 0
143 163 0
147 168 0
150 170 0
142 162 0
139 157 0
145 164 0
148 168 0
145 164 0
145 165 0
149 166 0
148 167 0
140 159 0
141 161 0
148 168 0
140 158 0
148 170 0
147 168 0
138 156 0
140 161 0
143 164 0
138 158 0
151 169 0
145 163 0
145 164 0
151 171 0
145 164 0
144 163 0
147 166 0
153 171 0
145 163 0
146 164 0
149 168 0
142 159 0
151 171 0
146 163 0
146 164 0
141 160 0
145 163 0
152 171 0
153 170 0
140 157 0
146 164 0
149 167 0
150 169 0
145 163 0
146 164 0
153 170 0
137 153 0
148 165 0
147 164 0
143 159 0
151 170 0
148 165 0
150 167 0
144 160 0
144 160 0
139 153 0
150 166 0
140 156 0
144 161 0
143 160 0
151 168 0
151 166 0
149 165 0
147 164 0
151 167 0
149 165 0
147 163 0
144 160 0
152 167 0
153 170 0
149 166 0
145 161 0
142 155 0
148 164 0
143 158 0
150 166 0
144 160 0
139 152 0
144 158 0
150 165 0
143 155 0
141 154 0
144 156 0
142 157 0
151 165 0
149 162 0
141 156 0
139 152 0
151 162 0
150 163 0
143 155 0
153 166 0
149 163 0
146 158 0
148 160 0
154 166 0
150 164 0
140 151 0
147 158 0
148 162 0
148 162 0
147 160 0
147 160 0
149 162 0
152 164 0
145 156 0
153 167 0
144 155 0
147 155 0
144 153 0
145 155 0
150 161 0
143 155 0
146 155 0
150 163 0
150 162 0
146 156 0
150 161 0
154 165 0
151 161 0
143 153 0
150 161 0
161 173 0
148 159 0
151 160 0
147 158 0
155 166 0
152 163 0
148 157 0
150 159 0
150 161 0
154 164 0
153 163 0
151 162 0
156 164 0
152 160 0
156 169 0
147 158 0
151 158 0
151 161 0
153 163 0
149 159 0
154 165 0
155 163 0
149 157 0
153 164 0
157 166 0
154 165 0
148 158 0
152 162 0
147 157 0
153 164 0
148 156 0
170 194 0
172 195 0
170 192 0
169 191 0
171 194 0
172 194 0
169 192 0
171 194 0
169 191 0
168 190 0
171 194 0
169 192 0
169 192 0
173 195 0
168 191 0
173 195 0
170 192 0
168 190 0
168 190 0
164 186 0
166 188 0
167 190 0
168 191 0
168 191 0
168 191 0
163 186 0
167 190 0
166 189 0
169 192 0
169 191 0
171 193 0
170 192 0
165 188 0
167 190 0
167 189 0
166 188 0
166 188 0
166 189 0
167 190 0
165 188 0
169 191 0
167 189 0
168 190 0
161 183 0
164 186 0
165 187 0
165 188 0
166 189 0
167 189 0
159 182 0
165 187 0
164 186 0
160 182 0
161 182 0
168 192 0
162 185 0
168 191 0
168 191 0
168 191 0
163 186 0
162 186 0
163 186 0
162 184 0
165 188 0
162 184 0
164 187 0
165 187 0
168 190 0
163 186 0
160 183 0
158 180 0
162 185 0
161 184 0
163 187 0
166 189 0
163 186 0
164 188 0
158 181 0
159 183 0
161 184 0
168 191 0
162 186 0
160 183 0
162 185 0
166 190 0
162 185 0
165 187 0
163 185 0
163 186 0
154 176 0
159 181 0
154 177 0
159 181 0
160 182 0
165 187 0
157 180 0
153 177 0
163 186 0
158 180 0
163 186 0
157 180 0
157 180 0
159 182 0
159 182 0
160 183 0
156 178 0
160 183 0
162 185 0
153 176 0
158 181 0
152 175 0
161 185 0
154 177 0
158 181 0
157 180 0
155 179 0
153 176 0
154 176 0
157 179 0
159 182 0
156 179 0
156 179 0
156 179 0
153 175 0
157 179 0
158 181 0
154 176 0
160 182 0
154 177 0
154 177 0
157 181 0
164 186 0
152 175 0
158 181 0
150 172 0
156 178 0
152 174 0
157 179 0
157 180 0
153 175 0
161 183 0
150 172 0
155 178 0
157 180 0
160 182 0
157 180 0
152 174 0
157 180 0
153 175 0
154 176 0
151 173 0
150 172 0
155 178 0
157 179 0
158 179 0
152 174 0
154 176 0
153 175 0
146 168 0
151 173 0
147 169 0
146 167 0
146 168 0
151 173 0
156 179 0
148 170 0
151 174 0
152 174 0
156 178 0
148 171 0
154 175 0
148 169 0
159 181 0
153 175 0
149 170 0
148 170 0
150 171 0
153 175 0
151 174 0
148 168 0
144 165 0
152 175 0
149 171 0
149 169 0
147 169 0
147 169 0
153 175 0
147 167 0
151 172 0
143 165 0
146 167 0
148 169 0
149 170 0
148 169 0
145 167 0
142 164 0
145 165 0
148 171 0
152 174 0
151 173 0
152 174 0
149 170 0
149 172 0
149 171 0
145 166 0
145 165 0
147 167 0
148 171 0
149 170 0
146 167 0
148 170 0
143 164 0
142 162 0
146 168 0
143 164 0
140 162 0
147 167 0
142 163 0
144 163 0
153 174 0
149 171 0
144 167 0
135 156 0
151 171 0
144 165 0
154 176 0
143 162 0
154 176 0
146 166 0
145 166 0
146 165 0
148 169 0
152 172 0
144 164 0
148 168 0
140 159 0
147 168 0
148 169 0
138 160 0
148 168 0
145 165 0
150 170 0
139 160 0
143 164 0
147 167 0
148 168 0
153 172 0
148 169 0
143 164 0
147 167 0
140 160 0
150 172 0
150 170 0
147 166 0
154 174 0
143 161 0
144 163 0
144 164 0
146 165 0
136 157 0
151 172 0
150 168 0
147 165 0
149 169 0
149 170 0
152 173 0
144 164 0
152 172 0
152 171 0
149 168 0
148 166 0
142 159 0
148 167 0
144 162 0
146 165 0
146 165 0
149 169 0
150 169 0
148 167 0
144 163 0
143 164 0
146 165 0
143 161 0
147 164 0
142 159 0
149 166 0
144 164 0
147 164 0
148 166 0
144 161 0
144 161 0
139 155 0
149 167 0
151 168 0
145 164 0
146 163 0
148 166 0
152 169 0
150 170 0
147 164 0
153 170 0
149 166 0
140 157 0
148 162 0
141 155 0
152 171 0
143 158 0
145 161 0
145 163 0
152 168 0
143 158 0
152 169 0
154 171 0
149 167 0
147 164 0
147 163 0
147 164 0
152 167 0
143 160 0
152 167 0
150 166 0
154 171 0
149 163 0
144 160 0
154 169 0
152 168 0
149 164 0
145 159 0
149 165 0
149 165 0
157 171 0
137 149 0
144 160 0
152 168 0
142 155 0
149 164 0
152 168 0
146 159 0
150 161 0
149 164 0
148 161 0
153 168 0
150 162 0
147 158 0
146 161 0
150 165 0
156 168 0
153 164 0
155 168 0
152 165 0
154 168 0
155 166 0
154 165 0
152 163 0
139 150 0
150 162 0
146 159 0
150 162 0
148 159 0
153 166 0
150 162 0
152 165 0
147 159 0
151 163 0
147 159 0
147 159 0
147 156 0
151 161 0
151 161 0
145 156 0
142 153 0
161 175 0
150 162 0
151 164 0
161 173 0
153 164 0
146 154 0
147 158 0
157 167 0
144 155 0
149 158 0
150 160 0
148 158 0
146 157 0
154 164 0
153 164 0
146 158 0
155 167 0
152 162 0
160 169 0
148 158 0
152 163 0
150 159 0
151 159 0
158 169 0
153 163 0
153 162 0
156 168 0
151 163 0
150 159 0
172 195 0
169 191 0
172 194 0
174 196 0
171 193 0
169 191 0
173 195 0
165 188 0
168 190 0
172 194 0
172 195 0
169 191 0
173 196 0
172 195 0
167 189 0
169 191 0
173 195 0
164 187 0
167 190 0
168 191 0
170 192 0
170 191 0
168 190 0
169 191 0
169 192 0
170 193 0
163 186 0
165 187 0
166 188 0
166 189 0
170 192 0
168 190 0
166 189 0
168 190 0
167 189 0
167 190 0
170 192 0
171 193 0
166 187 0
166 189 0
164 186 0
166 187 0
166 189 0
164 187 0
168 190 0
168 192 0
168 190 0
165 186 0
165 188 0
163 186 0
166 188 0
162 184 0
171 193 0
159 182 0
167 190 0
163 186 0
164 187 0
168 190 0
162 185 0
166 188 0
167 190 0
163 186 0
162 184 0
166 189 0
159 181 0
164 188 0
166 188 0
166 189 0
163 185 0
164 186 0
165 187 0
164 187 0
164 187 0
163 184 0
163 186 0
155 177 0
160 182 0
162 185 0
165 188 0
167 189 0
158 181 0
159 181 0
160 183 0
165 188 0
157 181 0
161 185 0
158 181 0
158 180 0
166 189 0
159 181 0
155 177 0
163 185 0
162 185 0
162 186 0
156 178 0
161 183 0
162 185 0
159 181 0
159 181 0
163 187 0
154 177 0
161 184 0
159 182 0
157 179 0
157 180 0
160 182 0
161 183 0
157 181 0
160 183 0
155 177 0
159 182 0
161 184 0
158 181 0
158 181 0
157 179 0
156 179 0
162 184 0
158 181 0
158 180 0
152 175 0
158 180 0
157 180 0
159 181 0
158 180 0
150 172 0
160 183 0
153 176 0
154 176 0
160 183 0
153 175 0
163 184 0
154 176 0
158 180 0
157 179 0
149 170 0
159 182 0
153 176 0
152 175 0
156 177 0
153 176 0
155 177 0
151 173 0
153 175 0
151 173 0
151 172 0
148 171 0
146 168 0
152 173 0
156 178 0
154 177 0
154 177 0
148 169 0
158 180 0
152 173 0
144 166 0
151 174 0
154 176 0
143 164 0
155 177 0
150 172 0
153 176 0
149 170 0
147 168 0
152 175 0
147 168 0
153 176 0
151 172 0
151 173 0
157 179 0
146 168 0
149 171 0
151 173 0
151 172 0
151 171 0
147 169 0
154 175 0
150 173 0
148 170 0
147 168 0
148 169 0
152 173 0
147 170 0
156 178 0
153 175 0
142 163 0
143 164 0
154 175 0
144 165 0
148 170 0
150 172 0
151 173 0
148 169 0
148 169 0
152 174 0
152 172 0
151 172 0
147 168 0
150 170 0
144 164 0
138 159 0
144 165 0
149 170 0
158 179 0
141 163 0
149 171 0
145 166 0
149 171 0
148 170 0
145 166 0
151 172 0
148 169 0
150 173 0
147 168 0
150 172 0
149 170 0
143 164 0
147 167 0
147 168 0
152 173 0
144 165 0
145 166 0
146 165 0
146 166 0
145 165 0
151 171 0
147 168 0
142 162 0
155 175 0
148 168 0
140 160 0
141 162 0
144 163 0
141 161 0
146 167 0
144 164 0
142 163 0
146 167 0
152 172 0
146 167 0
142 163 0
148 168 0
151 169 0
149 169 0
146 167 0
141 161 0
149 169 0
150 169 0
154 176 0
153 174 0
150 171 0
152 173 0
149 169 0
140 160 0
144 164 0
147 167 0
151 171 0
144 164 0
152 174 0
147 167 0
149 167 0
138 158 0
145 165 0
147 167 0
158 178 0
146 167 0
140 160 0
141 160 0
145 165 0
143 163 0
140 159 0
140 158 0
150 171 0
149 168 0
149 170 0
143 162 0
149 169 0
148 168 0
146 163 0
151 168 0
146 165 0
154 173 0
147 165 0
152 168 0
147 166 0
154 171 0
147 165 0
140 157 0
153 168 0
148 167 0
138 157 0
154 173 0
150 168 0
146 165 0
149 165 0
152 168 0
153 170 0
150 166 0
154 171 0
147 163 0
148 166 0
153 170 0
150 168 0
147 166 0
146 163 0
147 164 0
150 169 0
148 164 0
141 158 0
143 160 0
155 173 0
146 162 0
147 166 0
142 158 0
152 168 0
147 164 0
148 162 0
149 164 0
148 164 0
141 156 0
150 166 0
147 161 0
150 168 0
148 163 0
153 168 0
145 160 0
149 164 0
142 157 0
147 163 0
158 174 0
155 171 0
139 154 0
147 162 0
149 163 0
152 168 0
147 160 0
144 160 0
151 167 0
151 164 0
147 163 0
147 163 0
151 163 0
153 166 0
145 161 0
149 161 0
147 160 0
147 161 0
151 163 0
148 162 0
150 164 0
144 157 0
151 163 0
151 162 0
142 154 0
151 165 0
148 162 0
151 166 0
151 164 0
146 157 0
148 160 0
155 168 0
148 163 0
146 153 0
155 166 0
153 166 0
148 161 0
151 161 0
156 167 0
148 160 0
153 162 0
155 169 0
145 159 0
148 158 0
154 166 0
150 160 0
154 163 0
151 161 0
150 161 0
150 158 0
139 149 0
152 166 0
151 163 0
153 164 0
143 152 0
149 160 0
153 166 0
162 172 0
158 170 0
153 165 0
153 161 0
158 170 0
152 161 0
147 157 0
154 167 0
154 162 0
148 159 0
152 161 0
155 165 0
156 167 0
152 162 0
156 169 0
170 192 0
168 190 0
168 191 0
171 194 0
170 192 0
170 193 0
174 197 0
173 194 0
168 191 0
168 191 0
170 192 0
170 192 0
165 189 0
165 188 0
168 190 0
170 193 0
170 193 0
167 189 0
166 188 0
169 192 0
168 190 0
170 192 0
163 186 0
170 192 0
167 190 0
163 185 0
169 191 0
166 189 0
168 191 0
166 187 0
167 190 0
168 190 0
171 194 0
164 187 0
169 191 0
164 186 0
169 192 0
172 195 0
165 188 0
168 191 0
162 185 0
168 191 0
170 192 0
168 191 0
163 186 0
166 188 0
166 189 0
167 190 0
163 186 0
157 181 0
162 186 0
168 191 0
162 185 0
162 185 0
166 189 0
163 185 0
161 184 0
160 183 0
162 186 0
161 184 0
166 189 0
167 190 0
167 190 0
161 184 0
167 190 0
165 188 0
160 183 0
163 185 0
162 184 0
162 185 0
165 187 0
163 187 0
160 183 0
163 185 0
159 182 0
168 191 0
160 183 0
158 181 0
162 185 0
157 180 0
165 188 0
161 184 0
164 186 0
160 184 0
162 184 0
167 190 0
159 182 0
158 180 0
161 183 0
160 183 0
159 182 0
156 178 0
159 182 0
158 181 0
160 182 0
161 183 0
167 190 0
156 179 0
156 178 0
161 184 0
160 183 0
159 182 0
167 189 0
160 184 0
160 182 0
159 181 0
160 182 0
159 181 0
158 181 0
157 180 0
159 182 0
158 182 0
156 179 0
155 178 0
157 179 0
158 181 0
151 173 0
154 176 0
162 184 0
156 179 0
155 177 0
156 178 0
149 171 0
151 173 0
160 184 0
157 180 0
153 175 0
161 184 0
152 173 0
153 176 0
155 177 0
152 174 0
157 180 0
156 180 0
156 179 0
158 180 0
157 179 0
157 180 0
154 177 0
156 179 0
150 173 0
152 174 0
151 173 0
156 178 0
157 179 0
155 177 0
150 173 0
156 177 0
154 177 0
159 181 0
153 175 0
153 176 0
152 174 0
161 183 0
154 177 0
154 176 0
143 165 0
146 167 0
152 174 0
153 175 0
146 169 0
150 172 0
141 162 0
142 164 0
152 174 0
152 174 0
158 180 0
157 178 0
148 169 0
151 173 0
151 173 0
150 170 0
151 173 0
140 161 0
152 173 0
143 163 0
151 174 0
147 169 0
153 176 0
147 169 0
146 167 0
148 169 0
153 174 0
143 165 0
151 172 0
148 171 0
148 169 0
149 170 0
156 178 0
155 176 0
145 167 0
144 166 0
151 172 0
151 171 0
151 173 0
143 165 0
150 172 0
150 172 0
146 167 0
144 165 0
142 161 0
145 166 0
157 179 0
155 175 0
152 174 0
153 174 0
149 169 0
148 168 0
143 164 0
143 164 0
143 164 0
150 172 0
148 169 0
141 162 0
148 170 0
151 174 0
149 169 0
146 166 0
149 170 0
148 169 0
149 169 0
142 163 0
146 167 0
141 161 0
146 168 0
143 163 0
151 172 0
146 167 0
142 163 0
147 167 0
158 178 0
149 169 0
148 169 0
147 168 0
143 163 0
153 174 0
147 165 0
149 170 0
146 164 0
144 164 0
141 161 0
148 167 0
142 162 0
143 164 0
148 168 0
150 170 0
152 170 0
148 168 0
149 168 0
148 168 0
149 169 0
149 170 0
146 165 0
148 169 0
148 168 0
147 168 0
145 166 0
146 165 0
147 168 0
147 165 0
147 165 0
139 159 0
145 166 0
156 176 0
148 168 0
142 161 0
148 166 0
145 163 0
149 167 0
158 179 0
147 165 0
148 165 0
145 164 0
142 160 0
149 169 0
150 169 0
146 165 0
148 166 0
145 164 0
150 170 0
150 171 0
142 159 0
148 166 0
150 170 0
144 162 0
148 167 0
152 170 0
145 162 0
146 164 0
147 165 0
153 172 0
146 164 0
147 166 0
150 169 0
147 166 0
132 149 0
142 159 0
149 166 0
147 165 0
145 164 0
154 173 0
149 166 0
148 166 0
153 168 0
147 163 0
150 167 0
149 166 0
155 172 0
138 154 0
148 165 0
150 165 0
146 163 0
153 171 0
147 161 0
144 161 0
149 166 0
157 176 0
157 174 0
146 163 0
149 164 0
145 159 0
152 169 0
148 163 0
143 157 0
143 158 0
153 168 0
152 167 0
145 159 0
156 174 0
148 161 0
144 156 0
140 156 0
151 168 0
148 163 0
146 159 0
152 166 0
145 159 0
148 164 0
149 165 0
143 159 0
151 166 0
148 162 0
147 160 0
153 168 0
143 157 0
152 164 0
149 163 0
151 163 0
147 161 0
147 159 0
152 166 0
158 170 0
143 155 0
141 155 0
155 168 0
151 163 0
152 163 0
155 168 0
149 160 0
146 159 0
159 172 0
151 162 0
145 158 0
148 159 0
150 160 0
154 166 0
150 162 0
154 167 0
150 161 0
149 159 0
149 159 0
151 162 0
149 160 0
147 157 0
151 163 0
148 160 0
150 161 0
155 167 0
152 164 0
153 165 0
146 155 0
149 160 0
143 151 0
149 159 0
155 167 0
153 164 0
154 165 0
150 162 0
154 163 0
146 156 0
158 169 0
150 157 0
148 158 0
154 168 0
150 161 0
156 169 0
154 165 0
154 166 0
149 160 0
154 165 0
173 195 0
170 192 0
172 195 0
167 189 0
167 191 0
170 193 0
169 192 0
166 188 0
172 195 0
173 196 0
167 189 0
166 189 0
170 192 0
168 189 0
169 192 0
168 191 0
173 195 0
171 193 0
171 193 0
166 189 0
170 192 0
168 191 0
168 190 0
168 191 0
172 195 0
164 186 0
167 189 0
166 189 0
167 189 0
166 189 0
163 185 0
169 191 0
167 188 0
170 193 0
170 191 0
164 187 0
167 189 0
167 190 0
167 190 0
164 187 0
169 192 0
162 184 0
166 190 0
166 189 0
168 190 0
162 185 0
166 189 0
166 189 0
161 184 0
165 187 0
161 184 0
163 186 0
168 190 0
166 188 0
164 186 0
170 193 0
164 187 0
167 189 0
159 182 0
156 178 0
164 187 0
165 187 0
168 191 0
158 181 0
165 188 0
168 190 0
158 181 0
163 187 0
163 186 0
162 185 0
165 188 0
161 184 0
163 185 0
163 185 0
163 186 0
161 184 0
165 189 0
164 187 0
160 183 0
165 187 0
165 187 0
161 184 0
167 189 0
165 188 0
162 185 0
156 178 0
162 184 0
162 185 0
162 185 0
156 180 0
165 188 0
163 186 0
157 181 0
165 186 0
158 180 0
163 186 0
158 181 0
158 182 0
155 178 0
160 184 0
160 182 0
156 179 0
160 183 0
164 186 0
156 179 0
161 184 0
158 181 0
159 181 0
160 183 0
158 181 0
156 179 0
162 184 0
159 182 0
158 181 0
165 188 0
156 178 0
157 180 0
156 178 0
163 185 0
153 176 0
156 179 0
151 173 0
164 185 0
154 176 0
150 173 0
152 174 0
155 178 0
161 184 0
158 181 0
153 175 0
159 182 0
158 180 0
156 178 0
157 179 0
157 180 0
156 178 0
158 181 0
158 180 0
153 176 0
155 179 0
156 177 0
156 179 0
148 170 0
153 174 0
147 170 0
156 178 0
157 180 0
147 169 0
155 177 0
156 178 0
148 171 0
154 177 0
155 177 0
153 175 0
155 178 0
149 171 0
162 185 0
151 172 0
152 175 0
152 174 0
145 166 0
151 173 0
153 175 0
145 167 0
145 167 0
152 173 0
147 170 0
139 161 0
150 173 0
150 172 0
155 177 0
149 170 0
150 172 0
155 177 0
147 168 0
156 179 0
150 171 0
156 178 0
152 175 0
150 173 0
152 174 0
153 174 0
156 178 0
154 176 0
150 171 0
149 171 0
156 179 0
145 165 0
148 169 0
153 175 0
145 166 0
151 172 0
141 162 0
158 180 0
139 160 0
147 169 0
154 175 0
146 168 0
150 172 0
153 174 0
146 167 0
143 164 0
154 176 0
134 155 0
149 170 0
143 163 0
139 160 0
146 169 0
143 164 0
153 176 0
142 164 0
150 171 0
145 166 0
147 168 0
145 167 0
154 177 0
156 177 0
149 171 0
154 174 0
140 160 0
144 165 0
149 170 0
153 174 0
150 169 0
148 170 0
155 176 0
154 176 0
156 179 0
147 168 0
147 167 0
148 169 0
150 171 0
150 170 0
151 173 0
151 171 0
145 165 0
147 168 0
148 168 0
154 174 0
143 163 0
151 170 0
151 173 0
142 162 0
148 167 0
147 169 0
152 172 0
140 161 0
144 162 0
148 168 0
154 174 0
142 161 0
144 163 0
144 163 0
144 165 0
151 172 0
149 167 0
146 165 0
155 175 0
141 160 0
153 173 0
150 172 0
139 158 0
151 171 0
150 169 0
158 177 0
146 165 0
146 165 0
145 166 0
148 167 0
148 164 0
146 166 0
152 172 0
148 166 0
141 160 0
147 165 0
150 169 0
148 166 0
155 174 0
142 160 0
155 174 0
150 170 0
146 163 0
148 167 0
150 171 0
152 170 0
148 166 0
149 168 0
145 163 0
150 171 0
151 171 0
151 171 0
150 167 0
152 171 0
151 169 0
145 163 0
146 166 0
144 161 0
147 162 0
150 170 0
145 161 0
149 168 0
143 159 0
155 173 0
144 162 0
150 168 0
154 173 0
142 159 0
143 159 0
159 177 0
152 169 0
145 162 0
151 169 0
151 166 0
151 169 0
151 169 0
143 158 0
145 160 0
152 169 0
155 174 0
154 173 0
144 160 0
155 170 0
155 173 0
143 158 0
146 161 0
142 156 0
156 172 0
152 168 0
148 165 0
148 162 0
149 165 0
145 162 0
149 164 0
150 165 0
148 162 0
145 161 0
151 165 0
152 166 0
145 157 0
144 160 0
147 161 0
150 162 0
147 161 0
148 161 0
150 163 0
145 157 0
148 162 0
152 164 0
150 163 0
149 164 0
148 162 0
145 158 0
152 167 0
148 161 0
145 158 0
148 159 0
142 153 0
154 168 0
153 167 0
146 158 0
147 159 0
156 168 0
146 158 0
151 164 0
148 162 0
147 162 0
151 164 0
146 160 0
157 168 0
153 166 0
157 169 0
153 166 0
153 167 0
154 166 0
153 166 0
148 161 0
148 162 0
147 160 0
148 159 0
144 153 0
155 165 0
155 169 0
156 169 0
149 160 0
147 159 0
156 168 0
156 167 0
146 155 0
155 167 0
155 166 0
158 168 0
156 169 0
156 169 0
151 161 0
157 172 0
158 170 0
149 161 0
150 159 0
157 168 0
156 168 0
164 185 0
169 192 0
172 194 0
170 193 0
172 194 0
170 193 0
167 190 0
169 192 0
169 192 0
166 188 0
168 190 0
170 193 0
170 192 0
169 191 0
169 192 0
169 192 0
170 192 0
168 191 0
168 190 0
170 192 0
170 192 0
166 189 0
169 191 0
170 192 0
172 194 0
166 188 0
165 189 0
166 190 0
168 191 0
170 193 0
169 192 0
167 189 0
166 187 0
166 188 0
164 187 0
165 188 0
168 191 0
167 190 0
170 191 0
167 190 0
167 188 0
168 190 0
167 190 0
167 189 0
162 184 0
168 190 0
165 188 0
165 188 0
167 189 0
167 191 0
167 190 0
169 192 0
164 187 0
167 190 0
165 187 0
165 187 0
165 188 0
168 190 0
163 186 0
169 192 0
161 184 0
163 187 0
164 186 0
161 182 0
163 185 0
158 181 0
161 184 0
157 179 0
166 189 0
162 185 0
162 185 0
160 184 0
161 183 0
164 187 0
154 177 0
165 189 0
163 185 0
162 185 0
166 188 0
162 185 0
163 186 0
158 180 0
158 182 0
162 185 0
163 185 0
157 179 0
158 181 0
161 184 0
158 180 0
158 181 0
160 183 0
158 181 0
165 188 0
162 184 0
158 181 0
163 185 0
155 179 0
157 181 0
156 178 0
161 183 0
159 182 0
162 185 0
158 181 0
159 181 0
164 187 0
153 176 0
157 180 0
153 176 0
160 183 0
162 185 0
150 173 0
160 183 0
159 182 0
156 178 0
158 182 0
160 183 0
165 187 0
155 177 0
154 177 0
158 180 0
154 177 0
155 178 0
157 180 0
155 177 0
154 176 0
156 178 0
160 183 0
154 177 0
151 174 0
148 170 0
157 179 0
159 182 0
157 179 0
160 183 0
157 179 0
155 177 0
158 182 0
152 174 0
160 183 0
158 179 0
160 182 0
154 176 0
159 181 0
151 173 0
157 179 0
152 174 0
156 179 0
154 176 0
151 174 0
147 169 0
154 177 0
151 173 0
149 171 0
160 182 0
165 186 0
155 176 0
153 176 0
152 175 0
150 173 0
153 175 0
157 179 0
156 178 0
159 180 0
151 173 0
147 169 0
156 178 0
149 171 0
149 172 0
152 173 0
153 175 0
153 175 0
145 167 0
148 170 0
148 169 0
152 173 0
144 167 0
145 167 0
142 164 0
145 166 0
138 160 0
154 177 0
148 170 0
154 176 0
149 170 0
146 168 0
155 176 0
146 168 0
147 168 0
143 165 0
148 168 0
150 172 0
143 166 0
150 172 0
148 170 0
152 173 0
153 176 0
149 171 0
147 169 0
143 167 0
150 171 0
150 171 0
151 173 0
148 169 0
151 172 0
151 171 0
140 163 0
139 160 0
140 160 0
152 174 0
147 168 0
152 174 0
144 165 0
148 169 0
141 162 0
144 165 0
144 166 0
148 170 0
149 170 0
141 161 0
148 171 0
144 166 0
147 168 0
155 176 0
144 167 0
142 162 0
148 169 0
144 166 0
148 170 0
155 175 0
152 172 0
142 163 0
142 162 0
145 165 0
138 158 0
148 170 0
145 166 0
145 164 0
153 174 0
148 169 0
149 169 0
155 176 0
145 163 0
149 170 0
149 168 0
153 175 0
154 174 0
151 172 0
142 162 0
140 159 0
145 164 0
145 165 0
151 172 0
145 165 0
151 172 0
148 168 0
152 173 0
149 168 0
153 174 0
148 168 0
151 173 0
156 177 0
145 165 0
146 166 0
149 169 0
148 168 0
145 164 0
148 168 0
143 161 0
144 165 0
150 168 0
152 172 0
150 169 0
154 173 0
151 170 0
149 169 0
144 162 0
151 170 0
150 169 0
155 173 0
142 160 0
147 166 0
150 168 0
153 174 0
150 168 0
150 170 0
149 167 0
154 175 0
152 171 0
143 160 0
144 163 0
152 170 0
139 158 0
145 162 0
149 166 0
150 167 0
148 163 0
149 167 0
153 170 0
157 176 0
154 171 0
145 163 0
153 171 0
148 169 0
145 163 0
141 158 0
148 166 0
152 170 0
144 161 0
147 164 0
153 170 0
155 170 0
143 160 0
143 159 0
150 165 0
145 160 0
140 157 0
155 172 0
157 173 0
157 172 0
150 166 0
149 166 0
151 169 0
151 166 0
152 167 0
142 157 0
151 167 0
144 159 0
151 167 0
144 160 0
154 172 0
149 164 0
144 158 0
157 171 0
151 165 0
145 160 0
146 159 0
151 166 0
155 171 0
142 156 0
151 166 0
146 160 0
138 151 0
152 168 0
157 171 0
150 165 0
137 150 0
147 163 0
151 164 0
151 165 0
153 167 0
148 158 0
147 160 0
156 171 0
147 161 0
151 164 0
151 166 0
152 166 0
154 169 0
145 160 0
148 161 0
148 160 0
150 164 0
154 168 0
147 161 0
148 161 0
150 163 0
156 169 0
146 156 0
148 158 0
155 172 0
148 159 0
154 167 0
155 167 0
153 166 0
145 155 0
146 154 0
149 160 0
150 162 0
153 165 0
155 166 0
153 166 0
148 162 0
158 170 0
147 157 0
150 160 0
157 170 0
158 171 0
157 170 0
154 166 0
155 166 0
153 164 0
154 165 0
151 161 0
149 159 0
156 169 0
156 169 0
154 167 0
152 164 0
151 161 0
152 164 0
167 191 0
171 194 0
169 193 0
168 189 0
168 190 0
171 193 0
173 195 0
167 189 0
168 191 0
169 192 0
169 191 0
165 187 0
167 190 0
169 192 0
169 191 0
169 192 0
163 186 0
167 189 0
169 192 0
170 192 0
167 190 0
171 193 0
158 180 0
168 190 0
166 188 0
166 187 0
167 189 0
168 191 0
167 191 0
171 194 0
165 188 0
162 185 0
168 190 0
168 191 0
166 189 0
164 187 0
166 189 0
166 188 0
164 187 0
164 186 0
164 187 0
167 191 0
161 184 0
168 190 0
166 190 0
163 185 0
167 190 0
166 189 0
165 188 0
167 190 0
163 186 0
162 185 0
161 184 0
167 190 0
164 186 0
160 184 0
163 184 0
160 182 0
161 184 0
165 187 0
166 189 0
160 183 0
162 185 0
159 181 0
165 188 0
163 187 0
160 183 0
167 190 0
163 185 0
160 183 0
161 184 0
160 183 0
169 192 0
165 188 0
160 184 0
163 186 0
160 184 0
164 186 0
163 187 0
163 186 0
152 176 0
164 187 0
160 183 0
158 181 0
158 180 0
159 182 0
158 180 0
155 178 0
165 188 0
164 187 0
159 182 0
165 188 0
160 184 0
159 182 0
164 187 0
163 185 0
158 181 0
156 179 0
158 181 0
156 179 0
156 179 0
156 179 0
158 181 0
159 183 0
160 182 0
162 184 0
159 182 0
160 183 0
155 177 0
160 184 0
158 180 0
162 184 0
165 187 0
166 188 0
156 178 0
158 180 0
159 181 0
151 173 0
162 185 0
156 179 0
155 177 0
155 178 0
154 176 0
158 180 0
155 177 0
159 182 0
157 179 0
157 179 0
156 178 0
157 178 0
157 178 0
157 180 0
148 170 0
158 182 0
152 175 0
150 174 0
155 177 0
152 174 0
161 183 0
155 178 0
156 179 0
158 181 0
153 173 0
160 181 0
151 174 0
154 178 0
153 175 0
148 171 0
158 181 0
143 165 0
161 183 0
151 173 0
153 174 0
157 180 0
153 174 0
146 169 0
159 181 0
157 180 0
160 183 0
149 172 0
151 173 0
147 169 0
144 167 0
148 171 0
158 180 0
156 178 0
156 178 0
148 170 0
152 174 0
152 174 0
149 171 0
145 167 0
157 179 0
151 172 0
157 180 0
151 172 0
151 172 0
156 178 0
157 180 0
150 173 0
151 172 0
152 174 0
151 174 0
159 181 0
151 173 0
150 173 0
150 171 0
150 171 0
152 174 0
154 176 0
153 175 0
154 176 0
150 171 0
153 176 0
153 174 0
149 172 0
153 176 0
158 180 0
149 171 0
146 167 0
143 164 0
151 173 0
153 175 0
146 165 0
149 170 0
152 174 0
147 169 0
146 167 0
141 163 0
144 167 0
144 165 0
153 174 0
146 167 0
156 177 0
148 170 0
148 169 0
145 166 0
148 171 0
147 166 0
152 174 0
154 177 0
147 168 0
149 170 0
151 171 0
151 171 0
142 164 0
141 162 0
146 167 0
149 171 0
145 166 0
151 170 0
138 157 0
148 170 0
147 167 0
146 166 0
148 169 0
138 156 0
153 173 0
146 168 0
149 169 0
157 178 0
147 169 0
152 170 0
153 173 0
154 176 0
152 173 0
155 175 0
153 173 0
147 168 0
153 173 0
149 170 0
153 173 0
146 165 0
148 169 0
146 168 0
137 157 0
150 169 0
154 172 0
147 168 0
150 170 0
154 175 0
149 171 0
142 161 0
148 166 0
154 172 0
141 161 0
143 163 0
149 169 0
152 172 0
144 163 0
146 165 0
154 174 0
150 170 0
149 168 0
148 167 0
152 171 0
153 171 0
140 161 0
152 172 0
155 175 0
146 166 0
157 178 0
154 173 0
146 165 0
146 164 0
148 166 0
142 162 0
147 164 0
142 161 0
154 172 0
153 172 0
146 165 0
144 162 0
154 173 0
150 166 0
155 172 0
150 168 0
147 165 0
152 169 0
153 172 0
142 158 0
143 160 0
150 168 0
156 173 0
151 170 0
156 175 0
154 173 0
152 168 0
150 167 0
143 162 0
151 169 0
156 172 0
155 173 0
150 166 0
152 168 0
141 156 0
148 165 0
155 174 0
145 161 0
156 174 0
154 171 0
141 158 0
146 163 0
150 168 0
154 169 0
156 173 0
145 161 0
147 162 0
145 161 0
159 175 0
141 155 0
151 168 0
143 159 0
151 168 0
153 170 0
147 163 0
148 164 0
148 163 0
149 161 0
141 155 0
157 173 0
151 164 0
156 173 0
151 165 0
153 167 0
143 157 0
148 161 0
153 169 0
140 154 0
148 161 0
148 164 0
153 166 0
152 164 0
151 165 0
149 164 0
159 172 0
143 158 0
151 164 0
154 166 0
161 177 0
150 163 0
143 156 0
148 160 0
153 168 0
147 161 0
149 164 0
148 160 0
160 175 0
154 166 0
154 168 0
147 157 0
150 162 0
146 157 0
156 169 0
152 163 0
149 161 0
147 160 0
152 165 0
157 170 0
154 166 0
155 169 0
151 164 0
149 161 0
156 168 0
158 171 0
150 162 0
156 168 0
150 162 0
149 161 0
150 161 0
148 160 0
152 165 0
152 162 0
161 174 0
143 153 0
152 163 0
159 171 0
158 171 0
156 168 0
153 165 0
172 196 0
171 194 0
173 196 0
169 192 0
170 192 0
170 193 0
174 195 0
167 189 0
171 194 0
168 191 0
173 195 0
172 194 0
166 188 0
170 193 0
171 193 0
171 193 0
170 192 0
171 193 0
167 191 0
169 191 0
172 194 0
170 192 0
171 194 0
169 192 0
166 188 0
162 184 0
171 194 0
168 191 0
170 193 0
167 191 0
166 189 0
164 187 0
163 186 0
164 187 0
164 187 0
170 192 0
164 186 0
162 185 0
164 187 0
168 190 0
166 189 0
164 187 0
160 183 0
161 183 0
164 187 0
161 183 0
170 193 0
163 186 0
165 188 0
161 185 0
164 187 0
163 186 0
165 188 0
163 185 0
165 188 0
166 189 0
164 186 0
165 186 0
164 186 0
161 184 0
166 189 0
163 187 0
158 180 0
157 180 0
165 187 0
164 187 0
165 188 0
157 180 0
160 184 0
164 187 0
158 182 0
166 188 0
165 188 0
161 185 0
168 191 0
155 178 0
163 185 0
160 183 0
157 179 0
167 190 0
153 176 0
163 185 0
161 184 0
157 179 0
161 184 0
164 186 0
162 186 0
159 183 0
165 188 0
162 185 0
165 188 0
162 186 0
159 182 0
162 185 0
158 180 0
163 186 0
160 183 0
160 183 0
160 183 0
163 186 0
154 177 0
162 184 0
161 184 0
161 184 0
162 185 0
159 181 0
164 186 0
151 174 0
159 182 0
154 177 0
161 184 0
152 176 0
155 177 0
157 179 0
150 172 0
162 185 0
154 177 0
159 181 0
159 181 0
157 179 0
159 182 0
165 187 0
149 172 0
154 176 0
160 183 0
156 177 0
158 180 0
159 182 0
148 171 0
153 176 0
157 180 0
157 179 0
160 183 0
155 177 0
153 176 0
152 175 0
161 184 0
159 181 0
157 179 0
158 180 0
157 180 0
151 173 0
151 173 0
155 177 0
155 177 0
152 172 0
156 179 0
161 183 0
156 178 0
158 181 0
153 176 0
158 181 0
156 179 0
153 175 0
156 178 0
151 174 0
153 176 0
154 177 0
150 173 0
158 180 0
149 171 0
155 177 0
146 169 0
155 177 0
156 177 0
162 184 0
151 173 0
156 178 0
148 169 0
151 174 0
152 174 0
153 174 0
152 175 0
152 174 0
147 169 0
149 171 0
146 167 0
154 177 0
150 173 0
148 171 0
155 177 0
157 177 0
142 164 0
145 168 0
146 168 0
151 174 0
154 177 0
151 173 0
156 177 0
156 179 0
149 171 0
143 165 0
153 175 0
151 173 0
149 171 0
148 169 0
144 166 0
147 167 0
143 165 0
153 175 0
154 175 0
149 170 0
157 180 0
147 168 0
150 172 0
149 168 0
152 173 0
150 171 0
148 171 0
153 175 0
149 170 0
153 174 0
153 175 0
144 165 0
146 167 0
138 160 0
145 165 0
148 169 0
146 168 0
153 174 0
148 170 0
141 163 0
145 167 0
152 174 0
147 168 0
160 179 0
145 165 0
150 171 0
148 169 0
156 178 0
142 160 0
150 170 0
148 169 0
145 167 0
150 170 0
142 162 0
150 170 0
151 172 0
151 171 0
156 178 0
147 168 0
147 168 0
140 161 0
145 165 0
147 167 0
158 178 0
154 174 0
151 171 0
146 169 0
153 174 0
150 168 0
140 159 0
142 162 0
153 171 0
146 166 0
149 168 0
149 169 0
149 170 0
153 173 0
149 170 0
151 171 0
149 168 0
144 165 0
152 172 0
151 170 0
148 167 0
152 172 0
147 166 0
151 173 0
158 180 0
151 171 0
156 176 0
144 162 0
150 169 0
148 167 0
153 173 0
156 175 0
159 179 0
152 172 0
149 168 0
151 171 0
149 165 0
152 171 0
143 162 0
152 171 0
151 172 0
150 170 0
151 169 0
153 174 0
152 168 0
152 171 0
146 165 0
148 169 0
152 170 0
151 171 0
143 158 0
152 170 0
152 170 0
150 170 0
146 164 0
152 170 0
155 174 0
152 169 0
155 172 0
151 168 0
144 162 0
145 163 0
146 165 0
151 170 0
150 168 0
146 163 0
144 160 0
140 158 0
144 162 0
152 169 0
156 173 0
154 171 0
152 169 0
156 173 0
146 162 0
146 160 0
149 165 0
145 161 0
158 175 0
148 165 0
151 167 0
146 160 0
149 164 0
152 170 0
153 170 0
146 162 0
154 171 0
151 165 0
153 171 0
151 167 0
156 173 0
152 169 0
155 170 0
149 167 0
157 173 0
148 166 0
153 166 0
151 166 0
152 166 0
152 168 0
150 166 0
146 160 0
147 158 0
156 172 0
150 164 0
146 162 0
157 170 0
151 164 0
161 178 0
150 166 0
151 165 0
150 164 0
156 171 0
153 167 0
151 166 0
152 168 0
157 170 0
145 158 0
155 170 0
154 166 0
149 160 0
150 163 0
153 167 0
153 163 0
154 169 0
152 166 0
153 168 0
161 176 0
147 156 0
150 163 0
156 169 0
147 160 0
148 160 0
152 164 0
155 168 0
155 169 0
154 167 0
148 160 0
155 170 0
148 162 0
157 172 0
150 161 0
149 162 0
154 164 0
147 156 0
162 177 0
155 167 0
154 165 0
154 165 0
153 168 0
157 170 0
156 169 0
155 168 0
152 164 0
157 170 0
169 191 0
168 191 0
173 195 0
172 194 0
166 189 0
173 195 0
170 193 0
170 193 0
166 188 0
167 189 0
170 193 0
166 189 0
165 188 0
165 188 0
170 192 0
169 191 0
163 186 0
165 189 0
166 190 0
166 189 0
167 190 0
162 185 0
170 193 0
162 184 0
169 192 0
170 192 0
169 192 0
165 187 0
166 189 0
164 186 0
167 190 0
165 187 0
169 190 0
164 187 0
164 187 0
163 186 0
165 188 0
167 190 0
165 188 0
167 190 0
165 189 0
168 190 0
167 191 0
165 189 0
172 195 0
161 184 0
162 184 0
168 190 0
165 187 0
160 184 0
166 190 0
168 191 0
164 187 0
162 185 0
158 181 0
166 188 0
162 185 0
161 185 0
167 190 0
166 190 0
162 186 0
166 190 0
163 186 0
163 186 0
165 188 0
164 186 0
165 187 0
159 183 0
169 192 0
158 182 0
164 187 0
162 186 0
165 189 0
163 185 0
168 190 0
166 189 0
165 188 0
161 184 0
157 179 0
165 188 0
158 181 0
162 184 0
162 185 0
159 183 0
156 180 0
158 181 0
166 189 0
161 184 0
161 184 0
161 185 0
165 189 0
161 183 0
160 182 0
161 184 0
154 176 0
162 185 0
157 180 0
164 187 0
162 185 0
166 188 0
162 185 0
157 179 0
167 189 0
158 181 0
160 181 0
158 181 0
164 186 0
165 188 0
159 182 0
164 186 0
152 175 0
158 182 0
159 180 0
151 173 0
152 175 0
161 183 0
160 182 0
162 184 0
159 182 0
162 183 0
159 182 0
160 182 0
157 180 0
155 178 0
150 173 0
160 183 0
154 176 0
156 180 0
158 181 0
163 186 0
156 178 0
154 176 0
166 188 0
160 181 0
152 174 0
154 177 0
153 175 0
161 183 0
162 184 0
157 179 0
156 179 0
159 182 0
159 182 0
150 172 0
154 177 0
162 186 0
153 176 0
155 178 0
151 173 0
156 180 0
153 176 0
154 175 0
154 176 0
153 175 0
154 176 0
152 175 0
150 173 0
146 169 0
154 176 0
156 178 0
156 178 0
149 171 0
144 166 0
149 170 0
157 180 0
156 178 0
151 173 0
154 175 0
148 169 0
152 174 0
145 167 0
152 173 0
153 175 0
154 177 0
153 175 0
153 174 0
155 177 0
151 172 0
148 169 0
150 171 0
153 175 0
155 177 0
153 174 0
154 177 0
156 179 0
152 174 0
151 174 0
144 167 0
150 171 0
143 165 0
149 171 0
150 172 0
152 173 0
141 162 0
145 167 0
152 174 0
150 173 0
148 170 0
145 165 0
152 172 0
156 177 0
148 170 0
149 171 0
153 173 0
144 165 0
149 171 0
153 175 0
150 172 0
150 172 0
162 184 0
150 169 0
145 167 0
146 166 0
145 166 0
152 173 0
144 166 0
153 174 0
150 171 0
155 176 0
152 173 0
153 174 0
155 177 0
147 167 0
140 162 0
152 174 0
149 171 0
145 164 0
157 179 0
149 171 0
149 171 0
142 162 0
155 175 0
148 168 0
142 162 0
147 169 0
146 167 0
151 174 0
147 167 0
150 172 0
149 169 0
153 173 0
150 171 0
147 167 0
154 174 0
147 167 0
148 168 0
149 169 0
152 173 0
142 161 0
146 167 0
153 172 0
155 176 0
156 177 0
147 168 0
146 166 0
151 171 0
148 169 0
149 169 0
150 171 0
148 168 0
153 173 0
147 167 0
141 161 0
151 171 0
146 166 0
151 171 0
146 166 0
152 171 0
147 167 0
147 168 0
149 170 0
149 168 0
155 175 0
140 159 0
142 159 0
152 172 0
144 163 0
159 180 0
154 175 0
151 170 0
155 175 0
149 170 0
144 163 0
146 163 0
146 166 0
146 163 0
147 166 0
143 162 0
150 167 0
151 168 0
143 159 0
148 168 0
157 175 0
145 165 0
152 172 0
142 160 0
144 163 0
152 172 0
148 167 0
150 166 0
142 161 0
147 164 0
145 162 0
146 164 0
149 166 0
149 167 0
147 165 0
137 152 0
148 165 0
155 171 0
147 164 0
150 166 0
144 160 0
147 164 0
149 167 0
153 172 0
160 178 0
149 165 0
156 171 0
159 176 0
148 165 0
141 155 0
155 173 0
154 171 0
155 171 0
152 168 0
152 168 0
154 172 0
153 169 0
154 172 0
152 167 0
150 164 0
152 169 0
152 171 0
145 162 0
145 161 0
145 157 0
146 159 0
148 163 0
148 163 0
150 165 0
151 164 0
150 165 0
151 166 0
151 166 0
149 163 0
150 166 0
147 163 0
153 169 0
145 159 0
153 170 0
145 159 0
148 161 0
149 164 0
150 163 0
154 172 0
155 171 0
155 169 0
153 169 0
153 166 0
153 170 0
152 166 0
156 171 0
150 163 0
152 167 0
150 166 0
151 166 0
155 168 0
156 171 0
153 164 0
153 164 0
161 174 0
154 167 0
154 166 0
152 164 0
152 164 0
155 168 0
146 158 0
156 169 0
157 171 0
155 167 0
155 166 0
148 158 0
148 159 0
161 177 0
151 163 0
151 160 0
153 166 0
156 168 0
154 166 0
150 163 0
156 170 0
152 165 0
153 165 0
156 170 0
146 159 0
158 168 0
153 163 0
154 165 0
154 165 0
171 194 0
170 194 0
168 190 0
169 191 0
167 190 0
171 194 0
167 190 0
169 192 0
166 189 0
167 190 0
166 189 0
168 190 0
172 195 0
167 189 0
169 193 0
170 193 0
169 192 0
169 191 0
168 191 0
171 194 0
166 188 0
168 191 0
162 184 0
166 188 0
169 192 0
168 191 0
168 189 0
167 190 0
162 184 0
162 185 0
168 192 0
166 188 0
164 188 0
161 183 0
170 193 0
163 187 0
167 190 0
162 184 0
161 185 0
168 190 0
163 186 0
164 187 0
169 192 0
164 186 0
167 190 0
163 186 0
158 180 0
158 180 0
163 185 0
167 189 0
162 186 0
160 183 0
165 188 0
169 192 0
163 185 0
168 191 0
166 189 0
163 186 0
160 183 0
165 187 0
162 185 0
162 185 0
164 188 0
164 186 0
169 192 0
163 187 0
165 188 0
165 188 0
165 187 0
163 186 0
161 183 0
162 185 0
165 188 0
162 185 0
161 185 0
160 184 0
164 187 0
159 183 0
160 184 0
154 177 0
160 182 0
161 184 0
160 183 0
157 178 0
162 185 0
162 185 0
160 184 0
160 182 0
162 185 0
160 182 0
162 186 0
165 187 0
154 177 0
159 182 0
160 184 0
160 182 0
157 181 0
160 182 0
159 183 0
161 183 0
159 180 0
164 186 0
164 187 0
163 186 0
160 182 0
163 187 0
159 182 0
165 188 0
159 182 0
159 183 0
156 179 0
158 180 0
155 177 0
160 183 0
156 180 0
161 184 0
153 176 0
163 186 0
158 181 0
156 178 0
159 182 0
153 176 0
156 179 0
160 183 0
151 174 0
161 185 0
161 185 0
149 172 0
164 186 0
160 183 0
158 181 0
160 181 0
151 174 0
152 175 0
152 174 0
155 177 0
148 170 0
157 179 0
158 181 0
151 174 0
155 178 0
153 175 0
155 178 0
158 180 0
156 177 0
155 177 0
156 178 0
152 174 0
159 182 0
155 178 0
156 178 0
155 177 0
156 180 0
151 174 0
163 185 0
155 177 0
156 179 0
154 177 0
149 171 0
154 176 0
155 176 0
145 167 0
151 173 0
149 172 0
152 174 0
162 184 0
146 169 0
155 177 0
153 175 0
152 174 0
146 167 0
155 178 0
150 173 0
153 175 0
155 178 0
152 174 0
153 175 0
155 178 0
149 171 0
156 177 0
153 174 0
152 174 0
150 172 0
154 175 0
151 173 0
156 178 0
152 174 0
149 170 0
149 172 0
149 170 0
142 164 0
149 171 0
156 177 0
150 172 0
140 161 0
145 167 0
149 170 0
155 177 0
152 173 0
146 167 0
153 175 0
152 172 0
156 178 0
151 173 0
143 165 0
145 164 0
148 169 0
145 165 0
151 171 0
148 170 0
140 160 0
146 168 0
154 176 0
152 174 0
151 173 0
146 167 0
139 161 0
157 179 0
151 172 0
153 173 0
149 170 0
154 174 0
148 169 0
148 169 0
139 160 0
149 169 0
147 169 0
148 168 0
146 169 0
151 171 0
147 167 0
138 158 0
146 166 0
149 170 0
144 165 0
146 168 0
149 169 0
139 160 0
146 167 0
150 170 0
143 165 0
143 164 0
149 169 0
141 162 0
154 175 0
144 163 0
147 167 0
148 169 0
152 173 0
146 167 0
151 171 0
142 162 0
158 182 0
143 163 0
155 176 0
143 164 0
147 168 0
148 168 0
153 173 0
152 173 0
150 170 0
152 172 0
151 169 0
154 174 0
147 168 0
148 168 0
148 169 0
148 168 0
151 169 0
149 169 0
154 174 0
145 165 0
149 167 0
148 167 0
146 166 0
141 160 0
150 168 0
142 159 0
152 173 0
152 172 0
154 174 0
154 173 0
150 169 0
153 172 0
153 172 0
149 168 0
150 169 0
156 176 0
153 173 0
152 170 0
146 166 0
153 171 0
153 172 0
141 159 0
148 167 0
155 176 0
155 173 0
153 173 0
157 177 0
154 174 0
155 174 0
156 174 0
138 155 0
152 169 0
153 171 0
150 167 0
154 173 0
157 176 0
152 171 0
150 167 0
147 164 0
153 171 0
153 172 0
153 168 0
156 173 0
156 176 0
153 171 0
150 168 0
149 167 0
150 167 0
152 169 0
139 154 0
153 171 0
157 174 0
155 173 0
147 164 0
150 166 0
146 161 0
149 166 0
145 159 0
158 175 0
150 167 0
151 165 0
150 165 0
153 170 0
152 167 0
157 173 0
148 162 0
159 176 0
152 167 0
151 165 0
147 160 0
149 165 0
152 168 0
148 162 0
153 170 0
151 166 0
153 166 0
144 156 0
150 166 0
144 158 0
149 162 0
150 166 0
152 167 0
154 169 0
149 161 0
155 171 0
151 164 0
152 167 0
148 162 0
150 162 0
151 166 0
152 168 0
153 166 0
145 159 0
152 165 0
151 165 0
155 166 0
148 162 0
155 169 0
153 166 0
156 169 0
155 169 0
152 166 0
153 163 0
158 169 0
150 164 0
155 168 0
148 160 0
148 161 0
152 165 0
153 166 0
151 165 0
152 165 0
152 166 0
157 169 0
152 165 0
154 166 0
151 164 0
154 166 0
151 164 0
158 171 0
154 168 0
160 173 0
154 166 0
160 175 0
159 173 0
159 172 0
153 164 0
153 164 0
169 191 0
171 193 0
171 193 0
171 193 0
167 190 0
168 191 0
168 190 0
168 190 0
167 190 0
168 190 0
169 192 0
170 193 0
168 192 0
166 189 0
171 193 0
171 193 0
168 190 0
166 188 0
164 187 0
168 191 0
163 185 0
165 186 0
171 194 0
166 189 0
164 187 0
167 189 0
165 188 0
160 183 0
168 190 0
168 191 0
165 188 0
171 193 0
165 187 0
164 187 0
173 195 0
168 191 0
168 191 0
167 190 0
168 190 0
165 187 0
165 187 0
164 187 0
162 184 0
168 190 0
165 188 0
164 186 0
167 190 0
158 181 0
166 189 0
164 187 0
169 191 0
162 185 0
163 187 0
166 189 0
164 187 0
160 183 0
164 187 0
160 184 0
165 188 0
166 188 0
161 183 0
162 186 0
163 185 0
165 188 0
163 185 0
156 179 0
165 187 0
159 182 0
160 183 0
165 188 0
161 184 0
157 179 0
163 185 0
161 185 0
159 182 0
161 185 0
163 186 0
158 181 0
160 183 0
160 183 0
156 179 0
163 186 0
165 188 0
159 182 0
166 190 0
157 181 0
163 185 0
160 183 0
165 188 0
159 182 0
156 179 0
160 183 0
165 189 0
155 179 0
160 183 0
161 185 0
161 183 0
154 177 0
159 182 0
153 175 0
163 186 0
161 184 0
156 178 0
150 173 0
162 185 0
156 179 0
152 175 0
151 174 0
158 181 0
160 183 0
158 182 0
158 181 0
156 179 0
159 182 0
158 181 0
158 181 0
161 184 0
158 182 0
154 176 0
164 187 0
155 179 0
153 175 0
159 182 0
159 182 0
158 181 0
160 181 0
158 180 0
159 182 0
153 174 0
142 163 0
155 180 0
160 183 0
162 185 0
162 183 0
157 180 0
157 179 0
153 175 0
156 179 0
159 182 0
150 173 0
158 180 0
156 178 0
159 182 0
160 182 0
164 186 0
155 177 0
154 175 0
151 173 0
157 180 0
144 166 0
153 176 0
151 174 0
156 179 0
161 183 0
154 176 0
151 173 0
156 179 0
143 164 0
157 179 0
149 172 0
156 178 0
151 174 0
152 173 0
150 172 0
150 171 0
151 173 0
149 172 0
151 173 0
153 176 0
155 177 0
155 178 0
154 176 0
147 167 0
149 172 0
146 168 0
146 169 0
149 172 0
157 179 0
147 170 0
149 171 0
153 175 0
148 170 0
159 181 0
153 174 0
148 169 0
154 177 0
154 177 0
148 171 0
153 175 0
148 169 0
155 178 0
154 176 0
152 174 0
153 175 0
150 172 0
153 175 0
145 166 0
151 173 0
152 175 0
156 177 0
154 175 0
144 163 0
150 172 0
151 173 0
146 167 0
146 168 0
151 173 0
155 175 0
157 179 0
156 177 0
156 178 0
148 170 0
147 169 0
146 167 0
150 172 0
153 174 0
144 166 0
152 173 0
151 172 0
150 171 0
147 168 0
146 166 0
151 172 0
150 172 0
159 179 0
149 170 0
155 177 0
155 177 0
146 167 0
140 161 0
151 172 0
150 171 0
152 172 0
146 167 0
152 173 0
146 167 0
154 176 0
149 169 0
154 176 0
147 168 0
156 177 0
146 166 0
158 180 0
154 175 0
138 158 0
152 173 0
153 174 0
149 171 0
143 163 0
151 170 0
151 171 0
149 170 0
156 177 0
155 176 0
145 165 0
146 167 0
148 169 0
145 166 0
145 165 0
145 165 0
151 172 0
150 171 0
152 172 0
156 176 0
147 167 0
156 177 0
154 174 0
153 174 0
151 172 0
148 167 0
147 167 0
146 167 0
151 173 0
150 171 0
155 176 0
153 172 0
150 171 0
144 162 0
158 177 0
152 172 0
152 171 0
157 175 0
149 167 0
154 173 0
160 181 0
152 171 0
148 168 0
154 173 0
150 170 0
151 171 0
150 168 0
145 162 0
148 165 0
150 169 0
148 165 0
148 166 0
153 172 0
155 176 0
155 173 0
152 172 0
160 179 0
147 164 0
146 164 0
147 162 0
151 169 0
144 161 0
155 172 0
152 171 0
150 169 0
151 169 0
153 172 0
147 166 0
159 177 0
151 166 0
155 173 0
150 168 0
150 166 0
153 171 0
150 166 0
151 167 0
151 168 0
159 177 0
150 166 0
150 168 0
153 174 0
147 164 0
157 174 0
155 171 0
153 171 0
155 173 0
150 168 0
147 165 0
154 170 0
155 174 0
143 160 0
151 169 0
146 162 0
158 175 0
155 172 0
144 161 0
151 165 0
147 161 0
150 167 0
143 158 0
152 169 0
149 165 0
151 165 0
146 160 0
148 162 0
154 169 0
151 164 0
154 169 0
154 168 0
152 165 0
148 163 0
152 167 0
153 169 0
147 162 0
152 164 0
147 162 0
154 170 0
156 171 0
150 163 0
152 166 0
160 174 0
149 163 0
154 170 0
156 171 0
158 173 0
148 161 0
153 167 0
153 166 0
151 164 0
150 165 0
156 170 0
151 164 0
150 164 0
152 167 0
163 177 0
150 161 0
152 167 0
152 163 0
154 167 0
149 162 0
156 170 0
155 168 0
154 168 0
153 164 0
155 168 0
158 172 0
151 165 0
154 166 0
153 163 0
149 163 0
151 164 0
150 162 0
149 160 0
160 174 0
159 172 0
154 166 0
165 188 0
172 194 0
169 192 0
169 192 0
170 192 0
165 188 0
170 194 0
167 189 0
171 194 0
169 192 0
165 189 0
171 195 0
170 192 0
169 191 0
168 190 0
168 191 0
167 189 0
169 192 0
168 191 0
168 191 0
165 187 0
169 192 0
167 190 0
164 187 0
161 184 0
167 190 0
171 194 0
164 186 0
165 188 0
167 189 0
162 185 0
166 189 0
163 187 0
166 189 0
167 189 0
163 185 0
161 184 0
165 187 0
170 193 0
168 191 0
166 190 0
163 186 0
166 188 0
164 187 0
158 180 0
168 190 0
166 188 0
162 186 0
161 185 0
165 187 0
163 185 0
168 190 0
165 189 0
159 182 0
157 180 0
163 187 0
167 190 0
163 186 0
163 185 0
163 186 0
168 191 0
157 181 0
161 184 0
167 190 0
167 190 0
165 187 0
163 186 0
165 186 0
165 188 0
165 188 0
161 185 0
164 187 0
159 181 0
165 189 0
163 185 0
160 183 0
163 186 0
163 186 0
163 185 0
158 182 0
162 184 0
166 190 0
157 179 0
156 179 0
159 181 0
157 180 0
159 182 0
162 184 0
161 184 0
158 181 0
161 183 0
163 186 0
164 188 0
156 179 0
159 181 0
159 182 0
158 181 0
154 176 0
161 185 0
162 184 0
159 180 0
159 182 0
155 176 0
158 181 0
163 186 0
162 184 0
157 180 0
164 187 0
157 179 0
151 174 0
157 180 0
155 177 0
160 181 0
162 184 0
160 182 0
158 181 0
153 177 0
155 178 0
157 180 0
158 181 0
158 180 0
157 180 0
166 189 0
153 175 0
156 178 0
159 181 0
154 178 0
154 176 0
155 177 0
158 181 0
154 175 0
163 186 0
156 178 0
159 182 0
153 176 0
159 181 0
155 179 0
160 182 0
155 177 0
151 172 0
153 176 0
156 178 0
158 180 0
156 179 0
146 168 0
152 174 0
151 173 0
156 177 0
148 171 0
156 179 0
150 173 0
158 181 0
151 174 0
161 184 0
162 185 0
147 169 0
148 172 0
155 178 0
158 180 0
153 176 0
151 174 0
153 176 0
153 175 0
150 172 0
159 183 0
151 173 0
153 175 0
155 178 0
164 185 0
154 175 0
149 172 0
145 166 0
147 168 0
147 169 0
154 175 0
158 181 0
147 169 0
153 173 0
154 177 0
144 166 0
155 178 0
157 177 0
150 172 0
155 177 0
149 172 0
151 173 0
155 177 0
150 172 0
152 172 0
147 168 0
161 182 0
155 177 0
149 171 0
155 176 0
148 169 0
152 173 0
149 170 0
157 178 0
158 179 0
150 171 0
149 170 0
153 175 0
155 177 0
145 166 0
143 166 0
152 174 0
144 165 0
145 166 0
147 168 0
152 174 0
148 169 0
141 162 0
149 170 0
143 164 0
148 169 0
147 168 0
156 177 0
146 168 0
147 167 0
147 170 0
150 171 0
148 170 0
150 171 0
149 168 0
150 169 0
152 173 0
155 177 0
144 164 0
152 173 0
150 171 0
153 174 0
152 173 0
158 178 0
152 175 0
143 164 0
144 165 0
151 171 0
149 171 0
148 169 0
151 171 0
147 169 0
148 167 0
147 167 0
145 166 0
150 171 0
151 171 0
145 166 0
149 170 0
145 165 0
152 172 0
147 168 0
152 173 0
159 178 0
151 170 0
149 168 0
149 171 0
152 172 0
152 173 0
138 159 0
156 174 0
149 169 0
148 165 0
147 167 0
148 166 0
156 177 0
153 174 0
155 174 0
152 171 0
154 174 0
146 164 0
146 166 0
159 181 0
152 173 0
155 175 0
147 168 0
148 168 0
150 169 0
148 167 0
146 166 0
148 168 0
154 173 0
145 162 0
150 169 0
149 170 0
153 172 0
144 163 0
152 173 0
145 163 0
152 171 0
139 158 0
142 161 0
144 164 0
151 169 0
146 165 0
159 178 0
149 168 0
157 174 0
155 172 0
155 173 0
154 172 0
155 173 0
150 170 0
154 172 0
151 168 0
153 173 0
154 172 0
152 169 0
148 166 0
150 168 0
158 177 0
152 170 0
148 167 0
148 165 0
149 166 0
155 174 0
153 172 0
153 171 0
148 165 0
155 173 0
158 175 0
157 175 0
151 168 0
153 168 0
147 165 0
152 167 0
153 172 0
150 167 0
150 167 0
152 167 0
150 166 0
144 159 0
150 166 0
149 167 0
153 170 0
152 171 0
144 159 0
153 171 0
146 160 0
156 172 0
154 170 0
162 179 0
151 167 0
146 161 0
158 176 0
150 167 0
148 167 0
154 171 0
149 165 0
158 176 0
156 172 0
150 166 0
152 168 0
151 165 0
152 169 0
155 171 0
151 167 0
146 158 0
151 165 0
157 171 0
154 169 0
150 165 0
154 169 0
148 163 0
156 170 0
151 164 0
147 160 0
149 161 0
146 158 0
150 162 0
155 168 0
145 159 0
152 166 0
150 166 0
147 159 0
149 163 0
151 166 0
153 168 0
153 166 0
154 166 0
159 172 0
157 172 0
164 178 0
148 158 0
153 167 0
154 170 0
158 174 0
153 164 0
155 171 0
156 169 0
155 170 0
152 165 0
153 167 0
157 171 0
156 170 0
148 161 0
154 166 0
161 175 0
151 164 0
156 168 0
161 176 0
170 192 0
164 187 0
170 193 0
168 192 0
170 193 0
169 192 0
166 189 0
170 192 0
165 187 0
170 192 0
169 192 0
170 192 0
168 191 0
165 187 0
171 195 0
168 190 0
171 195 0
168 191 0
169 192 0
169 191 0
169 192 0
166 190 0
172 195 0
168 192 0
167 190 0
173 195 0
167 189 0
165 188 0
165 188 0
167 190 0
164 186 0
163 186 0
167 190 0
162 184 0
166 188 0
159 182 0
164 188 0
167 190 0
163 186 0
165 188 0
163 187 0
164 187 0
167 189 0
166 190 0
160 182 0
166 190 0
160 182 0
167 191 0
166 188 0
165 188 0
165 188 0
166 189 0
162 185 0
167 190 0
162 185 0
158 181 0
162 185 0
160 183 0
161 184 0
162 185 0
165 188 0
157 180 0
162 184 0
164 187 0
166 189 0
172 194 0
163 187 0
165 187 0
161 183 0
163 185 0
163 185 0
161 183 0
164 186 0
164 186 0
168 191 0
163 186 0
161 184 0
165 189 0
163 187 0
162 185 0
159 182 0
160 183 0
156 178 0
161 184 0
160 183 0
154 177 0
158 181 0
163 185 0
157 180 0
159 182 0
159 183 0
163 184 0
156 180 0
155 178 0
154 177 0
162 185 0
160 183 0
159 183 0
154 177 0
162 185 0
154 176 0
160 183 0
160 183 0
160 183 0
152 174 0
157 180 0
163 186 0
161 185 0
159 182 0
160 182 0
146 169 0
165 186 0
157 180 0
158 180 0
159 182 0
161 183 0
157 179 0
159 183 0
159 181 0
156 178 0
157 180 0
158 180 0
155 178 0
152 175 0
160 183 0
160 182 0
153 176 0
150 172 0
157 180 0
154 176 0
164 188 0
158 180 0
155 177 0
155 177 0
159 180 0
158 179 0
156 179 0
154 177 0
153 175 0
160 182 0
150 172 0
151 173 0
153 176 0
158 181 0
159 181 0
157 180 0
158 180 0
157 180 0
160 183 0
156 178 0
145 166 0
151 175 0
153 175 0
155 177 0
155 176 0
154 177 0
149 171 0
151 174 0
151 174 0
150 172 0
153 176 0
154 176 0
147 169 0
158 180 0
153 176 0
148 170 0
154 176 0
152 174 0
152 175 0
154 176 0
155 178 0
148 169 0
151 173 0
150 172 0
154 178 0
156 178 0
151 173 0
151 173 0
145 167 0
152 174 0
152 173 0
151 173 0
153 175 0
146 168 0
156 178 0
153 175 0
152 174 0
159 180 0
152 174 0
143 165 0
153 174 0
148 169 0
156 179 0
156 178 0
155 177 0
143 164 0
153 174 0
153 175 0
150 171 0
148 169 0
146 167 0
151 173 0
154 176 0
152 174 0
157 178 0
155 177 0
147 168 0
152 174 0
152 174 0
150 172 0
146 168 0
152 173 0
153 176 0
151 173 0
150 171 0
155 177 0
151 172 0
146 167 0
151 172 0
148 170 0
153 175 0
149 172 0
151 172 0
152 174 0
144 165 0
152 174 0
151 172 0
148 170 0
151 175 0
148 170 0
148 169 0
149 170 0
154 175 0
148 169 0
150 169 0
146 167 0
144 165 0
147 168 0
152 172 0
151 173 0
148 167 0
146 166 0
142 162 0
153 173 0
158 179 0
156 178 0
151 173 0
149 170 0
149 171 0
157 177 0
151 172 0
156 177 0
146 166 0
149 170 0
144 165 0
159 181 0
153 174 0
149 169 0
156 178 0
149 169 0
145 165 0
150 170 0
150 171 0
153 172 0
157 178 0
151 172 0
154 173 0
147 167 0
152 172 0
156 175 0
144 163 0
151 172 0
149 169 0
153 172 0
151 173 0
158 178 0
152 171 0
147 164 0
150 172 0
156 175 0
149 169 0
155 175 0
149 169 0
150 169 0
147 166 0
151 172 0
154 171 0
152 173 0
158 177 0
156 174 0
147 165 0
158 177 0
147 167 0
145 163 0
155 173 0
154 173 0
150 167 0
146 163 0
149 168 0
146 163 0
158 178 0
147 166 0
153 171 0
148 166 0
156 174 0
147 167 0
158 176 0
152 170 0
152 172 0
150 168 0
151 171 0
149 165 0
153 170 0
145 163 0
156 174 0
147 166 0
157 175 0
154 170 0
148 167 0
151 171 0
141 156 0
153 171 0
151 169 0
148 165 0
152 170 0
148 166 0
150 169 0
154 172 0
148 164 0
150 166 0
149 166 0
150 167 0
156 173 0
154 173 0
151 166 0
159 177 0
152 168 0
150 164 0
155 173 0
150 165 0
151 166 0
153 170 0
149 163 0
146 162 0
148 163 0
150 168 0
153 170 0
150 164 0
154 170 0
160 175 0
151 168 0
151 167 0
149 163 0
151 165 0
157 174 0
147 158 0
153 168 0
154 167 0
150 165 0
152 167 0
150 165 0
158 172 0
150 165 0
152 167 0
154 167 0
152 165 0
155 169 0
151 168 0
162 179 0
154 170 0
151 166 0
153 167 0
148 162 0
147 159 0
156 171 0
151 164 0
146 158 0
147 158 0
148 162 0
151 165 0
154 168 0
154 167 0
155 168 0
153 166 0
156 169 0
152 165 0
154 166 0
156 167 0
149 161 0
151 163 0
148 164 0
160 174 0
151 165 0
155 165 0
151 166 0
160 177 0
150 161 0
156 169 0
157 171 0
158 172 0
169 193 0
160 182 0
167 190 0
169 193 0
168 191 0
172 194 0
172 194 0
164 186 0
167 191 0
165 187 0
172 194 0
169 191 0
169 192 0
168 191 0
170 193 0
169 192 0
168 191 0
165 187 0
168 191 0
168 190 0
165 187 0
165 188 0
168 192 0
164 186 0
166 188 0
167 190 0
165 187 0
166 189 0
164 186 0
168 191 0
163 187 0
158 181 0
165 188 0
166 189 0
169 191 0
164 187 0
170 194 0
163 186 0
161 184 0
167 189 0
166 188 0
166 189 0
157 180 0
162 185 0
168 191 0
165 187 0
160 182 0
165 187 0
164 187 0
170 193 0
163 186 0
165 188 0
163 185 0
163 186 0
166 188 0
166 187 0
159 182 0
159 181 0
164 187 0
162 184 0
164 187 0
161 185 0
163 187 0
157 179 0
159 182 0
164 187 0
164 186 0
158 181 0
165 187 0
164 187 0
166 189 0
163 185 0
155 179 0
160 182 0
160 184 0
162 184 0
159 183 0
160 182 0
166 188 0
163 186 0
158 181 0
159 182 0
162 185 0
165 187 0
162 185 0
158 180 0
159 181 0
165 187 0
160 183 0
161 184 0
163 186 0
162 186 0
159 182 0
155 178 0
164 187 0
162 184 0
160 183 0
158 181 0
154 177 0
158 181 0
153 176 0
150 173 0
164 187 0
154 177 0
163 186 0
162 184 0
162 184 0
156 179 0
159 182 0
159 183 0
161 183 0
159 180 0
163 186 0
161 184 0
160 182 0
164 187 0
158 181 0
159 182 0
155 177 0
161 184 0
160 183 0
152 174 0
157 180 0
163 185 0
153 175 0
158 180 0
162 183 0
155 177 0
155 178 0
159 182 0
153 177 0
163 186 0
158 181 0
156 179 0
153 176 0
157 180 0
155 179 0
160 183 0
150 173 0
153 175 0
150 173 0
160 182 0
156 178 0
158 180 0
158 181 0
161 184 0
151 174 0
150 173 0
152 174 0
151 173 0
151 174 0
151 173 0
155 178 0
152 175 0
157 180 0
159 183 0
155 177 0
153 176 0
154 176 0
146 167 0
150 172 0
157 180 0
156 177 0
154 177 0
160 183 0
162 184 0
157 179 0
154 176 0
149 171 0
150 173 0
154 175 0
159 182 0
156 180 0
151 173 0
153 176 0
151 173 0
159 182 0
147 169 0
161 183 0
155 177 0
150 172 0
145 167 0
158 181 0
148 170 0
155 176 0
149 171 0
150 172 0
154 176 0
147 169 0
148 169 0
150 170 0
154 176 0
146 168 0
152 175 0
149 171 0
151 174 0
150 171 0
149 170 0
153 175 0
160 181 0
152 174 0
148 171 0
152 173 0
152 174 0
147 167 0
155 176 0
155 177 0
149 172 0
149 171 0
148 170 0
149 171 0
147 169 0
154 175 0
146 167 0
152 175 0
148 169 0
152 174 0
155 177 0
141 163 0
152 172 0
149 171 0
147 167 0
157 178 0
154 175 0
147 168 0
146 168 0
153 173 0
152 173 0
154 176 0
148 170 0
151 173 0
155 175 0
149 171 0
151 174 0
149 169 0
156 178 0
150 171 0
150 171 0
152 173 0
144 164 0
145 165 0
143 165 0
152 172 0
153 175 0
153 175 0
152 174 0
149 170 0
152 172 0
150 172 0
153 174 0
154 174 0
147 167 0
157 179 0
147 167 0
154 173 0
149 170 0
151 172 0
160 181 0
146 168 0
154 174 0
150 172 0
148 168 0
151 172 0
154 176 0
144 164 0
156 176 0
157 179 0
151 170 0
151 171 0
153 171 0
156 175 0
151 171 0
151 173 0
152 170 0
146 166 0
151 171 0
150 170 0
150 171 0
150 170 0
153 171 0
153 173 0
155 174 0
147 167 0
155 175 0
156 176 0
153 175 0
142 162 0
151 171 0
152 170 0
151 171 0
147 168 0
151 172 0
154 175 0
150 170 0
151 171 0
155 175 0
154 173 0
154 174 0
149 166 0
145 163 0
149 168 0
151 169 0
154 174 0
149 169 0
154 175 0
153 173 0
146 165 0
154 172 0
150 168 0
157 176 0
154 173 0
150 168 0
152 171 0
153 170 0
147 166 0
153 172 0
151 170 0
147 165 0
152 171 0
151 171 0
157 174 0
149 165 0
153 170 0
152 169 0
156 173 0
154 171 0
151 169 0
154 172 0
154 171 0
147 161 0
150 166 0
156 173 0
154 172 0
155 171 0
150 166 0
153 170 0
153 169 0
153 170 0
154 171 0
149 165 0
153 169 0
152 168 0
155 169 0
156 171 0
155 172 0
158 176 0
149 163 0
152 167 0
155 171 0
151 168 0
157 172 0
156 171 0
155 173 0
149 165 0
159 176 0
151 166 0
146 158 0
152 168 0
156 170 0
152 168 0
158 172 0
142 154 0
152 166 0
156 170 0
159 177 0
154 169 0
156 169 0
163 180 0
155 171 0
150 166 0
157 172 0
144 157 0
152 166 0
149 165 0
157 172 0
153 169 0
147 160 0
155 168 0
152 167 0
149 163 0
157 172 0
160 175 0
152 166 0
158 169 0
155 169 0
154 169 0
152 166 0
153 167 0
156 169 0
160 174 0
156 171 0
157 168 0
154 167 0
149 161 0
159 174 0
152 167 0
161 176 0
162 176 0
159 175 0
158 169 0
170 192 0
165 189 0
169 192 0
167 190 0
167 190 0
167 190 0
167 190 0
169 193 0
165 187 0
166 188 0
167 190 0
166 189 0
169 192 0
166 190 0
167 190 0
170 194 0
166 189 0
162 184 0
165 187 0
164 187 0
169 193 0
165 189 0
166 188 0
166 189 0
159 182 0
169 192 0
174 197 0
170 193 0
163 187 0
165 188 0
166 188 0
164 187 0
166 190 0
167 190 0
168 191 0
167 190 0
164 187 0
163 187 0
166 189 0
170 193 0
165 188 0
162 184 0
165 188 0
166 188 0
164 186 0
166 188 0
163 186 0
168 191 0
167 190 0
167 190 0
162 185 0
169 192 0
154 178 0
161 185 0
165 188 0
162 185 0
163 186 0
160 184 0
160 183 0
159 182 0
163 185 0
163 186 0
160 183 0
164 186 0
165 187 0
163 187 0
159 181 0
164 187 0
155 178 0
165 188 0
160 183 0
162 185 0
162 185 0
162 185 0
154 176 0
163 187 0
161 184 0
154 177 0
164 188 0
160 183 0
163 186 0
164 186 0
158 181 0
164 187 0
154 177 0
161 184 0
164 188 0
163 186 0
166 190 0
161 184 0
156 178 0
162 185 0
165 188 0
165 188 0
160 183 0
164 188 0
156 179 0
160 183 0
151 174 0
161 184 0
160 183 0
161 184 0
157 181 0
166 189 0
161 183 0
157 180 0
160 183 0
158 180 0
162 185 0
157 179 0
151 175 0
161 184 0
161 185 0
159 184 0
158 181 0
158 181 0
164 186 0
153 176 0
160 182 0
155 178 0
157 179 0
154 178 0
155 178 0
162 185 0
155 178 0
157 181 0
156 179 0
156 179 0
155 176 0
154 177 0
158 181 0
158 179 0
164 187 0
159 181 0
159 181 0
152 176 0
158 181 0
161 183 0
157 180 0
155 178 0
156 180 0
157 181 0
150 171 0
157 181 0
156 178 0
156 178 0
161 183 0
153 175 0
164 187 0
153 175 0
156 177 0
158 179 0
150 171 0
157 180 0
156 179 0
149 172 0
158 181 0
154 177 0
162 185 0
156 178 0
155 177 0
154 178 0
154 177 0
157 179 0
158 181 0
149 170 0
156 178 0
150 171 0
157 180 0
156 179 0
155 179 0
154 177 0
152 175 0
151 172 0
153 175 0
156 179 0
154 176 0
156 177 0
153 175 0
151 174 0
152 174 0
156 178 0
154 176 0
152 174 0
154 176 0
157 178 0
157 180 0
152 173 0
152 175 0
154 176 0
158 181 0
155 177 0
159 182 0
151 174 0
153 174 0
151 172 0
152 175 0
154 175 0
156 179 0
152 174 0
153 175 0
149 172 0
147 168 0
148 170 0
152 173 0
148 169 0
153 174 0
149 170 0
152 173 0
150 172 0
155 177 0
151 172 0
143 165 0
151 173 0
153 175 0
147 169 0
148 170 0
150 172 0
142 162 0
151 172 0
155 177 0
152 173 0
145 166 0
150 171 0
151 172 0
156 177 0
153 173 0
148 169 0
150 171 0
142 163 0
147 169 0
149 169 0
150 171 0
151 173 0
153 174 0
150 172 0
153 174 0
148 168 0
155 177 0
152 170 0
144 165 0
155 176 0
149 169 0
156 177 0
152 173 0
140 161 0
152 174 0
151 172 0
150 171 0
160 181 0
152 173 0
153 174 0
149 170 0
152 173 0
153 174 0
155 177 0
154 175 0
148 168 0
156 176 0
153 174 0
149 168 0
153 172 0
152 172 0
151 171 0
154 174 0
150 170 0
155 176 0
150 168 0
157 179 0
153 174 0
154 175 0
155 174 0
154 175 0
152 173 0
152 172 0
153 172 0
142 163 0
155 174 0
150 169 0
146 165 0
148 169 0
141 160 0
151 171 0
158 179 0
154 174 0
153 173 0
155 174 0
145 165 0
146 165 0
150 170 0
154 175 0
159 177 0
163 183 0
148 167 0
148 165 0
156 175 0
155 175 0
153 175 0
154 173 0
154 172 0
156 176 0
149 169 0
154 174 0
151 170 0
144 160 0
150 169 0
151 169 0
155 174 0
153 173 0
153 172 0
156 175 0
157 175 0
157 174 0
155 173 0
152 170 0
154 175 0
148 166 0
151 170 0
149 168 0
157 176 0
153 171 0
150 168 0
156 175 0
151 167 0
142 159 0
154 172 0
148 167 0
153 173 0
148 166 0
144 162 0
141 158 0
149 166 0
154 170 0
152 169 0
149 166 0
155 169 0
156 174 0
153 169 0
154 171 0
156 174 0
150 164 0
150 168 0
155 172 0
149 164 0
150 167 0
153 169 0
154 170 0
149 164 0
158 176 0
152 166 0
152 168 0
153 168 0
154 171 0
153 169 0
152 167 0
146 162 0
151 168 0
151 167 0
151 165 0
150 166 0
154 169 0
159 171 0
152 167 0
155 168 0
151 165 0
149 162 0
150 165 0
147 163 0
156 172 0
154 171 0
147 162 0
154 168 0
153 167 0
147 161 0
156 170 0
153 165 0
136 151 0
149 165 0
152 165 0
156 168 0
156 170 0
148 161 0
156 170 0
147 161 0
159 173 0
155 168 0
152 167 0
154 168 0
156 169 0
157 170 0
157 170 0
152 165 0
159 174 0
155 169 0
153 167 0
159 172 0
160 174 0
156 171 0
159 171 0
151 163 0
166 188 0
171 193 0
164 187 0
169 192 0
170 193 0
161 184 0
169 191 0
165 189 0
168 191 0
170 193 0
165 188 0
165 188 0
168 191 0
168 191 0
165 189 0
167 189 0
167 189 0
165 187 0
166 189 0
167 190 0
169 193 0
166 189 0
164 187 0
169 191 0
167 190 0
167 189 0
167 190 0
163 186 0
165 188 0
166 188 0
168 190 0
156 179 0
168 190 0
159 182 0
164 187 0
167 191 0
166 188 0
163 185 0
171 192 0
163 186 0
162 185 0
162 185 0
165 188 0
164 187 0
165 187 0
161 184 0
166 189 0
166 189 0
159 182 0
162 185 0
165 188 0
162 185 0
159 182 0
170 193 0
166 189 0
163 187 0
160 184 0
164 186 0
160 183 0
164 187 0
157 180 0
156 179 0
159 182 0
165 188 0
160 183 0
162 184 0
158 181 0
165 187 0
164 187 0
165 189 0
165 188 0
164 187 0
166 189 0
169 192 0
167 190 0
161 185 0
165 187 0
164 187 0
160 182 0
166 189 0
158 182 0
154 177 0
167 190 0
162 185 0
161 184 0
162 185 0
165 187 0
162 184 0
161 183 0
164 187 0
156 178 0
163 186 0
160 184 0
153 177 0
160 182 0
164 187 0
156 179 0
165 187 0
164 187 0
158 182 0
159 181 0
155 179 0
154 176 0
161 183 0
151 173 0
160 183 0
164 187 0
160 184 0
158 180 0
154 177 0
159 181 0
153 176 0
163 186 0
154 177 0
161 183 0
163 186 0
155 178 0
157 181 0
159 182 0
160 182 0
156 178 0
157 180 0
163 186 0
159 181 0
155 178 0
161 183 0
161 185 0
151 174 0
161 185 0
158 182 0
152 174 0
162 184 0
159 182 0
155 178 0
157 180 0
157 181 0
155 177 0
157 180 0
160 182 0
149 171 0
159 182 0
156 179 0
158 181 0
156 178 0
152 175 0
157 179 0
150 172 0
156 178 0
152 176 0
155 177 0
153 176 0
153 175 0
162 185 0
158 180 0
152 175 0
157 180 0
155 177 0
154 176 0
149 171 0
155 177 0
151 173 0
160 183 0
156 179 0
158 181 0
156 179 0
161 184 0
148 171 0
158 181 0
153 176 0
157 180 0
150 173 0
161 184 0
150 172 0
151 173 0
157 180 0
146 168 0
154 176 0
151 173 0
149 171 0
154 176 0
149 169 0
156 177 0
151 172 0
142 163 0
157 180 0
159 181 0
149 171 0
152 175 0
151 173 0
159 181 0
154 176 0
151 173 0
155 177 0
145 167 0
148 170 0
151 172 0
152 174 0
154 176 0
150 172 0
149 172 0
157 178 0
148 170 0
155 177 0
150 172 0
146 169 0
156 178 0
147 169 0
152 172 0
151 173 0
150 172 0
144 166 0
151 171 0
157 178 0
146 169 0
147 168 0
151 172 0
148 168 0
156 179 0
154 175 0
158 181 0
149 170 0
156 179 0
147 169 0
152 175 0
152 172 0
156 178 0
154 176 0
147 168 0
144 165 0
156 180 0
150 170 0
154 176 0
144 165 0
151 173 0
150 172 0
159 182 0
146 166 0
156 178 0
153 174 0
151 173 0
155 177 0
146 166 0
146 166 0
150 171 0
148 168 0
151 170 0
145 165 0
153 173 0
157 179 0
149 170 0
155 177 0
150 172 0
154 174 0
146 167 0
149 171 0
159 180 0
150 170 0
152 172 0
148 169 0
150 171 0
149 169 0
151 171 0
149 169 0
146 166 0
151 171 0
153 172 0
151 172 0
151 170 0
154 174 0
159 177 0
155 175 0
151 171 0
151 171 0
154 174 0
157 178 0
157 177 0
146 165 0
159 178 0
146 165 0
154 174 0
156 177 0
154 173 0
148 167 0
157 177 0
150 169 0
144 163 0
154 174 0
143 162 0
147 166 0
155 176 0
149 170 0
152 171 0
155 175 0
151 171 0
155 173 0
151 171 0
147 165 0
153 173 0
147 165 0
152 169 0
155 173 0
148 167 0
155 175 0
152 172 0
148 167 0
155 173 0
151 169 0
154 172 0
149 167 0
157 175 0
155 173 0
154 172 0
145 164 0
147 166 0
155 174 0
152 172 0
147 165 0
149 168 0
148 166 0
154 171 0
152 169 0
146 163 0
151 168 0
154 171 0
156 175 0
151 168 0
140 157 0
160 180 0
151 167 0
154 173 0
154 172 0
158 176 0
153 169 0
151 168 0
154 171 0
155 171 0
150 165 0
162 181 0
153 167 0
146 162 0
157 172 0
149 165 0
154 172 0
153 171 0
150 164 0
154 170 0
159 175 0
153 169 0
153 170 0
154 170 0
154 172 0
151 167 0
147 163 0
152 169 0
156 173 0
152 166 0
148 164 0
150 166 0
155 172 0
153 171 0
141 158 0
149 163 0
152 168 0
150 166 0
151 167 0
160 178 0
157 173 0
152 167 0
149 162 0
153 167 0
151 168 0
150 164 0
160 176 0
147 162 0
145 156 0
149 164 0
155 174 0
153 166 0
150 163 0
152 167 0
153 169 0
154 170 0
152 165 0
154 169 0
158 171 0
157 172 0
150 161 0
156 171 0
155 168 0
159 175 0
152 165 0
151 166 0
153 167 0
155 170 0
156 171 0
157 172 0
153 165 0
152 165 0
151 163 0
153 167 0
169 192 0
166 188 0
163 186 0
165 187 0
166 188 0
169 192 0
166 189 0
167 190 0
164 187 0
165 188 0
168 191 0
169 192 0
167 190 0
168 190 0
166 189 0
169 192 0
166 188 0
165 188 0
169 192 0
165 189 0
168 191 0
169 192 0
167 190 0
170 193 0
161 184 0
162 185 0
166 188 0
170 192 0
165 188 0
162 185 0
163 186 0
164 187 0
162 184 0
162 186 0
169 192 0
164 187 0
167 190 0
165 188 0
159 181 0
168 191 0
167 190 0
166 189 0
165 187 0
167 190 0
165 188 0
165 187 0
164 186 0
168 191 0
168 191 0
167 189 0
163 186 0
164 187 0
164 187 0
164 185 0
166 188 0
165 188 0
162 185 0
166 189 0
164 187 0
159 181 0
167 190 0
158 181 0
169 192 0
164 186 0
155 177 0
167 189 0
163 187 0
161 183 0
167 190 0
165 189 0
164 185 0
162 185 0
165 188 0
161 184 0
155 178 0
162 185 0
162 184 0
163 185 0
160 183 0
161 183 0
164 188 0
161 184 0
156 180 0
159 181 0
164 187 0
161 185 0
157 181 0
158 180 0
163 186 0
164 188 0
156 179 0
163 186 0
164 186 0
154 177 0
160 182 0
163 185 0
160 183 0
163 186 0
157 181 0
160 183 0
161 185 0
163 185 0
159 181 0
161 183 0
166 189 0
162 184 0
160 183 0
153 176 0
160 184 0
149 172 0
160 182 0
161 184 0
162 184 0
161 184 0
158 182 0
151 174 0
163 186 0
166 190 0
158 180 0
158 180 0
157 181 0
157 180 0
161 185 0
161 183 0
152 174 0
161 182 0
162 185 0
157 179 0
154 177 0
164 187 0
158 180 0
156 178 0
158 180 0
154 177 0
156 179 0
158 180 0
157 179 0
159 182 0
160 183 0
164 187 0
149 172 0
159 181 0
157 180 0
149 171 0
149 172 0
160 182 0
158 181 0
153 175 0
148 171 0
156 178 0
151 172 0
154 176 0
152 173 0
162 183 0
150 172 0
155 178 0
151 173 0
157 180 0
151 173 0
157 179 0
155 177 0
159 181 0
157 179 0
159 181 0
160 182 0
154 176 0
156 178 0
156 178 0
154 177 0
157 179 0
148 170 0
148 171 0
160 183 0
158 181 0
160 183 0
148 168 0
151 173 0
153 175 0
149 170 0
151 174 0
149 173 0
159 181 0
156 178 0
151 173 0
149 171 0
159 183 0
145 168 0
155 177 0
155 176 0
151 173 0
156 178 0
152 173 0
156 179 0
153 175 0
151 173 0
161 182 0
155 177 0
151 173 0
158 179 0
154 175 0
153 174 0
146 168 0
147 168 0
155 177 0
152 173 0
156 177 0
147 167 0
158 180 0
149 171 0
156 177 0
154 176 0
153 173 0
151 173 0
151 173 0
156 179 0
155 177 0
156 177 0
151 174 0
155 177 0
150 172 0
154 174 0
144 165 0
153 175 0
151 173 0
154 175 0
152 174 0
148 169 0
147 167 0
146 169 0
148 170 0
154 175 0
156 178 0
155 175 0
154 176 0
145 166 0
149 170 0
150 171 0
153 175 0
147 167 0
158 179 0
148 168 0
149 170 0
147 168 0
159 181 0
147 169 0
149 169 0
152 172 0
146 166 0
143 162 0
153 173 0
156 177 0
147 168 0
154 175 0
157 178 0
156 179 0
150 172 0
152 174 0
151 172 0
150 170 0
156 178 0
153 175 0
149 170 0
154 176 0
160 179 0
153 174 0
152 172 0
147 167 0
145 165 0
153 176 0
159 179 0
154 175 0
146 165 0
159 179 0
149 169 0
149 169 0
148 168 0
151 171 0
159 180 0
149 168 0
151 170 0
151 169 0
156 175 0
155 174 0
148 169 0
150 170 0
148 166 0
150 168 0
146 166 0
155 174 0
145 164 0
154 176 0
155 174 0
149 169 0
146 165 0
146 168 0
155 171 0
150 168 0
154 175 0
147 166 0
146 164 0
157 179 0
149 167 0
154 173 0
146 164 0
153 171 0
156 173 0
153 170 0
147 166 0
157 175 0
159 178 0
157 178 0
151 169 0
154 172 0
147 163 0
152 171 0
149 165 0
153 171 0
152 171 0
150 169 0
159 176 0
149 166 0
157 176 0
155 173 0
157 175 0
155 174 0
159 178 0
154 172 0
153 169 0
159 178 0
149 167 0
152 170 0
155 171 0
152 168 0
148 164 0
150 167 0
155 173 0
145 162 0
150 167 0
150 166 0
157 175 0
160 176 0
149 165 0
163 181 0
150 167 0
156 172 0
153 168 0
152 168 0
155 173 0
158 175 0
159 178 0
156 175 0
157 176 0
156 173 0
151 165 0
156 175 0
159 176 0
157 175 0
149 165 0
153 171 0
154 170 0
146 163 0
150 165 0
150 164 0
159 175 0
153 167 0
157 174 0
155 171 0
144 158 0
149 166 0
155 170 0
157 172 0
151 167 0
157 172 0
150 165 0
154 170 0
159 176 0
149 164 0
155 172 0
157 172 0
152 169 0
155 171 0
155 168 0
152 167 0
151 165 0
153 167 0
151 165 0
159 175 0
153 167 0
151 163 0
153 165 0
158 174 0
154 169 0
154 168 0
150 162 0
151 165 0
156 167 0
157 171 0
157 173 0
156 169 0
157 171 0
167 190 0
166 189 0
166 189 0
166 189 0
165 188 0
172 195 0
166 188 0
167 190 0
167 190 0
168 191 0
170 193 0
166 188 0
168 190 0
167 190 0
173 195 0
166 189 0
165 188 0
165 189 0
159 183 0
167 190 0
169 192 0
164 187 0
166 188 0
170 193 0
164 186 0
163 186 0
167 190 0
169 191 0
162 185 0
165 188 0
160 183 0
167 190 0
167 191 0
163 186 0
163 187 0
164 187 0
170 193 0
171 194 0
168 190 0
166 190 0
165 188 0
162 186 0
164 188 0
162 185 0
166 189 0
166 189 0
170 193 0
167 189 0
164 186 0
161 185 0
163 186 0
163 187 0
164 187 0
164 187 0
165 187 0
167 189 0
166 188 0
164 186 0
167 189 0
158 181 0
160 182 0
163 185 0
166 188 0
164 187 0
160 183 0
162 186 0
161 184 0
157 180 0
167 190 0
158 180 0
162 186 0
158 181 0
156 179 0
156 180 0
165 188 0
163 186 0
165 187 0
159 182 0
158 181 0
165 188 0
164 186 0
166 189 0
166 188 0
165 188 0
159 182 0
158 182 0
160 183 0
158 181 0
165 187 0
161 184 0
166 190 0
162 184 0
158 181 0
166 189 0
162 185 0
156 178 0
165 188 0
162 184 0
160 184 0
161 184 0
164 187 0
164 187 0
160 183 0
160 184 0
161 184 0
159 182 0
161 184 0
168 191 0
158 181 0
163 186 0
157 180 0
161 184 0
156 178 0
163 186 0
165 187 0
155 178 0
150 173 0
162 184 0
155 178 0
159 181 0
159 181 0
158 181 0
158 180 0
158 179 0
162 185 0
161 183 0
155 176 0
158 181 0
155 179 0
159 182 0
158 181 0
161 184 0
156 179 0
157 179 0
152 175 0
161 184 0
158 180 0
150 173 0
153 175 0
158 179 0
158 181 0
156 178 0
159 181 0
161 183 0
158 180 0
150 172 0
154 176 0
159 182 0
154 175 0
155 178 0
154 176 0
147 169 0
162 184 0
161 185 0
154 177 0
158 181 0
153 176 0
157 179 0
158 180 0
156 178 0
157 180 0
153 174 0
161 183 0
157 178 0
154 177 0
155 177 0
152 174 0
153 175 0
161 182 0
157 179 0
157 179 0
154 178 0
162 185 0
148 170 0
158 179 0
150 173 0
148 171 0
147 168 0
154 176 0
151 173 0
152 174 0
154 177 0
157 179 0
155 177 0
153 175 0
155 178 0
153 174 0
153 174 0
150 172 0
149 170 0
156 177 0
151 173 0
152 174 0
151 172 0
147 168 0
152 172 0
155 177 0
152 173 0
155 177 0
157 178 0
152 172 0
156 177 0
152 174 0
156 178 0
153 175 0
148 169 0
150 172 0
145 166 0
152 173 0
143 166 0
153 175 0
156 176 0
150 173 0
151 173 0
153 176 0
150 171 0
159 182 0
152 175 0
154 177 0
151 171 0
156 177 0
151 172 0
154 175 0
139 160 0
153 174 0
148 170 0
145 165 0
153 174 0
156 178 0
158 181 0
145 166 0
148 170 0
157 180 0
152 174 0
148 170 0
147 167 0
149 172 0
147 168 0
148 168 0
155 177 0
149 170 0
152 173 0
153 174 0
142 162 0
151 172 0
154 175 0
156 179 0
154 176 0
143 164 0
150 171 0
145 168 0
152 173 0
149 168 0
148 169 0
146 168 0
153 173 0
150 171 0
147 169 0
151 171 0
157 180 0
155 176 0
145 164 0
154 174 0
152 173 0
153 175 0
145 167 0
146 166 0
151 172 0
156 176 0
149 169 0
148 169 0
148 168 0
158 179 0
149 170 0
153 174 0
145 166 0
151 171 0
156 177 0
153 173 0
152 171 0
150 170 0
154 174 0
154 175 0
158 180 0
154 174 0
152 173 0
154 174 0
158 178 0
149 168 0
154 174 0
152 172 0
155 175 0
155 177 0
153 172 0
154 173 0
161 181 0
144 162 0
153 171 0
153 173 0
155 176 0
155 175 0
152 172 0
156 175 0
159 179 0
154 173 0
155 174 0
160 180 0
152 171 0
149 166 0
162 181 0
150 170 0
154 173 0
150 168 0
148 167 0
148 166 0
153 172 0
150 170 0
149 168 0
150 168 0
157 177 0
152 169 0
152 170 0
153 169 0
149 167 0
146 165 0
146 164 0
156 174 0
153 171 0
159 178 0
154 171 0
159 176 0
153 170 0
151 168 0
152 169 0
150 165 0
157 176 0
154 170 0
157 176 0
155 172 0
150 165 0
150 167 0
160 178 0
158 173 0
150 167 0
158 176 0
159 176 0
154 171 0
155 174 0
156 169 0
155 174 0
157 173 0
155 170 0
151 168 0
149 166 0
154 171 0
150 163 0
147 164 0
146 160 0
157 174 0
156 170 0
154 171 0
155 172 0
151 167 0
152 168 0
161 176 0
148 162 0
152 170 0
149 165 0
152 166 0
150 165 0
147 162 0
158 175 0
155 170 0
155 168 0
152 169 0
148 162 0
153 168 0
146 160 0
155 171 0
153 168 0
152 168 0
153 169 0
153 167 0
155 169 0
160 174 0
159 175 0
154 170 0
157 173 0
155 170 0
154 167 0
155 173 0
150 165 0
150 163 0
152 167 0
162 176 0
155 170 0
155 169 0
155 168 0
159 172 0
157 173 0
169 192 0
170 192 0
167 189 0
167 190 0
164 187 0
172 195 0
171 194 0
163 187 0
168 191 0
167 190 0
170 192 0
161 185 0
165 189 0
161 184 0
165 188 0
164 187 0
165 187 0
165 187 0
163 186 0
165 188 0
167 189 0
166 189 0
161 184 0
167 189 0
168 191 0
162 185 0
164 187 0
162 184 0
166 189 0
161 184 0
162 185 0
166 189 0
171 194 0
167 190 0
171 194 0
165 187 0
165 187 0
163 185 0
162 186 0
166 188 0
161 184 0
163 185 0
168 191 0
163 187 0
164 188 0
164 187 0
169 192 0
167 190 0
164 187 0
162 185 0
163 186 0
162 184 0
164 187 0
163 186 0
164 188 0
164 187 0
166 189 0
159 182 0
159 182 0
163 186 0
163 187 0
161 185 0
164 186 0
167 190 0
163 186 0
163 187 0
161 184 0
158 182 0
166 189 0
162 186 0
166 190 0
162 184 0
158 181 0
162 185 0
156 178 0
167 190 0
162 184 0
159 182 0
165 188 0
160 183 0
157 180 0
163 185 0
163 186 0
165 187 0
162 185 0
164 187 0
155 178 0
167 189 0
160 183 0
162 185 0
163 186 0
159 181 0
162 184 0
155 178 0
160 183 0
163 186 0
157 178 0
162 185 0
164 187 0
162 186 0
160 184 0
158 180 0
160 182 0
159 182 0
161 183 0
164 188 0
158 180 0
160 184 0
156 179 0
155 177 0
162 185 0
163 187 0
156 177 0
156 178 0
161 183 0
156 180 0
157 179 0
156 179 0
157 179 0
156 179 0
158 180 0
157 180 0
159 182 0
158 181 0
151 174 0
160 183 0
159 181 0
164 186 0
160 183 0
157 178 0
153 176 0
156 180 0
158 180 0
157 179 0
153 175 0
157 179 0
154 177 0
154 176 0
154 176 0
157 181 0
153 176 0
158 181 0
152 173 0
155 178 0
159 181 0
159 182 0
155 178 0
154 175 0
156 178 0
153 176 0
153 176 0
150 173 0
156 178 0
160 184 0
152 175 0
156 178 0
153 177 0
160 182 0
151 174 0
158 180 0
161 184 0
153 175 0
149 171 0
154 176 0
156 179 0
156 178 0
156 178 0
153 176 0
159 182 0
155 177 0
152 175 0
155 177 0
154 178 0
150 172 0
157 178 0
156 181 0
152 176 0
154 176 0
156 179 0
157 179 0
158 180 0
149 172 0
158 181 0
152 175 0
154 177 0
151 173 0
154 176 0
150 170 0
156 179 0
155 175 0
153 174 0
151 173 0
155 177 0
148 169 0
150 173 0
156 178 0
159 181 0
149 172 0
155 176 0
155 177 0
151 173 0
159 181 0
147 168 0
152 174 0
153 174 0
155 176 0
149 170 0
149 170 0
152 171 0
155 176 0
152 173 0
144 166 0
147 168 0
153 174 0
155 177 0
150 173 0
154 175 0
150 172 0
156 179 0
155 178 0
151 171 0
148 170 0
152 172 0
156 178 0
151 172 0
152 174 0
145 167 0
153 175 0
156 179 0
153 174 0
153 173 0
148 169 0
149 169 0
153 175 0
150 171 0
151 173 0
156 179 0
150 172 0
150 172 0
154 175 0
148 169 0
145 166 0
153 172 0
156 177 0
151 171 0
151 172 0
152 174 0
146 167 0
159 179 0
153 175 0
154 175 0
152 173 0
153 176 0
150 172 0
151 170 0
150 172 0
151 173 0
154 176 0
148 169 0
155 177 0
151 172 0
157 176 0
148 167 0
149 172 0
160 181 0
164 185 0
153 173 0
145 165 0
155 175 0
149 169 0
154 174 0
155 174 0
156 178 0
152 173 0
152 172 0
157 178 0
145 163 0
152 172 0
151 170 0
155 176 0
145 165 0
149 168 0
148 165 0
154 175 0
155 175 0
153 173 0
150 171 0
152 172 0
147 167 0
148 168 0
151 171 0
151 170 0
158 179 0
156 175 0
151 171 0
147 167 0
146 165 0
154 173 0
146 164 0
154 173 0
149 167 0
146 165 0
151 170 0
147 166 0
153 171 0
148 166 0
154 173 0
151 168 0
151 169 0
151 170 0
159 179 0
154 173 0
146 165 0
151 168 0
157 175 0
158 178 0
153 172 0
150 168 0
148 166 0
152 172 0
159 178 0
149 167 0
148 167 0
148 167 0
156 175 0
155 172 0
154 172 0
151 168 0
152 171 0
159 177 0
159 179 0
154 171 0
151 169 0
153 169 0
154 171 0
155 172 0
157 174 0
151 168 0
157 175 0
149 168 0
158 177 0
150 168 0
147 163 0
151 166 0
157 175 0
157 175 0
153 168 0
155 172 0
155 172 0
157 175 0
150 168 0
156 172 0
150 165 0
153 168 0
158 176 0
151 169 0
150 167 0
156 172 0
151 165 0
155 170 0
154 172 0
154 169 0
153 169 0
152 166 0
153 167 0
154 171 0
155 172 0
157 173 0
158 172 0
151 167 0
151 166 0
156 172 0
150 166 0
160 175 0
156 173 0
156 170 0
154 169 0
157 173 0
153 172 0
152 168 0
152 168 0
157 170 0
150 163 0
161 178 0
156 172 0
147 161 0
147 162 0
161 175 0
157 171 0
155 169 0
154 167 0
153 169 0
158 171 0
151 166 0
151 164 0
158 172 0
154 170 0
148 164 0
150 161 0
164 181 0
170 193 0
167 190 0
170 193 0
170 193 0
163 186 0
168 190 0
165 188 0
166 188 0
168 191 0
165 189 0
166 190 0
168 190 0
166 190 0
169 192 0
167 189 0
160 183 0
171 193 0
165 188 0
164 186 0
166 189 0
168 192 0
168 191 0
165 187 0
168 191 0
168 191 0
169 191 0
165 188 0
162 184 0
168 192 0
164 188 0
168 191 0
167 190 0
165 188 0
167 190 0
170 193 0
164 187 0
168 191 0
165 188 0
164 187 0
154 177 0
169 192 0
168 191 0
165 188 0
163 186 0
158 180 0
170 193 0
164 187 0
167 190 0
160 182 0
163 186 0
168 191 0
162 184 0
166 189 0
160 183 0
168 190 0
162 185 0
167 190 0
164 187 0
155 178 0
163 186 0
166 188 0
158 180 0
164 188 0
163 185 0
161 184 0
166 187 0
163 186 0
162 185 0
162 185 0
163 184 0
164 186 0
161 184 0
160 183 0
165 189 0
165 187 0
163 186 0
158 181 0
165 188 0
167 190 0
157 180 0
158 181 0
163 186 0
158 181 0
162 186 0
159 182 0
160 184 0
162 184 0
162 185 0
163 187 0
156 179 0
158 181 0
163 185 0
162 185 0
158 180 0
159 182 0
155 178 0
161 184 0
158 182 0
157 180 0
160 183 0
163 185 0
161 185 0
153 175 0
159 181 0
164 187 0
159 183 0
158 181 0
162 185 0
158 180 0
164 187 0
157 180 0
157 180 0
165 188 0
155 178 0
156 180 0
152 175 0
161 184 0
161 184 0
164 187 0
164 187 0
157 180 0
149 172 0
159 181 0
152 175 0
155 177 0
161 184 0
163 185 0
159 181 0
159 182 0
159 181 0
157 179 0
157 179 0
160 184 0
157 180 0
162 185 0
162 186 0
157 179 0
153 176 0
156 179 0
164 187 0
156 179 0
157 180 0
154 176 0
165 188 0
154 177 0
149 171 0
155 179 0
150 172 0
158 181 0
165 188 0
149 172 0
155 177 0
153 175 0
155 177 0
151 174 0
154 176 0
156 179 0
154 175 0
153 177 0
148 171 0
160 183 0
155 178 0
157 179 0
155 178 0
161 183 0
151 173 0
149 170 0
158 181 0
153 175 0
150 174 0
151 173 0
156 179 0
156 178 0
159 181 0
149 171 0
151 174 0
151 173 0
147 169 0
154 176 0
156 179 0
151 172 0
156 177 0
150 171 0
157 179 0
154 176 0
153 176 0
149 170 0
156 179 0
155 178 0
152 173 0
155 176 0
146 169 0
155 177 0
162 184 0
154 175 0
148 171 0
150 172 0
153 174 0
148 170 0
151 171 0
149 171 0
154 176 0
150 173 0
157 178 0
147 169 0
148 170 0
148 169 0
150 173 0
152 174 0
148 170 0
143 164 0
148 170 0
153 174 0
156 178 0
154 176 0
152 174 0
156 177 0
154 176 0
149 172 0
153 174 0
156 178 0
152 173 0
154 176 0
150 171 0
151 172 0
146 167 0
155 177 0
149 171 0
151 172 0
154 175 0
150 172 0
149 171 0
151 172 0
155 177 0
150 171 0
152 171 0
152 173 0
153 173 0
145 165 0
153 174 0
155 176 0
155 175 0
160 182 0
149 169 0
156 178 0
150 173 0
150 171 0
153 174 0
151 171 0
156 175 0
145 167 0
151 173 0
152 173 0
147 168 0
152 172 0
153 173 0
149 170 0
150 172 0
145 166 0
154 176 0
153 174 0
152 174 0
153 173 0
148 168 0
149 171 0
155 176 0
155 177 0
158 180 0
152 173 0
147 166 0
159 178 0
152 172 0
150 170 0
155 177 0
149 168 0
149 170 0
150 169 0
149 169 0
157 179 0
151 171 0
151 171 0
146 167 0
144 163 0
150 170 0
151 170 0
152 172 0
154 174 0
159 178 0
152 173 0
151 171 0
149 169 0
155 173 0
158 179 0
154 174 0
151 170 0
150 169 0
151 171 0
156 176 0
152 171 0
146 165 0
154 175 0
156 175 0
150 168 0
154 173 0
150 170 0
152 173 0
152 169 0
154 175 0
150 169 0
151 168 0
144 163 0
150 169 0
148 165 0
148 166 0
159 177 0
159 181 0
152 172 0
153 172 0
155 173 0
153 172 0
157 173 0
151 171 0
155 173 0
161 179 0
155 174 0
157 175 0
148 164 0
156 174 0
153 171 0
155 172 0
155 174 0
154 170 0
153 170 0
148 167 0
157 175 0
155 173 0
154 172 0
150 168 0
149 167 0
152 170 0
151 166 0
150 169 0
154 171 0
154 174 0
152 169 0
155 174 0
156 174 0
153 172 0
152 169 0
148 165 0
153 171 0
152 169 0
158 176 0
154 169 0
151 168 0
159 176 0
159 174 0
159 174 0
150 167 0
156 175 0
150 166 0
149 165 0
145 160 0
153 169 0
150 164 0
155 170 0
152 166 0
146 159 0
152 168 0
151 168 0
153 168 0
155 171 0
155 170 0
154 170 0
156 173 0
153 166 0
157 173 0
153 168 0
151 165 0
152 165 0
154 171 0
146 159 0
153 167 0
157 172 0
158 174 0
160 178 0
152 168 0
154 170 0
148 161 0
155 172 0
152 164 0
158 172 0
154 167 0
153 165 0
160 173 0
153 168 0
156 170 0
154 170 0
154 171 0
159 177 0
168 191 0
170 193 0
170 193 0
166 188 0
171 194 0
168 191 0
166 190 0
171 194 0
169 192 0
168 191 0
165 189 0
166 189 0
170 193 0
163 186 0
171 193 0
168 192 0
167 190 0
163 186 0
161 184 0
166 189 0
164 187 0
164 187 0
167 189 0
167 190 0
165 188 0
165 188 0
166 189 0
165 188 0
162 185 0
168 190 0
165 189 0
162 185 0
165 188 0
159 182 0
166 190 0
165 189 0
165 188 0
167 190 0
162 185 0
165 188 0
161 184 0
168 191 0
160 183 0
165 188 0
166 189 0
163 185 0
164 187 0
164 187 0
169 192 0
161 184 0
158 181 0
166 188 0
158 180 0
161 184 0
164 187 0
156 178 0
162 185 0
160 182 0
163 186 0
159 182 0
161 183 0
162 185 0
162 185 0
166 189 0
162 184 0
166 189 0
165 186 0
164 186 0
165 187 0
160 183 0
165 188 0
166 190 0
157 179 0
166 189 0
159 182 0
168 191 0
163 186 0
166 188 0
164 187 0
164 187 0
165 188 0
157 181 0
164 187 0
158 182 0
165 187 0
165 187 0
166 189 0
164 187 0
156 179 0
159 181 0
163 186 0
164 187 0
157 180 0
163 186 0
160 183 0
162 184 0
164 187 0
161 183 0
156 179 0
157 180 0
162 185 0
164 187 0
158 181 0
162 185 0
163 186 0
161 184 0
153 176 0
159 182 0
166 189 0
154 177 0
161 183 0
162 185 0
163 185 0
163 187 0
162 185 0
158 180 0
158 179 0
163 185 0
158 180 0
163 186 0
153 176 0
159 181 0
159 181 0
155 178 0
163 187 0
160 183 0
160 183 0
155 178 0
157 179 0
148 171 0
158 180 0
162 184 0
161 184 0
157 179 0
155 178 0
149 171 0
150 173 0
158 181 0
161 184 0
161 183 0
152 175 0
158 181 0
159 182 0
154 175 0
151 174 0
153 176 0
162 185 0
161 184 0
154 176 0
149 171 0
158 181 0
159 182 0
156 180 0
155 177 0
158 180 0
152 174 0
156 179 0
153 176 0
158 182 0
161 184 0
153 175 0
160 184 0
156 178 0
155 177 0
160 182 0
157 179 0
162 183 0
156 178 0
152 173 0
154 177 0
156 178 0
160 181 0
161 183 0
154 176 0
154 176 0
159 181 0
152 174 0
155 178 0
143 166 0
150 172 0
156 177 0
156 178 0
153 175 0
155 176 0
151 173 0
151 173 0
157 178 0
151 174 0
157 180 0
157 179 0
158 182 0
151 174 0
153 175 0
155 177 0
150 172 0
153 174 0
152 174 0
154 177 0
152 173 0
158 180 0
158 180 0
153 174 0
156 177 0
153 175 0
151 172 0
148 169 0
153 175 0
154 177 0
150 172 0
151 173 0
154 176 0
154 176 0
152 173 0
148 169 0
155 177 0
151 172 0
152 174 0
153 175 0
150 171 0
154 176 0
155 175 0
158 180 0
149 171 0
152 173 0
147 170 0
150 171 0
154 175 0
147 169 0
150 171 0
151 172 0
146 167 0
153 174 0
154 176 0
153 174 0
149 170 0
155 175 0
156 178 0
157 180 0
149 169 0
154 174 0
154 174 0
148 169 0
159 181 0
154 176 0
147 169 0
157 179 0
151 172 0
147 168 0
151 172 0
149 169 0
157 179 0
154 172 0
157 179 0
155 175 0
149 170 0
149 170 0
153 175 0
155 177 0
162 183 0
148 169 0
156 178 0
155 174 0
159 180 0
143 164 0
153 174 0
153 172 0
148 169 0
157 177 0
158 179 0
144 164 0
156 177 0
156 179 0
151 171 0
157 177 0
154 174 0
153 174 0
146 166 0
147 167 0
151 170 0
150 170 0
158 178 0
159 179 0
155 177 0
153 173 0
154 174 0
145 165 0
160 180 0
153 172 0
156 177 0
157 176 0
152 172 0
150 169 0
153 173 0
157 176 0
163 185 0
151 170 0
151 170 0
151 172 0
154 172 0
155 173 0
154 173 0
153 173 0
147 165 0
147 167 0
155 172 0
154 173 0
159 181 0
156 176 0
149 167 0
153 173 0
152 170 0
152 167 0
149 168 0
154 170 0
158 175 0
153 174 0
157 175 0
153 172 0
145 162 0
147 163 0
146 164 0
152 169 0
150 169 0
159 178 0
155 174 0
149 164 0
151 169 0
148 168 0
155 173 0
158 175 0
150 168 0
157 177 0
146 162 0
155 171 0
151 170 0
154 170 0
152 169 0
154 173 0
150 168 0
145 165 0
156 174 0
154 171 0
159 176 0
155 173 0
155 171 0
162 181 0
154 174 0
151 168 0
154 172 0
156 173 0
151 169 0
153 169 0
156 173 0
152 169 0
163 181 0
161 179 0
157 173 0
153 170 0
160 177 0
155 173 0
149 165 0
145 158 0
152 167 0
147 163 0
155 170 0
151 167 0
160 177 0
153 170 0
147 164 0
151 166 0
146 162 0
159 174 0
156 171 0
149 165 0
151 166 0
160 175 0
153 169 0
145 158 0
159 176 0
158 173 0
160 177 0
152 165 0
151 166 0
154 171 0
153 168 0
157 170 0
162 178 0
159 176 0
152 170 0
153 169 0
159 174 0
156 171 0
156 173 0
152 167 0
153 168 0
159 171 0
156 169 0
158 174 0
159 174 0
163 180 0
